;FLAVOR:RepRap
;TIME:3364
;Filament used: 2.81319m
;Layer height: 0.15
;MINX:2.7
;MINY:19.726
;MINZ:0.3
;MAXX:97.3
;MAXY:80.353
;MAXZ:12
;TARGET_MACHINE.NAME:Unknown
;Generated with Cura_SteamEngine 5.7.2
T0
M104 S200
M109 S200
M82 ;absolute extrusion mode
G28 ;Home
G1 Z15.0 F6000 ;Move the platform down 15mm
G92 E0
M83 ;relative extrusion mode
G1 F1500 E-6.5
;LAYER_COUNT:79
;LAYER:0
M107
G0 F3600 X8.222 Y20 Z0.3
;TYPE:SKIRT
G1 F1500 E6.5
G1 F1800 X9.746 Y19.778 E0.07684
G1 X90.122 Y19.726 E4.00998
G1 X92.179 Y20.148 E0.10476
G1 X93.95 Y21.143 E0.10135
G1 X94.948 Y21.916 E0.06298
G1 X96.04 Y23.269 E0.08674
G1 X97.026 Y25.248 E0.11031
G1 X97.248 Y26.772 E0.07684
G1 X97.3 Y73.148 E2.31371
G1 X96.878 Y75.205 E0.10476
G1 X95.883 Y76.976 E0.10135
G1 X95.11 Y77.974 E0.06298
G1 X93.757 Y79.066 E0.08674
G1 X91.778 Y80.052 E0.11031
G1 X90.254 Y80.274 E0.07684
G1 X16.138 Y80.326 E3.69766
G1 X16.033 Y80.335 E0.00526
G1 X9.879 Y80.353 E0.30703
G1 X7.821 Y79.931 E0.10481
G1 X6.05 Y78.936 E0.10135
G1 X5.052 Y78.163 E0.06298
G1 X3.96 Y76.81 E0.08674
G1 X2.974 Y74.831 E0.11031
G1 X2.752 Y73.307 E0.07684
G1 X2.7 Y59.407 E0.69348
G1 X3.122 Y57.347 E0.10491
G1 X4.117 Y55.576 E0.10135
G1 X4.89 Y54.578 E0.06298
G1 X6.243 Y53.488 E0.08668
G1 X8.229 Y52.499 E0.11069
G1 X10.09 Y52.253 E0.09365
G1 X12.332 Y52.242 E0.11186
G1 X12.332 Y47.826 E0.22032
G1 X9.878 Y47.826 E0.12243
G1 X7.821 Y47.404 E0.10476
G1 X6.05 Y46.409 E0.10135
G1 X5.052 Y45.636 E0.06298
G1 X3.96 Y44.283 E0.08674
G1 X2.974 Y42.304 E0.11031
G1 X2.752 Y40.78 E0.07684
G1 X2.7 Y26.907 E0.69213
G1 X3.122 Y24.847 E0.10491
G1 X4.117 Y23.076 E0.10135
G1 X4.89 Y22.078 E0.06298
G1 X6.243 Y20.986 E0.08674
G1 X8.222 Y20 E0.11031
G0 F3600 X8.342 Y20.387
G1 F1800 X9.804 Y20.174 E0.07371
G1 X90.081 Y20.126 E4.00504
G1 X92.038 Y20.528 E0.09967
G1 X93.705 Y21.459 E0.09526
G1 X94.667 Y22.204 E0.0607
G1 X95.701 Y23.486 E0.08217
G1 X96.639 Y25.368 E0.10491
G1 X96.852 Y26.83 E0.07371
G1 X96.9 Y73.107 E2.30877
G1 X96.498 Y75.064 E0.09967
G1 X95.567 Y76.731 E0.09526
G1 X94.822 Y77.693 E0.0607
G1 X93.54 Y78.727 E0.08217
G1 X91.658 Y79.665 E0.10491
G1 X90.196 Y79.878 E0.07371
G1 X16.116 Y79.926 E3.69587
G1 X15.999 Y79.936 E0.00586
G1 X9.919 Y79.953 E0.30333
G1 X7.962 Y79.551 E0.09967
G1 X6.295 Y78.62 E0.09526
G1 X5.333 Y77.875 E0.0607
G1 X4.299 Y76.593 E0.08217
G1 X3.361 Y74.711 E0.10491
G1 X3.148 Y73.249 E0.07371
G1 X3.1 Y59.447 E0.68859
G1 X3.502 Y57.488 E0.09977
G1 X4.433 Y55.821 E0.09526
G1 X5.178 Y54.859 E0.0607
G1 X6.459 Y53.827 E0.08207
G1 X8.346 Y52.887 E0.10518
G1 X10.142 Y52.65 E0.09038
G1 X12.732 Y52.64 E0.12922
G1 X12.732 Y47.426 E0.26013
G1 X9.919 Y47.426 E0.14034
G1 X7.962 Y47.024 E0.09967
G1 X6.295 Y46.093 E0.09526
G1 X5.333 Y45.348 E0.0607
G1 X4.299 Y44.066 E0.08217
G1 X3.361 Y42.184 E0.10491
G1 X3.148 Y40.722 E0.07371
G1 X3.1 Y26.947 E0.68724
G1 X3.502 Y24.988 E0.09977
G1 X4.433 Y23.321 E0.09526
G1 X5.178 Y22.359 E0.0607
G1 X6.46 Y21.325 E0.08217
G1 X8.342 Y20.387 E0.10491
G0 F3600 X8.462 Y20.774
G1 F1800 X9.862 Y20.57 E0.07058
G1 X90.039 Y20.526 E4.00005
G1 X91.897 Y20.908 E0.09463
G1 X93.46 Y21.775 E0.08917
G1 X94.386 Y22.492 E0.05843
G1 X95.362 Y23.703 E0.0776
G1 X96.252 Y25.488 E0.09951
G1 X96.456 Y26.888 E0.07058
G1 X96.5 Y73.065 E2.30378
G1 X96.118 Y74.923 E0.09463
G1 X95.251 Y76.486 E0.08917
G1 X94.534 Y77.412 E0.05843
G1 X93.323 Y78.388 E0.0776
G1 X91.538 Y79.278 E0.09951
G1 X90.138 Y79.482 E0.07058
G1 X16.093 Y79.526 E3.69412
G1 X15.965 Y79.537 E0.00641
G1 X9.961 Y79.553 E0.29954
G1 X8.103 Y79.171 E0.09463
G1 X6.54 Y78.304 E0.08917
G1 X5.614 Y77.587 E0.05843
G1 X4.638 Y76.376 E0.0776
G1 X3.748 Y74.591 E0.09951
G1 X3.544 Y73.191 E0.07058
G1 X3.5 Y59.488 E0.68365
G1 X3.882 Y57.629 E0.09468
G1 X4.749 Y56.066 E0.08917
G1 X5.466 Y55.14 E0.05843
G1 X6.675 Y54.166 E0.07746
G1 X8.465 Y53.274 E0.09978
G1 X10.143 Y53.05 E0.08446
G1 X13.132 Y53.039 E0.14912
G1 X13.132 Y47.026 E0.29999
G1 X9.961 Y47.026 E0.1582
G1 X8.103 Y46.644 E0.09463
G1 X6.54 Y45.777 E0.08917
G1 X5.614 Y45.06 E0.05843
G1 X4.638 Y43.849 E0.0776
G1 X3.748 Y42.064 E0.09951
G1 X3.544 Y40.664 E0.07058
G1 X3.5 Y26.988 E0.6823
G1 X3.882 Y25.129 E0.09468
G1 X4.749 Y23.566 E0.08917
G1 X5.466 Y22.64 E0.05843
G1 X6.677 Y21.664 E0.0776
G1 X8.462 Y20.774 E0.09951
G0 F3600 X8.582 Y21.161
G1 F1800 X9.92 Y20.966 E0.06746
G1 X89.997 Y20.926 E3.99506
G1 X91.757 Y21.288 E0.08964
G1 X93.266 Y22.125 E0.08609
G1 X94.102 Y22.777 E0.05289
G1 X95.025 Y23.923 E0.07341
G1 X95.865 Y25.608 E0.09393
G1 X96.06 Y26.946 E0.06746
G1 X96.1 Y73.023 E2.29879
G1 X95.738 Y74.783 E0.08964
G1 X94.901 Y76.292 E0.08609
G1 X94.249 Y77.128 E0.05289
G1 X93.103 Y78.051 E0.07341
G1 X91.418 Y78.891 E0.09393
G1 X90.08 Y79.086 E0.06746
G1 X16.071 Y79.126 E3.69232
G1 X15.931 Y79.138 E0.00701
G1 X10.003 Y79.153 E0.29575
G1 X8.243 Y78.791 E0.08964
G1 X6.734 Y77.954 E0.08609
G1 X5.898 Y77.302 E0.05289
G1 X4.975 Y76.156 E0.07341
G1 X4.135 Y74.471 E0.09393
G1 X3.94 Y73.133 E0.06746
G1 X3.9 Y59.529 E0.67871
G1 X4.262 Y57.769 E0.08964
G1 X5.099 Y56.26 E0.08609
G1 X5.751 Y55.424 E0.05289
G1 X6.895 Y54.503 E0.07327
G1 X8.584 Y53.661 E0.09415
G1 X10.145 Y53.45 E0.07859
G1 X13.532 Y53.437 E0.16898
G1 X13.532 Y46.626 E0.3398
G1 X10.003 Y46.626 E0.17606
G1 X8.243 Y46.264 E0.08964
G1 X6.734 Y45.427 E0.08609
G1 X5.898 Y44.775 E0.05289
G1 X4.975 Y43.629 E0.07341
G1 X4.135 Y41.944 E0.09393
G1 X3.94 Y40.606 E0.06746
G1 X3.9 Y27.029 E0.67736
G1 X4.262 Y25.269 E0.08964
G1 X5.099 Y23.76 E0.08609
G1 X5.751 Y22.924 E0.05289
G1 X6.897 Y22.001 E0.07341
G1 X8.582 Y21.161 E0.09393
G0 F3600 X8.702 Y21.548
G1 F1800 X9.978 Y21.362 E0.06433
G1 X89.955 Y21.326 E3.99007
G1 X91.617 Y21.668 E0.08465
G1 X93.072 Y22.475 E0.08301
G1 X93.817 Y23.061 E0.04729
G1 X94.688 Y24.143 E0.0693
G1 X95.478 Y25.728 E0.08835
G1 X95.664 Y27.004 E0.06433
G1 X95.7 Y72.981 E2.2938
G1 X95.358 Y74.643 E0.08465
G1 X94.551 Y76.098 E0.08301
G1 X93.965 Y76.843 E0.04729
G1 X92.883 Y77.714 E0.0693
G1 X91.298 Y78.504 E0.08835
G1 X90.022 Y78.69 E0.06433
G1 X16.049 Y78.726 E3.69053
G1 X15.897 Y78.739 E0.00761
G1 X10.045 Y78.753 E0.29196
G1 X8.383 Y78.411 E0.08465
G1 X6.928 Y77.604 E0.08301
G1 X6.183 Y77.018 E0.04729
G1 X5.312 Y75.936 E0.0693
G1 X4.522 Y74.351 E0.08835
G1 X4.336 Y73.075 E0.06433
G1 X4.3 Y59.571 E0.67372
G1 X4.642 Y57.909 E0.08465
G1 X5.449 Y56.454 E0.08301
G1 X6.035 Y55.709 E0.04729
G1 X7.115 Y54.84 E0.06916
G1 X8.704 Y54.048 E0.08858
G1 X10.146 Y53.85 E0.07262
G1 X13.932 Y53.836 E0.18889
G1 X13.932 Y46.226 E0.37966
G1 X10.045 Y46.226 E0.19392
G1 X8.383 Y45.884 E0.08465
G1 X6.928 Y45.077 E0.08301
G1 X6.183 Y44.491 E0.04729
G1 X5.312 Y43.409 E0.0693
G1 X4.522 Y41.824 E0.08835
G1 X4.336 Y40.548 E0.06433
G1 X4.3 Y27.071 E0.67237
G1 X4.642 Y25.409 E0.08465
G1 X5.449 Y23.954 E0.08301
G1 X6.035 Y23.209 E0.04729
G1 X7.117 Y22.338 E0.0693
G1 X8.702 Y21.548 E0.08835
G0 F3600 X8.823 Y21.935
G1 F1800 X10.036 Y21.758 E0.06116
G1 X89.913 Y21.726 E3.98508
G1 X91.477 Y22.048 E0.07966
G1 X92.878 Y22.825 E0.07993
G1 X93.532 Y23.346 E0.04172
G1 X94.349 Y24.361 E0.06501
G1 X95.091 Y25.849 E0.08295
G1 X95.268 Y27.062 E0.06116
G1 X95.3 Y72.939 E2.28881
G1 X94.978 Y74.503 E0.07966
G1 X94.201 Y75.904 E0.07993
G1 X93.68 Y76.558 E0.04172
G1 X92.665 Y77.375 E0.06501
G1 X91.177 Y78.117 E0.08295
G1 X89.964 Y78.294 E0.06116
G1 X16.027 Y78.326 E3.68873
G1 X15.863 Y78.34 E0.00821
G1 X10.087 Y78.353 E0.28817
G1 X8.523 Y78.031 E0.07966
G1 X7.122 Y77.254 E0.07993
G1 X6.468 Y76.733 E0.04172
G1 X5.651 Y75.718 E0.06501
G1 X4.909 Y74.23 E0.08295
G1 X4.732 Y73.017 E0.06116
G1 X4.7 Y59.613 E0.66873
G1 X5.022 Y58.049 E0.07966
G1 X5.799 Y56.648 E0.07993
G1 X6.32 Y55.994 E0.04172
G1 X7.335 Y55.177 E0.06501
G1 X8.824 Y54.435 E0.083
G1 X10.148 Y54.25 E0.0667
G1 X14.332 Y54.234 E0.20874
G1 X14.332 Y45.826 E0.41948
G1 X10.087 Y45.826 E0.21178
G1 X8.523 Y45.504 E0.07966
G1 X7.122 Y44.727 E0.07993
G1 X6.468 Y44.206 E0.04172
G1 X5.651 Y43.191 E0.06501
G1 X4.909 Y41.703 E0.08295
G1 X4.732 Y40.49 E0.06116
G1 X4.7 Y27.113 E0.66738
G1 X5.022 Y25.549 E0.07966
G1 X5.799 Y24.148 E0.07993
G1 X6.32 Y23.494 E0.04172
G1 X7.335 Y22.677 E0.06501
G1 X8.823 Y21.935 E0.08295
G0 F3600 X8.943 Y22.322
G1 F1800 X10.094 Y22.154 E0.05803
G1 X89.871 Y22.126 E3.98009
G1 X91.338 Y22.428 E0.07472
G1 X92.629 Y23.138 E0.07351
G1 X93.246 Y23.63 E0.03937
G1 X94.012 Y24.581 E0.06092
G1 X94.704 Y25.969 E0.07738
G1 X94.872 Y27.12 E0.05803
G1 X94.9 Y72.897 E2.28382
G1 X94.598 Y74.364 E0.07472
G1 X93.888 Y75.655 E0.07351
G1 X93.396 Y76.272 E0.03937
G1 X92.445 Y77.038 E0.06092
G1 X91.057 Y77.73 E0.07738
G1 X89.906 Y77.898 E0.05803
G1 X16.005 Y77.926 E3.68694
G1 X15.829 Y77.941 E0.00881
G1 X10.129 Y77.953 E0.28437
G1 X8.662 Y77.651 E0.07472
G1 X7.371 Y76.941 E0.07351
G1 X6.754 Y76.449 E0.03937
G1 X5.988 Y75.498 E0.06092
G1 X5.296 Y74.11 E0.07738
G1 X5.128 Y72.959 E0.05803
G1 X5.1 Y59.655 E0.66374
G1 X5.402 Y58.188 E0.07472
G1 X6.112 Y56.897 E0.07351
G1 X6.604 Y56.28 E0.03937
G1 X7.555 Y55.514 E0.06092
G1 X8.944 Y54.822 E0.07742
G1 X10.15 Y54.65 E0.06078
G1 X14.732 Y54.632 E0.2286
G1 X14.732 Y45.426 E0.45929
G1 X10.129 Y45.426 E0.22964
G1 X8.662 Y45.124 E0.07472
G1 X7.371 Y44.414 E0.07351
G1 X6.754 Y43.922 E0.03937
G1 X5.988 Y42.971 E0.06092
G1 X5.296 Y41.583 E0.07738
G1 X5.128 Y40.432 E0.05803
G1 X5.1 Y27.155 E0.66239
G1 X5.402 Y25.688 E0.07472
G1 X6.112 Y24.397 E0.07351
G1 X6.604 Y23.78 E0.03937
G1 X7.555 Y23.014 E0.06092
G1 X8.943 Y22.322 E0.07738
G0 F3600 X9.063 Y22.709
G1 F1800 X10.152 Y22.55 E0.05491
G1 X89.829 Y22.526 E3.9751
G1 X91.2 Y22.808 E0.06983
G1 X92.38 Y23.451 E0.06704
G1 X92.963 Y23.916 E0.0372
G1 X93.673 Y24.797 E0.05645
G1 X94.317 Y26.089 E0.07202
G1 X94.476 Y27.178 E0.05491
G1 X94.5 Y72.855 E2.27884
G1 X94.218 Y74.226 E0.06983
G1 X93.575 Y75.406 E0.06704
G1 X93.11 Y75.989 E0.0372
G1 X92.229 Y76.699 E0.05645
G1 X90.937 Y77.343 E0.07202
G1 X89.848 Y77.502 E0.05491
G1 X15.989 Y77.526 E3.68484
G1 X15.828 Y77.541 E0.00807
G1 X10.171 Y77.553 E0.28223
G1 X8.8 Y77.271 E0.06983
G1 X7.62 Y76.628 E0.06704
G1 X7.037 Y76.163 E0.0372
G1 X6.327 Y75.282 E0.05645
G1 X5.683 Y73.99 E0.07202
G1 X5.524 Y72.901 E0.05491
G1 X5.5 Y59.697 E0.65875
G1 X5.782 Y58.326 E0.06983
G1 X6.425 Y57.146 E0.06704
G1 X6.89 Y56.563 E0.0372
G1 X7.771 Y55.853 E0.05645
G1 X9.063 Y55.209 E0.07202
G1 X10.152 Y55.05 E0.05491
G1 X15.132 Y55.03 E0.24846
G1 X15.132 Y45.026 E0.4991
G1 X10.171 Y45.026 E0.24751
G1 X8.8 Y44.744 E0.06983
G1 X7.62 Y44.101 E0.06704
G1 X7.037 Y43.636 E0.0372
G1 X6.327 Y42.755 E0.05645
G1 X5.683 Y41.463 E0.07202
G1 X5.524 Y40.374 E0.05491
G1 X5.5 Y27.197 E0.6574
G1 X5.782 Y25.826 E0.06983
G1 X6.425 Y24.646 E0.06704
G1 X6.89 Y24.063 E0.0372
G1 X7.771 Y23.353 E0.05645
G1 X9.063 Y22.709 E0.07202
G0 F3600 X9.183 Y23.096
G1 F1800 X10.21 Y22.946 E0.05178
G1 X89.787 Y22.926 E3.97011
G1 X91.062 Y23.188 E0.06494
G1 X92.131 Y23.764 E0.06058
G1 X92.678 Y24.2 E0.0349
G1 X93.336 Y25.017 E0.05234
G1 X93.93 Y26.209 E0.06644
G1 X94.08 Y27.236 E0.05178
G1 X94.1 Y72.813 E2.27385
G1 X93.838 Y74.088 E0.06494
G1 X93.262 Y75.157 E0.06058
G1 X92.826 Y75.704 E0.0349
G1 X92.009 Y76.362 E0.05234
G1 X90.817 Y76.956 E0.06644
G1 X89.79 Y77.106 E0.05178
G1 X15.963 Y77.126 E3.68324
G1 X15.827 Y77.141 E0.00683
G1 X10.213 Y77.153 E0.28008
G1 X8.938 Y76.891 E0.06494
G1 X7.869 Y76.315 E0.06058
G1 X7.322 Y75.879 E0.0349
G1 X6.664 Y75.062 E0.05234
G1 X6.07 Y73.87 E0.06644
G1 X5.92 Y72.843 E0.05178
G1 X5.9 Y59.739 E0.65376
G1 X6.162 Y58.464 E0.06494
G1 X6.738 Y57.395 E0.06058
G1 X7.174 Y56.848 E0.0349
G1 X7.991 Y56.19 E0.05234
G1 X9.183 Y55.596 E0.06644
G1 X10.21 Y55.446 E0.05178
G1 X15.532 Y55.429 E0.26552
G1 X15.532 Y44.626 E0.53896
G1 X10.213 Y44.626 E0.26537
G1 X8.938 Y44.364 E0.06494
G1 X7.869 Y43.788 E0.06058
G1 X7.322 Y43.352 E0.0349
G1 X6.664 Y42.535 E0.05234
G1 X6.07 Y41.343 E0.06644
G1 X5.92 Y40.316 E0.05178
G1 X5.9 Y27.239 E0.65241
G1 X6.162 Y25.964 E0.06494
G1 X6.738 Y24.895 E0.06058
G1 X7.174 Y24.348 E0.0349
G1 X7.991 Y23.69 E0.05234
G1 X9.183 Y23.096 E0.06644
G0 F3600 X9.303 Y23.483
G1 F1800 X10.268 Y23.342 E0.04866
G1 X89.746 Y23.326 E3.96517
G1 X90.924 Y23.568 E0.06
G1 X91.941 Y24.116 E0.05764
G1 X92.391 Y24.482 E0.02894
G1 X92.999 Y25.237 E0.04836
G1 X93.543 Y26.329 E0.06087
G1 X93.684 Y27.294 E0.04866
G1 X93.7 Y72.772 E2.26891
G1 X93.458 Y73.95 E0.06
G1 X92.91 Y74.967 E0.05764
G1 X92.544 Y75.417 E0.02894
G1 X91.789 Y76.025 E0.04836
G1 X90.697 Y76.569 E0.06087
G1 X89.732 Y76.71 E0.04866
G1 X15.937 Y76.726 E3.68165
G1 X15.783 Y76.743 E0.00773
G1 X10.254 Y76.753 E0.27584
G1 X9.076 Y76.511 E0.06
G1 X8.059 Y75.963 E0.05764
G1 X7.609 Y75.597 E0.02894
G1 X7.001 Y74.842 E0.04836
G1 X6.457 Y73.75 E0.06087
G1 X6.316 Y72.785 E0.04866
G1 X6.3 Y59.78 E0.64882
G1 X6.542 Y58.602 E0.06
G1 X7.09 Y57.585 E0.05764
G1 X7.456 Y57.135 E0.02894
G1 X8.211 Y56.527 E0.04836
G1 X9.303 Y55.983 E0.06087
G1 X10.268 Y55.842 E0.04866
G1 X15.932 Y55.828 E0.28258
G1 X15.932 Y44.226 E0.57883
G1 X10.254 Y44.226 E0.28328
G1 X9.076 Y43.984 E0.06
G1 X8.059 Y43.436 E0.05764
G1 X7.609 Y43.07 E0.02894
G1 X7.001 Y42.315 E0.04836
G1 X6.457 Y41.223 E0.06087
G1 X6.316 Y40.258 E0.04866
G1 X6.3 Y27.28 E0.64748
G1 X6.542 Y26.102 E0.06
G1 X7.09 Y25.085 E0.05764
G1 X7.456 Y24.635 E0.02894
G1 X8.211 Y24.027 E0.04836
G1 X9.303 Y23.483 E0.06087
G0 F3600 X9.423 Y23.87
G1 F1800 X10.326 Y23.738 E0.04553
G1 X89.705 Y23.726 E3.96023
G1 X90.786 Y23.948 E0.05506
G1 X91.694 Y24.431 E0.05131
G1 X92.079 Y24.733 E0.02441
G1 X92.662 Y25.457 E0.04638
G1 X93.156 Y26.449 E0.05529
G1 X93.288 Y27.352 E0.04553
G1 X93.3 Y72.731 E2.26397
G1 X93.078 Y73.812 E0.05506
G1 X92.595 Y74.72 E0.05131
G1 X92.293 Y75.105 E0.02441
G1 X91.569 Y75.688 E0.04638
G1 X90.577 Y76.182 E0.05529
G1 X89.674 Y76.314 E0.04553
G1 X15.911 Y76.326 E3.68005
G1 X15.739 Y76.345 E0.00863
G1 X10.295 Y76.353 E0.2716
G1 X9.214 Y76.131 E0.05506
G1 X8.306 Y75.648 E0.05131
G1 X7.921 Y75.346 E0.02441
G1 X7.338 Y74.622 E0.04638
G1 X6.844 Y73.63 E0.05529
G1 X6.712 Y72.727 E0.04553
G1 X6.7 Y59.821 E0.64388
G1 X6.922 Y58.74 E0.05506
G1 X7.405 Y57.832 E0.05131
G1 X7.707 Y57.447 E0.02441
G1 X8.431 Y56.864 E0.04638
G1 X9.423 Y56.37 E0.05529
G1 X10.326 Y56.238 E0.04553
G1 X16.332 Y56.227 E0.29964
G1 X16.332 Y43.826 E0.61869
G1 X10.295 Y43.826 E0.30119
G1 X9.214 Y43.604 E0.05506
G1 X8.306 Y43.121 E0.05131
G1 X7.921 Y42.819 E0.02441
G1 X7.338 Y42.095 E0.04638
G1 X6.844 Y41.103 E0.05529
G1 X6.712 Y40.2 E0.04553
G1 X6.7 Y27.321 E0.64254
G1 X6.922 Y26.24 E0.05506
G1 X7.405 Y25.332 E0.05131
G1 X7.707 Y24.947 E0.02441
G1 X8.431 Y24.364 E0.04638
G1 X9.423 Y23.87 E0.05529
G0 F3600 X9.543 Y24.257
G1 F1800 X10.384 Y24.134 E0.0424
G1 X89.664 Y24.126 E3.9553
G1 X90.65 Y24.328 E0.05021
G1 X91.455 Y24.752 E0.04539
G1 X91.767 Y24.984 E0.0194
G1 X92.325 Y25.677 E0.04439
G1 X92.769 Y26.569 E0.04971
G1 X92.892 Y27.41 E0.0424
G1 X92.9 Y72.69 E2.25903
G1 X92.698 Y73.676 E0.05021
G1 X92.274 Y74.481 E0.04539
G1 X92.042 Y74.793 E0.0194
G1 X91.349 Y75.351 E0.04439
G1 X90.457 Y75.795 E0.04971
G1 X89.616 Y75.918 E0.0424
G1 X15.885 Y75.926 E3.67845
G1 X15.695 Y75.947 E0.00954
G1 X10.336 Y75.953 E0.26736
G1 X9.35 Y75.751 E0.05021
G1 X8.545 Y75.327 E0.04539
G1 X8.233 Y75.095 E0.0194
G1 X7.675 Y74.402 E0.04439
G1 X7.231 Y73.51 E0.04971
G1 X7.108 Y72.669 E0.0424
G1 X7.1 Y59.862 E0.63894
G1 X7.302 Y58.876 E0.05021
G1 X7.726 Y58.071 E0.04539
G1 X7.958 Y57.759 E0.0194
G1 X8.651 Y57.201 E0.04439
G1 X9.543 Y56.757 E0.04971
G1 X10.384 Y56.634 E0.0424
G1 X16.732 Y56.626 E0.3167
G1 X16.732 Y43.426 E0.65855
G1 X10.336 Y43.426 E0.3191
G1 X9.35 Y43.224 E0.05021
G1 X8.545 Y42.8 E0.04539
G1 X8.233 Y42.568 E0.0194
G1 X7.675 Y41.875 E0.04439
G1 X7.231 Y40.983 E0.04971
G1 X7.108 Y40.142 E0.0424
G1 X7.1 Y27.362 E0.6376
G1 X7.302 Y26.376 E0.05021
G1 X7.726 Y25.571 E0.04539
G1 X7.958 Y25.259 E0.0194
G1 X8.651 Y24.701 E0.04439
G1 X9.543 Y24.257 E0.04971
G0 F3600 X9.663 Y24.644
G1 F1800 X10.442 Y24.53 E0.03928
G1 X89.623 Y24.526 E3.95036
G1 X90.513 Y24.708 E0.04532
G1 X91.268 Y25.106 E0.04258
G1 X91.488 Y25.275 E0.01384
G1 X91.986 Y25.893 E0.0396
G1 X92.382 Y26.689 E0.04436
G1 X92.496 Y27.468 E0.03928
G1 X92.5 Y72.649 E2.25409
G1 X92.318 Y73.539 E0.04532
