;FLAVOR:RepRap
;TIME:7992
;Filament used: 9.25931m
;Layer height: 0.2
;MINX:12.2
;MINY:12.685
;MINZ:0.3
;MAXX:87.8
;MAXY:88.285
;MAXZ:39.9
;TARGET_MACHINE.NAME:Unknown
;Generated with Cura_SteamEngine 5.7.1
T0
M104 S200
M109 S200
M82 ;absolute extrusion mode
G28 ;Home
G1 Z15.0 F6000 ;Move the platform down 15mm
G92 E0
M83 ;relative extrusion mode
G1 F1500 E-6.5
;LAYER_COUNT:199
;LAYER:0
M107
G0 F3600 X14.39 Y15.037 Z0.3
;TYPE:SKIRT
G1 F1500 E6.5
G1 F1800 X15.743 Y13.945 E0.08674
G1 X17.722 Y12.959 E0.11031
G1 X19.246 Y12.737 E0.07684
G1 X80.622 Y12.685 E3.06206
G1 X82.679 Y13.107 E0.10476
G1 X84.45 Y14.102 E0.10135
G1 X85.448 Y14.875 E0.06298
G1 X86.54 Y16.228 E0.08674
G1 X87.526 Y18.207 E0.11031
G1 X87.748 Y19.731 E0.07684
G1 X87.8 Y81.107 E3.06206
G1 X87.378 Y83.164 E0.10476
G1 X86.383 Y84.935 E0.10135
G1 X85.61 Y85.933 E0.06298
G1 X84.257 Y87.025 E0.08674
G1 X82.278 Y88.011 E0.11031
G1 X80.754 Y88.233 E0.07684
G1 X19.378 Y88.285 E3.06206
G1 X17.321 Y87.863 E0.10476
G1 X15.55 Y86.868 E0.10135
G1 X14.552 Y86.095 E0.06298
G1 X13.46 Y84.742 E0.08674
G1 X12.474 Y82.763 E0.11031
G1 X12.252 Y81.239 E0.07684
G1 X12.2 Y19.863 E3.06206
G1 X12.622 Y17.806 E0.10476
G1 X13.617 Y16.035 E0.10135
G1 X14.39 Y15.037 E0.06298
G0 F3600 X14.678 Y15.318
G1 F1800 X15.96 Y14.284 E0.08217
G1 X17.842 Y13.346 E0.10491
G1 X19.304 Y13.133 E0.07371
G1 X80.581 Y13.085 E3.05712
G1 X82.538 Y13.487 E0.09967
G1 X84.205 Y14.418 E0.09526
G1 X85.167 Y15.163 E0.0607
G1 X86.201 Y16.445 E0.08217
G1 X87.139 Y18.327 E0.10491
G1 X87.352 Y19.789 E0.07371
G1 X87.4 Y81.066 E3.05712
G1 X86.998 Y83.023 E0.09967
G1 X86.067 Y84.69 E0.09526
G1 X85.322 Y85.652 E0.0607
G1 X84.04 Y86.686 E0.08217
G1 X82.158 Y87.624 E0.10491
G1 X80.696 Y87.837 E0.07371
G1 X19.419 Y87.885 E3.05712
G1 X17.462 Y87.483 E0.09967
G1 X15.795 Y86.552 E0.09526
G1 X14.833 Y85.807 E0.0607
G1 X13.799 Y84.525 E0.08217
G1 X12.861 Y82.643 E0.10491
G1 X12.648 Y81.181 E0.07371
G1 X12.6 Y19.904 E3.05712
G1 X13.002 Y17.947 E0.09967
G1 X13.933 Y16.28 E0.09526
G1 X14.678 Y15.318 E0.0607
G0 F3600 X14.966 Y15.599
G1 F1800 X16.177 Y14.623 E0.0776
G1 X17.962 Y13.733 E0.09951
G1 X19.362 Y13.529 E0.07058
G1 X80.539 Y13.485 E3.05213
G1 X82.397 Y13.867 E0.09463
G1 X83.96 Y14.734 E0.08917
G1 X84.886 Y15.451 E0.05843
G1 X85.862 Y16.662 E0.0776
G1 X86.752 Y18.447 E0.09951
G1 X86.956 Y19.847 E0.07058
G1 X87 Y81.024 E3.05213
G1 X86.618 Y82.882 E0.09463
G1 X85.751 Y84.445 E0.08917
G1 X85.034 Y85.371 E0.05843
G1 X83.823 Y86.347 E0.0776
G1 X82.038 Y87.237 E0.09951
G1 X80.638 Y87.441 E0.07058
G1 X19.461 Y87.485 E3.05213
G1 X17.603 Y87.103 E0.09463
G1 X16.04 Y86.236 E0.08917
G1 X15.114 Y85.519 E0.05843
G1 X14.138 Y84.308 E0.0776
G1 X13.248 Y82.523 E0.09951
G1 X13.044 Y81.123 E0.07058
G1 X13 Y19.946 E3.05213
G1 X13.382 Y18.088 E0.09463
G1 X14.249 Y16.525 E0.08917
G1 X14.966 Y15.599 E0.05843
G0 F3600 X15.251 Y15.883
G1 F1800 X16.397 Y14.96 E0.07341
G1 X18.082 Y14.12 E0.09393
G1 X19.42 Y13.925 E0.06746
G1 X80.497 Y13.885 E3.04714
G1 X82.257 Y14.247 E0.08964
G1 X83.766 Y15.084 E0.08609
G1 X84.602 Y15.736 E0.05289
G1 X85.525 Y16.882 E0.07341
G1 X86.365 Y18.567 E0.09393
G1 X86.56 Y19.905 E0.06746
G1 X86.6 Y80.982 E3.04714
G1 X86.238 Y82.742 E0.08964
G1 X85.401 Y84.251 E0.08609
G1 X84.749 Y85.087 E0.05289
G1 X83.603 Y86.01 E0.07341
G1 X81.918 Y86.85 E0.09393
G1 X80.58 Y87.045 E0.06746
G1 X19.503 Y87.085 E3.04714
G1 X17.743 Y86.723 E0.08964
G1 X16.234 Y85.886 E0.08609
G1 X15.398 Y85.234 E0.05289
G1 X14.475 Y84.088 E0.07341
G1 X13.635 Y82.403 E0.09393
G1 X13.44 Y81.065 E0.06746
G1 X13.4 Y19.988 E3.04714
G1 X13.762 Y18.228 E0.08964
G1 X14.599 Y16.719 E0.08609
G1 X15.251 Y15.883 E0.05289
G0 F3600 X15.535 Y16.168
G1 F1800 X16.617 Y15.297 E0.0693
G1 X18.202 Y14.507 E0.08835
G1 X19.478 Y14.321 E0.06433
G1 X80.455 Y14.285 E3.04216
G1 X82.117 Y14.627 E0.08465
G1 X83.572 Y15.434 E0.08301
G1 X84.317 Y16.02 E0.04729
G1 X85.188 Y17.102 E0.0693
G1 X85.978 Y18.687 E0.08835
G1 X86.164 Y19.963 E0.06433
G1 X86.2 Y80.94 E3.04216
G1 X85.858 Y82.602 E0.08465
G1 X85.051 Y84.057 E0.08301
G1 X84.465 Y84.802 E0.04729
G1 X83.383 Y85.673 E0.0693
G1 X81.798 Y86.463 E0.08835
G1 X80.522 Y86.649 E0.06433
G1 X19.545 Y86.685 E3.04216
G1 X17.883 Y86.343 E0.08465
G1 X16.428 Y85.536 E0.08301
G1 X15.683 Y84.95 E0.04729
G1 X14.812 Y83.868 E0.0693
G1 X14.022 Y82.283 E0.08835
G1 X13.836 Y81.007 E0.06433
G1 X13.8 Y20.03 E3.04216
G1 X14.142 Y18.368 E0.08465
G1 X14.949 Y16.913 E0.08301
G1 X15.535 Y16.168 E0.04729
G0 F3600 X15.82 Y16.453
G1 F1800 X16.835 Y15.636 E0.06501
G1 X18.323 Y14.894 E0.08295
G1 X19.536 Y14.717 E0.06116
G1 X80.413 Y14.685 E3.03717
G1 X81.977 Y15.007 E0.07966
G1 X83.378 Y15.784 E0.07993
G1 X84.032 Y16.305 E0.04172
G1 X84.849 Y17.32 E0.06501
G1 X85.591 Y18.808 E0.08295
G1 X85.768 Y20.021 E0.06116
G1 X85.8 Y80.898 E3.03717
G1 X85.478 Y82.462 E0.07966
G1 X84.701 Y83.863 E0.07993
G1 X84.18 Y84.517 E0.04172
G1 X83.165 Y85.334 E0.06501
G1 X81.677 Y86.076 E0.08295
G1 X80.464 Y86.253 E0.06116
G1 X19.587 Y86.285 E3.03717
G1 X18.023 Y85.963 E0.07966
G1 X16.622 Y85.186 E0.07993
G1 X15.968 Y84.665 E0.04172
G1 X15.151 Y83.65 E0.06501
G1 X14.409 Y82.162 E0.08295
G1 X14.232 Y80.949 E0.06116
G1 X14.2 Y20.072 E3.03717
G1 X14.522 Y18.508 E0.07966
G1 X15.299 Y17.107 E0.07993
G1 X15.82 Y16.453 E0.04172
G0 F3600 X16.104 Y16.739
G1 F1800 X17.055 Y15.973 E0.06092
G1 X18.443 Y15.281 E0.07738
G1 X19.594 Y15.113 E0.05803
G1 X80.371 Y15.085 E3.03218
G1 X81.838 Y15.387 E0.07472
G1 X83.129 Y16.097 E0.07351
G1 X83.746 Y16.589 E0.03937
G1 X84.512 Y17.54 E0.06092
G1 X85.204 Y18.928 E0.07738
G1 X85.372 Y20.079 E0.05803
G1 X85.4 Y80.856 E3.03218
G1 X85.098 Y82.323 E0.07472
G1 X84.388 Y83.614 E0.07351
G1 X83.896 Y84.231 E0.03937
G1 X82.945 Y84.997 E0.06092
G1 X81.557 Y85.689 E0.07738
G1 X80.406 Y85.857 E0.05803
G1 X19.629 Y85.885 E3.03218
G1 X18.162 Y85.583 E0.07472
G1 X16.871 Y84.873 E0.07351
G1 X16.254 Y84.381 E0.03937
G1 X15.488 Y83.43 E0.06092
G1 X14.796 Y82.042 E0.07738
G1 X14.628 Y80.891 E0.05803
G1 X14.6 Y20.114 E3.03218
G1 X14.902 Y18.647 E0.07472
G1 X15.612 Y17.356 E0.07351
G1 X16.104 Y16.739 E0.03937
G0 F3600 X16.39 Y17.022
G1 F1800 X17.271 Y16.312 E0.05645
G1 X18.563 Y15.668 E0.07202
G1 X19.652 Y15.509 E0.05491
G1 X80.329 Y15.485 E3.02719
G1 X81.7 Y15.767 E0.06983
G1 X82.88 Y16.41 E0.06704
G1 X83.463 Y16.875 E0.0372
G1 X84.173 Y17.756 E0.05645
G1 X84.817 Y19.048 E0.07202
G1 X84.976 Y20.137 E0.05491
G1 X85 Y80.814 E3.02719
G1 X84.718 Y82.185 E0.06983
G1 X84.075 Y83.365 E0.06704
G1 X83.61 Y83.948 E0.0372
G1 X82.729 Y84.658 E0.05645
G1 X81.437 Y85.302 E0.07202
G1 X80.348 Y85.461 E0.05491
G1 X19.671 Y85.485 E3.02719
G1 X18.3 Y85.203 E0.06983
G1 X17.12 Y84.56 E0.06704
G1 X16.537 Y84.095 E0.0372
G1 X15.827 Y83.214 E0.05645
G1 X15.183 Y81.922 E0.07202
G1 X15.024 Y80.833 E0.05491
G1 X15 Y20.156 E3.02719
G1 X15.282 Y18.785 E0.06983
G1 X15.925 Y17.605 E0.06704
G1 X16.39 Y17.022 E0.0372
G0 F3600 X16.674 Y17.307
G1 F1800 X17.491 Y16.649 E0.05234
G1 X18.683 Y16.055 E0.06644
G1 X19.71 Y15.905 E0.05178
G1 X80.287 Y15.885 E3.0222
G1 X81.562 Y16.147 E0.06494
G1 X82.631 Y16.723 E0.06058
G1 X83.178 Y17.159 E0.0349
G1 X83.836 Y17.976 E0.05234
G1 X84.43 Y19.168 E0.06644
G1 X84.58 Y20.195 E0.05178
G1 X84.6 Y80.772 E3.0222
G1 X84.338 Y82.047 E0.06494
G1 X83.762 Y83.116 E0.06058
G1 X83.326 Y83.663 E0.0349
G1 X82.509 Y84.321 E0.05234
G1 X81.317 Y84.915 E0.06644
G1 X80.29 Y85.065 E0.05178
G1 X19.713 Y85.085 E3.0222
G1 X18.438 Y84.823 E0.06494
G1 X17.369 Y84.247 E0.06058
G1 X16.822 Y83.811 E0.0349
G1 X16.164 Y82.994 E0.05234
G1 X15.57 Y81.802 E0.06644
G1 X15.42 Y80.775 E0.05178
G1 X15.4 Y20.198 E3.0222
G1 X15.662 Y18.923 E0.06494
G1 X16.238 Y17.854 E0.06058
G1 X16.674 Y17.307 E0.0349
G0 F3600 X16.956 Y17.594
G1 F1800 X17.711 Y16.986 E0.04836
G1 X18.803 Y16.442 E0.06087
G1 X19.768 Y16.301 E0.04866
G1 X80.246 Y16.285 E3.01726
G1 X81.424 Y16.527 E0.06
G1 X82.441 Y17.075 E0.05764
G1 X82.891 Y17.441 E0.02894
G1 X83.499 Y18.196 E0.04836
G1 X84.043 Y19.288 E0.06087
G1 X84.184 Y20.253 E0.04866
G1 X84.2 Y80.731 E3.01726
G1 X83.958 Y81.909 E0.06
G1 X83.41 Y82.926 E0.05764
G1 X83.044 Y83.376 E0.02894
G1 X82.289 Y83.984 E0.04836
G1 X81.197 Y84.528 E0.06087
G1 X80.232 Y84.669 E0.04866
G1 X19.754 Y84.685 E3.01726
G1 X18.576 Y84.443 E0.06
G1 X17.559 Y83.895 E0.05764
G1 X17.109 Y83.529 E0.02894
G1 X16.501 Y82.774 E0.04836
G1 X15.957 Y81.682 E0.06087
G1 X15.816 Y80.717 E0.04866
G1 X15.8 Y20.239 E3.01726
G1 X16.042 Y19.061 E0.06
G1 X16.59 Y18.044 E0.05764
G1 X16.956 Y17.594 E0.02894
G0 F3600 X17.207 Y17.906
G1 F1800 X17.931 Y17.323 E0.04638
G1 X18.923 Y16.829 E0.05529
G1 X19.826 Y16.697 E0.04553
G1 X80.205 Y16.685 E3.01232
G1 X81.286 Y16.907 E0.05506
G1 X82.194 Y17.39 E0.05131
G1 X82.579 Y17.692 E0.02441
G1 X83.162 Y18.416 E0.04638
G1 X83.656 Y19.408 E0.05529
G1 X83.788 Y20.311 E0.04553
G1 X83.8 Y80.69 E3.01232
G1 X83.578 Y81.771 E0.05506
G1 X83.095 Y82.679 E0.05131
G1 X82.793 Y83.064 E0.02441
G1 X82.069 Y83.647 E0.04638
G1 X81.077 Y84.141 E0.05529
G1 X80.174 Y84.273 E0.04553
G1 X19.795 Y84.285 E3.01232
G1 X18.714 Y84.063 E0.05506
G1 X17.806 Y83.58 E0.05131
G1 X17.421 Y83.278 E0.02441
G1 X16.838 Y82.554 E0.04638
G1 X16.344 Y81.562 E0.05529
G1 X16.212 Y80.659 E0.04553
G1 X16.2 Y20.28 E3.01232
G1 X16.422 Y19.199 E0.05506
G1 X16.905 Y18.291 E0.05131
G1 X17.207 Y17.906 E0.02441
G0 F3600 X17.458 Y18.218
G1 F1800 X18.151 Y17.66 E0.04439
G1 X19.043 Y17.216 E0.04971
G1 X19.884 Y17.093 E0.0424
G1 X80.164 Y17.085 E3.00738
G1 X81.15 Y17.287 E0.05021
G1 X81.955 Y17.711 E0.04539
G1 X82.267 Y17.943 E0.0194
G1 X82.825 Y18.636 E0.04439
G1 X83.269 Y19.528 E0.04971
G1 X83.392 Y20.369 E0.0424
G1 X83.4 Y80.649 E3.00738
G1 X83.198 Y81.635 E0.05021
G1 X82.774 Y82.44 E0.04539
G1 X82.542 Y82.752 E0.0194
G1 X81.849 Y83.31 E0.04439
G1 X80.957 Y83.754 E0.04971
G1 X80.116 Y83.877 E0.0424
G1 X19.836 Y83.885 E3.00738
G1 X18.85 Y83.683 E0.05021
G1 X18.045 Y83.259 E0.04539
G1 X17.733 Y83.027 E0.0194
G1 X17.175 Y82.334 E0.04439
G1 X16.731 Y81.442 E0.04971
G1 X16.608 Y80.601 E0.0424
G1 X16.6 Y20.321 E3.00738
G1 X16.802 Y19.335 E0.05021
G1 X17.226 Y18.53 E0.04539
G1 X17.458 Y18.218 E0.0194
G0 F3600 X17.749 Y18.497
G1 F1800 X18.367 Y17.999 E0.0396
G1 X19.163 Y17.603 E0.04436
G1 X19.942 Y17.489 E0.03928
G1 X80.123 Y17.485 E3.00244
G1 X81.013 Y17.667 E0.04532
G1 X81.768 Y18.065 E0.04258
G1 X81.988 Y18.234 E0.01384
G1 X82.486 Y18.852 E0.0396
G1 X82.882 Y19.648 E0.04436
G1 X82.996 Y20.427 E0.03928
G1 X83 Y80.608 E3.00244
G1 X82.818 Y81.498 E0.04532
G1 X82.42 Y82.253 E0.04258
G1 X82.251 Y82.473 E0.01384
G1 X81.633 Y82.971 E0.0396
G1 X80.837 Y83.367 E0.04436
G1 X80.058 Y83.481 E0.03928
G1 X19.877 Y83.485 E3.00244
G1 X18.987 Y83.303 E0.04532
G1 X18.232 Y82.905 E0.04258
G1 X18.012 Y82.736 E0.01384
G1 X17.514 Y82.118 E0.0396
G1 X17.118 Y81.322 E0.04436
G1 X17.004 Y80.543 E0.03928
G1 X17 Y20.362 E3.00244
G1 X17.182 Y19.472 E0.04532
G1 X17.58 Y18.717 E0.04258
G1 X17.749 Y18.497 E0.01384
G0 F3600 X18.037 Y18.778
G1 F1800 X18.583 Y18.338 E0.03498
G1 X19.283 Y17.99 E0.039
G1 X20 Y17.885 E0.03615
G1 X80.082 Y17.885 E2.9975
G1 X80.878 Y18.048 E0.04054
G1 X81.582 Y18.419 E0.0397
G1 X81.707 Y18.522 E0.00808
G1 X82.147 Y19.068 E0.03498
G1 X82.495 Y19.768 E0.039
G1 X82.6 Y20.485 E0.03615
G1 X82.6 Y80.567 E2.9975
G1 X82.437 Y81.363 E0.04054
G1 X82.066 Y82.067 E0.0397
G1 X81.963 Y82.192 E0.00808
G1 X81.417 Y82.632 E0.03498
G1 X80.717 Y82.98 E0.039
G1 X80 Y83.085 E0.03615
G1 X19.918 Y83.085 E2.9975
G1 X19.122 Y82.922 E0.04054
G1 X18.418 Y82.551 E0.0397
G1 X18.293 Y82.448 E0.00808
G1 X17.853 Y81.902 E0.03498
G1 X17.505 Y81.202 E0.039
G1 X17.4 Y80.485 E0.03615
G1 X17.4 Y20.403 E2.9975
G1 X17.563 Y19.607 E0.04054
G1 X17.934 Y18.903 E0.0397
G1 X18.037 Y18.778 E0.00808
G0 F3600 X18.288 Y19.089
G1 F1800 X18.799 Y18.677 E0.03275
G1 X19.405 Y18.376 E0.03376
G1 X20 Y18.285 E0.03003
G1 X80.041 Y18.285 E2.99546
G1 X80.743 Y18.429 E0.03575
G1 X81.396 Y18.773 E0.03682
G1 X81.808 Y19.284 E0.03275
G1 X82.109 Y19.89 E0.03376
G1 X82.2 Y20.485 E0.03003
G1 X82.2 Y80.526 E2.99546
G1 X82.056 Y81.228 E0.03575
G1 X81.712 Y81.881 E0.03682
G1 X81.201 Y82.293 E0.03275
G1 X80.595 Y82.594 E0.03376
G1 X80 Y82.685 E0.03003
G1 X19.959 Y82.685 E2.99546
G1 X19.257 Y82.541 E0.03575
G1 X18.604 Y82.197 E0.03682
G1 X18.192 Y81.686 E0.03275
G1 X17.891 Y81.08 E0.03376
G1 X17.8 Y80.485 E0.03003
G1 X17.8 Y20.444 E2.99546
G1 X17.944 Y19.742 E0.03575
G1 X18.288 Y19.089 E0.03682
G0 F3600 X18.605 Y19.347
G1 F1800 X18.977 Y19.035 E0.02422
G1 X19.526 Y18.762 E0.03059
G1 X20 Y18.685 E0.02396
G1 X80 Y18.685 E2.99341
G1 X80.606 Y18.809 E0.03086
G1 X81.138 Y19.09 E0.03002
G1 X81.45 Y19.462 E0.02422
G1 X81.723 Y20.011 E0.03059
G1 X81.8 Y20.485 E0.02396
G1 X81.8 Y80.485 E2.99341
G1 X81.676 Y81.091 E0.03086
G1 X81.395 Y81.623 E0.03002
G1 X81.023 Y81.935 E0.02422
G1 X80.474 Y82.208 E0.03059
G1 X80 Y82.285 E0.02396
G1 X20 Y82.285 E2.99341
G1 X19.394 Y82.161 E0.03086
G1 X18.862 Y81.88 E0.03002
G1 X18.55 Y81.508 E0.02422
G1 X18.277 Y80.959 E0.03059
G1 X18.2 Y80.485 E0.02396
G1 X18.2 Y20.485 E2.99341
G1 X18.324 Y19.879 E0.03086
G1 X18.605 Y19.347 E0.03002
G0 F3600 X18.923 Y19.602
G1 F1800 X19.155 Y19.393 E0.01558
G1 X19.649 Y19.147 E0.02753
G1 X20 Y19.085 E0.01778
G1 X80 Y19.085 E2.99341
G1 X80.419 Y19.163 E0.02126
G1 X80.883 Y19.408 E0.02618
G1 X81.092 Y19.64 E0.01558
G1 X81.338 Y20.134 E0.02753
G1 X81.4 Y20.485 E0.01778
G1 X81.4 Y80.485 E2.99341
G1 X81.322 Y80.904 E0.02126
G1 X81.077 Y81.368 E0.02618
G1 X80.845 Y81.577 E0.01558
G1 X80.351 Y81.823 E0.02753
G1 X80 Y81.885 E0.01778
G1 X20 Y81.885 E2.99341
G1 X19.581 Y81.807 E0.02126
G1 X19.117 Y81.562 E0.02618
G1 X18.908 Y81.33 E0.01558
G1 X18.662 Y80.836 E0.02753
G1 X18.6 Y80.485 E0.01778
G1 X18.6 Y20.485 E2.99341
G1 X18.678 Y20.066 E0.02126
G1 X18.923 Y19.602 E0.02618
G0 F3600 X19.207 Y19.884
G1 F1800 X19.345 Y19.745 E0.00977
G1 X19.727 Y19.539 E0.02165
G1 X20 Y19.485 E0.01388
G1 X80 Y19.485 E2.99341
G1 X80.338 Y19.555 E0.01722
G1 X80.601 Y19.692 E0.01479
G1 X80.74 Y19.83 E0.00977
G1 X80.946 Y20.212 E0.02165
G1 X81 Y20.485 E0.01388
G1 X81 Y80.485 E2.99341
G1 X80.93 Y80.823 E0.01722
G1 X80.793 Y81.086 E0.01479
G1 X80.655 Y81.225 E0.00977
G1 X80.273 Y81.431 E0.02165
G1 X80 Y81.485 E0.01388
G1 X20 Y81.485 E2.99341
G1 X19.662 Y81.415 E0.01722
G1 X19.399 Y81.278 E0.01479
G1 X19.26 Y81.14 E0.00977
G1 X19.054 Y80.758 E0.02165
G1 X19 Y80.485 E0.01388
G1 X19 Y20.485 E2.99341
G1 X19.07 Y20.147 E0.01722
G1 X19.207 Y19.884 E0.01479
G0 F3600 X19.839 Y20.366
G1 F1800 X20 Y20.285 E0.00899
G1 X80 Y20.285 E2.99341
G1 X80.119 Y20.324 E0.00625
G1 X80.2 Y20.485 E0.00899
G1 X80.2 Y80.485 E2.99341
G1 X80.161 Y80.604 E0.00625
G1 X80 Y80.685 E0.00899
G1 X20 Y80.685 E2.99341
G1 X19.881 Y80.646 E0.00625
G1 X19.8 Y80.485 E0.00899
G1 X19.8 Y20.485 E2.99341
G1 X19.839 Y20.366 E0.00625
G0 F3600 X19.459 Y20.241
G1 F1800 X19.55 Y20.089 E0.00884
G1 X19.82 Y19.928 E0.01568
G1 X20 Y19.885 E0.00923
G1 X80 Y19.885 E2.99341
G1 X80.244 Y19.944 E0.01252
G1 X80.396 Y20.035 E0.00884
G1 X80.557 Y20.305 E0.01568
G1 X80.6 Y20.485 E0.00923
G1 X80.6 Y80.485 E2.99341
G1 X80.541 Y80.729 E0.01252
G1 X80.45 Y80.881 E0.00884
G1 X80.18 Y81.042 E0.01568
G1 X80 Y81.085 E0.00923
G1 X20 Y81.085 E2.99341
G1 X19.756 Y81.026 E0.01252
G1 X19.604 Y80.935 E0.00884
G1 X19.443 Y80.665 E0.01568
G1 X19.4 Y80.485 E0.00923
G1 X19.4 Y20.485 E2.99341
G1 X19.459 Y20.241 E0.01252
G1 F1500 E-6.5
;MESH:meh_cube01.stl
G0 F3600 X20.414 Y20.899
G0 X79.13 Y79.615
G0 X79.4 Y79.884
;TYPE:WALL-INNER
G1 F1500 E6.5
G1 F1800 X79.4 Y21.084 E2.93354
G1 X20.6 Y21.084 E2.93354
G1 X20.6 Y79.884 E2.93354
G1 X79.4 Y79.884 E2.93354
G0 F3600 X79.8 Y80.284
;TYPE:WALL-OUTER
G1 F1800 X79.8 Y20.684 E2.97346
G1 X20.2 Y20.684 E2.97346
G1 X20.2 Y80.284 E2.97346
G1 X79.8 Y80.284 E2.97346
G0 F3600 X79.8 Y80.084
G0 X79.02 Y79.504
;TYPE:SKIN
G1 F1800 X20.98 Y79.504 E2.89563
G1 X20.98 Y21.464 E2.89563
G1 X79.02 Y21.464 E2.89563
G1 X79.02 Y79.504 E2.89563
G0 F3600 X78.233 Y21.664
G1 F1800 X78.82 Y22.252 E0.04145
G0 F3600 X78.82 Y22.818
G1 F1800 X77.667 Y21.664 E0.08139
G0 F3600 X77.102 Y21.664
G1 F1800 X78.82 Y23.383 E0.12125
G0 F3600 X78.82 Y23.949
