;FLAVOR:RepRap
;TIME:8441
;Filament used: 7.65977m
;Layer height: 0.15
;MINX:1.187
;MINY:17.165
;MINZ:0.3
;MAXX:98.842
;MAXY:83.835
;MAXZ:46.8
;TARGET_MACHINE.NAME:Unknown
;Generated with Cura_SteamEngine 5.9.0
T0
M104 S200
M109 S200
M82 ;absolute extrusion mode
G28 ;Home
G1 Z15.0 F6000 ;Move the platform down 15mm
G92 E0
M83 ;relative extrusion mode
G1 F1500 E-6.5
;LAYER_COUNT:311
;LAYER:0
M107
G0 F3600 X4.414 Y19.532 Z0.3
;TYPE:SKIRT
G1 F1500 E6.5
G1 F1800 X5.791 Y18.423 E0.08821
G1 X7.765 Y17.439 E0.11004
G1 X9.288 Y17.217 E0.07679
G1 X90.664 Y17.165 E4.05987
G1 X92.721 Y17.587 E0.10476
G1 X94.492 Y18.582 E0.10135
G1 X95.493 Y19.356 E0.06313
G1 X96.58 Y20.71 E0.08663
G1 X97.575 Y22.708 E0.11136
G1 X97.815 Y24.519 E0.09114
G1 X97.842 Y27.565 E0.15197
G1 X97.432 Y29.576 E0.10239
G1 X97.153 Y30.123 E0.03063
G1 X97.403 Y30.422 E0.01944
G1 X98.016 Y31.37 E0.05632
G1 X98.786 Y33.319 E0.10455
G1 X98.842 Y33.569 E0.01278
G1 X98.842 Y76.657 E2.14967
G1 X98.42 Y78.714 E0.10476
G1 X97.425 Y80.485 E0.10135
G1 X96.652 Y81.483 E0.06298
G1 X95.299 Y82.575 E0.08674
G1 X93.32 Y83.561 E0.11031
G1 X91.796 Y83.783 E0.07684
G1 X8.325 Y83.835 E4.16439
G1 X6.324 Y83.396 E0.1022
G1 X4.538 Y82.396 E0.10212
G1 X3.595 Y81.657 E0.05977
G1 X2.514 Y80.311 E0.08613
G1 X1.516 Y78.295 E0.11223
G1 X1.294 Y76.789 E0.07595
G1 X1.242 Y36.81 E1.99456
G1 X1.208 Y36.499 E0.01561
G1 X1.187 Y34.314 E0.10902
G1 X1.646 Y32.127 E0.11149
G1 X2.868 Y29.941 E0.12494
G1 X2.512 Y29.229 E0.03971
G1 X2.266 Y27.363 E0.0939
G1 X2.242 Y24.365 E0.14958
G1 X2.666 Y22.288 E0.10576
G1 X3.723 Y20.415 E0.1073
G1 X4.414 Y19.532 E0.05594
G0 F3600 X4.701 Y19.815
G1 F1800 X6.011 Y18.76 E0.08392
G1 X7.885 Y17.826 E0.10446
G1 X9.346 Y17.613 E0.07366
G1 X90.623 Y17.565 E4.05493
G1 X92.58 Y17.967 E0.09967
G1 X94.247 Y18.898 E0.09526
G1 X95.209 Y19.642 E0.06067
G1 X96.243 Y20.929 E0.08236
G1 X97.187 Y22.825 E0.10567
G1 X97.418 Y24.571 E0.08787
G1 X97.442 Y27.526 E0.14743
G1 X97.04 Y29.496 E0.10031
G1 X96.67 Y30.172 E0.03845
G1 X97.067 Y30.639 E0.03058
G1 X97.659 Y31.554 E0.05437
G1 X98.414 Y33.466 E0.10256
G1 X98.442 Y33.613 E0.00747
G1 X98.442 Y76.616 E2.14543
G1 X98.04 Y78.573 E0.09967
G1 X97.109 Y80.24 E0.09526
G1 X96.364 Y81.202 E0.0607
G1 X95.082 Y82.236 E0.08217
G1 X93.2 Y83.174 E0.10491
G1 X91.738 Y83.387 E0.07371
G1 X8.37 Y83.435 E4.15925
G1 X6.466 Y83.017 E0.09725
G1 X4.785 Y82.081 E0.09599
G1 X3.879 Y81.371 E0.05743
G1 X2.85 Y80.09 E0.08197
G1 X1.903 Y78.177 E0.10649
G1 X1.69 Y76.731 E0.07292
G1 X1.642 Y36.784 E1.99297
G1 X1.606 Y36.455 E0.01651
G1 X1.587 Y34.351 E0.10497
G1 X2.024 Y32.27 E0.10609
G1 X3.163 Y30.232 E0.11648
G1 X3.357 Y30.025 E0.01415
G1 X2.899 Y29.108 E0.05114
G1 X2.666 Y27.36 E0.08798
G1 X2.642 Y24.404 E0.14748
G1 X3.045 Y22.43 E0.10051
G1 X4.038 Y20.662 E0.10117
G1 X4.701 Y19.815 E0.05366
G0 F3600 X4.99 Y20.096
G1 F1800 X6.227 Y19.099 E0.07926
G1 X8.005 Y18.213 E0.09911
G1 X9.404 Y18.009 E0.07053
G1 X90.581 Y17.965 E4.04994
G1 X92.439 Y18.347 E0.09463
G1 X94.002 Y19.214 E0.08917
G1 X94.927 Y19.929 E0.05833
G1 X95.904 Y21.146 E0.07786
G1 X96.798 Y22.942 E0.10009
G1 X97.021 Y24.624 E0.08465
G1 X97.042 Y27.487 E0.14284
G1 X96.66 Y29.357 E0.09522
G1 X96.186 Y30.223 E0.04925
G1 X96.731 Y30.856 E0.04167
G1 X97.302 Y31.738 E0.05242
G1 X98.042 Y33.613 E0.10057
G1 X98.042 Y76.574 E2.14333
G1 X97.66 Y78.432 E0.09463
G1 X96.793 Y79.995 E0.08917
G1 X96.076 Y80.921 E0.05843
G1 X94.865 Y81.897 E0.0776
G1 X93.08 Y82.787 E0.09951
G1 X91.68 Y82.991 E0.07058
G1 X8.415 Y83.035 E4.15411
G1 X6.609 Y82.638 E0.09225
G1 X5.032 Y81.766 E0.0899
G1 X4.163 Y81.085 E0.05508
G1 X3.186 Y79.869 E0.07782
G1 X2.29 Y78.059 E0.10076
G1 X2.086 Y76.673 E0.06989
G1 X2.042 Y36.758 E1.99137
G1 X2.004 Y36.411 E0.01742
G1 X1.987 Y34.388 E0.10093
G1 X2.402 Y32.413 E0.10068
G1 X3.512 Y30.427 E0.11351
G1 X3.849 Y30.114 E0.02295
G1 X3.287 Y28.99 E0.0627
G1 X3.063 Y27.307 E0.08471
G1 X3.042 Y24.443 E0.14289
G1 X3.425 Y22.57 E0.09538
G1 X4.353 Y20.909 E0.09492
G1 X4.99 Y20.096 E0.05153
G0 F3600 X5.279 Y20.377
G1 F1800 X6.444 Y19.438 E0.07465
G1 X8.125 Y18.6 E0.09371
G1 X9.462 Y18.405 E0.06741
G1 X90.539 Y18.365 E4.04495
G1 X92.299 Y18.727 E0.08964
G1 X93.808 Y19.564 E0.08609
G1 X94.642 Y20.214 E0.05275
G1 X95.567 Y21.365 E0.07367
G1 X96.41 Y23.059 E0.0944
G1 X96.624 Y24.676 E0.08138
G1 X96.642 Y27.448 E0.1383
G1 X96.28 Y29.218 E0.09013
G1 X95.701 Y30.275 E0.06013
G1 X96.395 Y31.073 E0.05276
G1 X96.945 Y31.922 E0.05047
G1 X97.642 Y33.689 E0.09477
G1 X97.642 Y76.532 E2.13745
G1 X97.28 Y78.292 E0.08964
G1 X96.443 Y79.801 E0.08609
G1 X95.791 Y80.637 E0.05289
G1 X94.645 Y81.56 E0.07341
G1 X92.96 Y82.4 E0.09393
G1 X91.622 Y82.595 E0.06746
G1 X8.46 Y82.635 E4.14897
G1 X6.751 Y82.259 E0.0873
G1 X5.279 Y81.451 E0.08377
G1 X4.447 Y80.799 E0.05274
G1 X3.525 Y79.652 E0.07342
G1 X2.677 Y77.938 E0.09541
G1 X2.482 Y76.615 E0.06672
G1 X2.442 Y36.732 E1.98977
G1 X2.402 Y36.367 E0.01832
G1 X2.387 Y34.426 E0.09684
G1 X2.78 Y32.556 E0.09533
G1 X3.861 Y30.622 E0.11054
G1 X4.349 Y30.22 E0.03154
G1 X3.675 Y28.872 E0.07519
G1 X3.46 Y27.254 E0.08143
G1 X3.442 Y24.482 E0.1383
G1 X3.804 Y22.711 E0.09018
G1 X4.668 Y21.156 E0.08875
G1 X5.279 Y20.377 E0.04939
G0 F3600 X5.565 Y20.66
G1 F1800 X6.664 Y19.775 E0.0704
G1 X8.245 Y18.987 E0.08813
G1 X9.52 Y18.801 E0.06428
G1 X90.497 Y18.765 E4.03996
G1 X92.159 Y19.107 E0.08465
G1 X93.614 Y19.914 E0.08301
G1 X94.359 Y20.5 E0.04729
G1 X95.228 Y21.582 E0.06924
G1 X96.021 Y23.176 E0.08882
G1 X96.227 Y24.729 E0.07816
G1 X96.242 Y27.408 E0.13366
G1 X95.9 Y29.079 E0.08509
G1 X95.216 Y30.328 E0.07105
G1 X96.093 Y31.336 E0.06666
G1 X96.588 Y32.107 E0.04571
G1 X97.242 Y33.765 E0.08892
G1 X97.242 Y76.49 E2.13156
G1 X96.9 Y78.152 E0.08465
G1 X96.093 Y79.607 E0.08301
G1 X95.507 Y80.352 E0.04729
G1 X94.425 Y81.223 E0.0693
G1 X92.84 Y82.013 E0.08835
G1 X91.564 Y82.199 E0.06433
G1 X8.505 Y82.235 E4.14383
G1 X6.891 Y81.88 E0.08245
G1 X5.526 Y81.136 E0.07756
G1 X4.728 Y80.511 E0.05057
G1 X3.863 Y79.434 E0.06892
G1 X3.064 Y77.82 E0.08985
G1 X2.878 Y76.557 E0.06369
G1 X2.842 Y36.706 E1.98818
G1 X2.8 Y36.323 E0.01922
G1 X2.787 Y34.464 E0.09275
G1 X3.158 Y32.699 E0.08998
G1 X4.173 Y30.883 E0.10379
G1 X4.85 Y30.326 E0.04374
G1 X4.063 Y28.754 E0.08771
G1 X3.857 Y27.201 E0.07816
G1 X3.842 Y24.522 E0.13366
G1 X4.184 Y22.85 E0.08514
G1 X4.983 Y21.403 E0.08247
G1 X5.565 Y20.66 E0.04709
G1 F1500 E-6.5
G0 F3600 X6.88 Y20.114
G1 F1500 E6.5
G1 F1800 X8.365 Y19.374 E0.08278
G1 X9.578 Y19.197 E0.06116
G1 X90.455 Y19.165 E4.03497
G1 X92.019 Y19.487 E0.07966
G1 X93.42 Y20.264 E0.07993
G1 X94.074 Y20.785 E0.04172
G1 X94.891 Y21.801 E0.06504
G1 X95.633 Y23.293 E0.08313
G1 X95.83 Y24.781 E0.07488
G1 X95.842 Y27.368 E0.12907
G1 X95.52 Y28.94 E0.08006
G1 X94.731 Y30.381 E0.08196
G1 X95.791 Y31.599 E0.08056
G1 X96.23 Y32.29 E0.04084
G1 X96.842 Y33.841 E0.08319
G1 X96.842 Y76.448 E2.12567
G1 X96.52 Y78.012 E0.07966
G1 X95.743 Y79.413 E0.07993
G1 X95.222 Y80.067 E0.04172
G1 X94.207 Y80.884 E0.06501
G1 X92.719 Y81.626 E0.08295
G1 X91.506 Y81.803 E0.06116
G1 X8.55 Y81.835 E4.13869
G1 X7.031 Y81.501 E0.07759
G1 X5.773 Y80.821 E0.07134
G1 X5.012 Y80.225 E0.04822
G1 X4.199 Y79.213 E0.06476
G1 X3.451 Y77.702 E0.08412
G1 X3.274 Y76.499 E0.06066
G1 X3.242 Y36.68 E1.98658
G1 X3.198 Y36.279 E0.02013
G1 X3.187 Y34.502 E0.08866
G1 X3.536 Y32.842 E0.08463
G1 X4.485 Y31.144 E0.09705
G1 X5.402 Y30.39 E0.05923
G1 X5.174 Y30.092 E0.01872
G1 X4.451 Y28.637 E0.08106
G1 X4.254 Y27.149 E0.07488
G1 X4.242 Y24.562 E0.12907
G1 X4.564 Y22.99 E0.08006
G1 X5.298 Y21.65 E0.07623
G1 X5.854 Y20.941 E0.04495
G1 X6.88 Y20.114 E0.06575
G0 F3600 X7.096 Y20.453
G1 F1800 X8.485 Y19.761 E0.07742
G1 X9.636 Y19.593 E0.05803
G1 X90.413 Y19.565 E4.02998
G1 X91.88 Y19.867 E0.07472
G1 X93.171 Y20.577 E0.07351
G1 X93.788 Y21.069 E0.03937
G1 X94.554 Y22.02 E0.06092
G1 X95.246 Y23.412 E0.07756
G1 X95.43 Y24.783 E0.06901
G1 X95.442 Y27.328 E0.12697
G1 X95.14 Y28.802 E0.07507
G1 X94.471 Y30.033 E0.0699
G1 X94.138 Y30.457 E0.0269
G1 X94.425 Y30.636 E0.01688
G1 X95.453 Y31.814 E0.078
G1 X95.873 Y32.475 E0.03907
G1 X96.442 Y33.917 E0.07734
G1 X96.442 Y76.406 E2.11978
G1 X96.14 Y77.873 E0.07472
G1 X95.43 Y79.164 E0.07351
G1 X94.938 Y79.781 E0.03937
G1 X93.987 Y80.547 E0.06092
G1 X92.599 Y81.239 E0.07738
G1 X91.448 Y81.407 E0.05803
G1 X8.595 Y81.435 E4.13355
G1 X7.172 Y81.122 E0.07269
G1 X6.02 Y80.506 E0.06517
G1 X5.296 Y79.939 E0.04588
G1 X4.535 Y78.992 E0.06061
G1 X3.838 Y77.584 E0.07838
G1 X3.67 Y76.441 E0.05764
G1 X3.642 Y36.654 E1.98498
G1 X3.596 Y36.235 E0.02103
G1 X3.587 Y34.54 E0.08457
G1 X3.914 Y32.985 E0.07928
G1 X4.797 Y31.405 E0.0903
G1 X5.807 Y30.575 E0.06522
G1 X5.978 Y30.467 E0.01009
G1 X5.532 Y29.914 E0.03544
G1 X4.838 Y28.518 E0.07778
G1 X4.654 Y27.147 E0.06901
G1 X4.642 Y24.602 E0.12697
G1 X4.944 Y23.128 E0.07507
G1 X5.613 Y21.897 E0.0699
G1 X6.143 Y21.222 E0.04282
G1 X7.096 Y20.453 E0.06109
G0 F3600 X7.313 Y20.792
G1 F1800 X8.605 Y20.148 E0.07202
G1 X9.694 Y19.989 E0.05491
G1 X90.371 Y19.965 E4.02499
G1 X91.742 Y20.247 E0.06983
G1 X92.922 Y20.89 E0.06704
G1 X93.505 Y21.355 E0.0372
G1 X94.215 Y22.236 E0.05645
G1 X94.859 Y23.531 E0.07216
G1 X95.03 Y24.785 E0.06314
G1 X95.042 Y27.288 E0.12488
G1 X94.76 Y28.664 E0.07008
G1 X94.156 Y29.786 E0.06357
G1 X93.681 Y30.392 E0.03841
G1 X93.478 Y30.568 E0.0134
G1 X94.124 Y30.9 E0.03624
G1 X95.115 Y32.029 E0.07495
G1 X95.516 Y32.66 E0.0373
G1 X96.042 Y33.993 E0.07149
G1 X96.042 Y76.364 E2.1139
G1 X95.76 Y77.735 E0.06983
G1 X95.117 Y78.915 E0.06704
G1 X94.652 Y79.498 E0.0372
G1 X93.771 Y80.208 E0.05645
G1 X92.479 Y80.852 E0.07202
G1 X91.39 Y81.011 E0.05491
G1 X8.64 Y81.035 E4.12841
G1 X7.312 Y80.743 E0.06784
G1 X6.209 Y80.153 E0.06241
G1 X5.581 Y79.654 E0.04002
G1 X4.871 Y78.771 E0.05653
G1 X4.225 Y77.466 E0.07265
G1 X4.066 Y76.383 E0.05461
G1 X4.042 Y36.628 E1.98339
G1 X3.994 Y36.191 E0.02193
G1 X3.987 Y34.578 E0.08047
G1 X4.292 Y33.128 E0.07392
G1 X5.109 Y31.666 E0.08356
G1 X6.061 Y30.884 E0.06146
G1 X6.577 Y30.573 E0.03006
G1 X5.869 Y29.694 E0.05631
G1 X5.225 Y28.399 E0.07216
G1 X5.054 Y27.145 E0.06314
G1 X5.042 Y24.642 E0.12488
G1 X5.324 Y23.266 E0.07008
G1 X5.928 Y22.144 E0.06357
G1 X6.431 Y21.503 E0.04065
G1 X7.313 Y20.792 E0.05652
G1 F1500 E-6.5
G0 F3600 X8.725 Y20.535
G1 F1500 E6.5
G1 F1800 X9.752 Y20.385 E0.05178
G1 X90.329 Y20.365 E4.02
G1 X91.604 Y20.627 E0.06494
G1 X92.673 Y21.203 E0.06058
G1 X93.22 Y21.639 E0.0349
G1 X93.878 Y22.456 E0.05234
G1 X94.472 Y23.65 E0.06653
G1 X94.63 Y24.787 E0.05727
G1 X94.642 Y27.248 E0.12278
G1 X94.38 Y28.526 E0.06509
G1 X93.804 Y29.596 E0.06063
G1 X93.368 Y30.143 E0.0349
G1 X92.747 Y30.643 E0.03978
G1 X93.873 Y31.22 E0.06312
G1 X94.777 Y32.244 E0.06815
G1 X95.159 Y32.845 E0.03553
G1 X95.642 Y34.069 E0.06565
G1 X95.642 Y76.322 E2.10801
G1 X95.38 Y77.597 E0.06494
G1 X94.804 Y78.666 E0.06058
G1 X94.368 Y79.213 E0.0349
G1 X93.551 Y79.871 E0.05234
G1 X92.359 Y80.465 E0.06644
G1 X91.332 Y80.615 E0.05178
G1 X8.685 Y80.635 E4.12328
G1 X7.452 Y80.364 E0.06298
G1 X6.398 Y79.8 E0.05964
G1 X5.867 Y79.371 E0.03406
G1 X5.207 Y78.55 E0.05255
G1 X4.612 Y77.348 E0.06691
G1 X4.462 Y76.325 E0.05158
G1 X4.442 Y36.609 E1.98144
G1 X4.394 Y36.189 E0.02109
G1 X4.387 Y34.616 E0.07848
G1 X4.67 Y33.271 E0.06857
G1 X5.421 Y31.927 E0.07681
G1 X6.267 Y31.227 E0.05478
G1 X7.271 Y30.622 E0.05848
G1 X6.839 Y30.26 E0.02812
G1 X6.206 Y29.474 E0.05035
G1 X5.612 Y28.28 E0.06653
G1 X5.454 Y27.143 E0.05727
G1 X5.442 Y24.682 E0.12278
G1 X5.704 Y23.404 E0.06509
G1 X6.28 Y22.334 E0.06063
G1 X6.716 Y21.787 E0.0349
G1 X7.533 Y21.129 E0.05234
G1 X8.725 Y20.535 E0.06644
G1 F1500 E-6.5
G0 F3600 X9.81 Y20.781
G1 F1500 E6.5
G1 F1800 X90.288 Y20.765 E4.01506
G1 X91.466 Y21.007 E0.06
G1 X92.483 Y21.555 E0.05764
G1 X92.933 Y21.921 E0.02894
G1 X93.541 Y22.676 E0.04836
G1 X94.085 Y23.769 E0.06091
G1 X94.23 Y24.789 E0.0514
G1 X94.242 Y27.208 E0.12069
G1 X94 Y28.388 E0.0601
G1 X93.452 Y29.406 E0.05768
G1 X93.086 Y29.856 E0.02894
G1 X92.331 Y30.464 E0.04836
G1 X91.695 Y30.781 E0.03545
G1 X92.274 Y30.85 E0.02909
G1 X93.622 Y31.541 E0.07557
G1 X94.439 Y32.459 E0.06131
G1 X94.802 Y33.03 E0.03376
G1 X95.242 Y34.145 E0.0598
G1 X95.242 Y76.281 E2.10217
G1 X95 Y77.459 E0.06
G1 X94.452 Y78.476 E0.05764
G1 X94.086 Y78.926 E0.02894
G1 X93.331 Y79.534 E0.04836
G1 X92.239 Y80.078 E0.06087
G1 X91.274 Y80.219 E0.04866
G1 X8.73 Y80.235 E4.11814
G1 X7.592 Y79.985 E0.05813
G1 X6.62 Y79.465 E0.055
G1 X6.153 Y79.087 E0.02997
G1 X5.543 Y78.329 E0.04854
G1 X4.999 Y77.23 E0.06118
G1 X4.858 Y76.267 E0.04856
G1 X4.842 Y36.586 E1.97969
G1 X4.794 Y36.187 E0.02005
G1 X4.787 Y34.654 E0.07648
G1 X5.048 Y33.414 E0.06322
G1 X5.733 Y32.189 E0.07002
G1 X6.473 Y31.57 E0.04813
G1 X7.505 Y30.948 E0.06012
G1 X7.754 Y30.849 E0.01337
G1 X8.324 Y30.767 E0.02873
G1 X7.601 Y30.375 E0.04103
G1 X7.151 Y30.009 E0.02894
G1 X6.543 Y29.254 E0.04836
G1 X5.999 Y28.161 E0.06091
G1 X5.854 Y27.141 E0.0514
G1 X5.842 Y24.722 E0.12069
G1 X6.084 Y23.542 E0.0601
G1 X6.632 Y22.524 E0.05768
G1 X6.998 Y22.074 E0.02894
G1 X7.753 Y21.466 E0.04836
G1 X8.845 Y20.922 E0.06087
G1 X9.81 Y20.781 E0.04866
G0 F3600 X9.868 Y21.177
G1 F1800 X90.247 Y21.165 E4.01012
G1 X91.328 Y21.387 E0.05506
G1 X92.236 Y21.87 E0.05131
G1 X92.621 Y22.172 E0.02441
G1 X93.204 Y22.896 E0.04638
G1 X93.698 Y23.888 E0.05529
G1 X93.83 Y24.791 E0.04553
G1 X93.842 Y27.168 E0.11859
G1 X93.62 Y28.251 E0.05515
G1 X93.137 Y29.159 E0.05131
G1 X92.835 Y29.544 E0.02441
G1 X92.111 Y30.127 E0.04638
G1 X91.119 Y30.621 E0.05529
G1 X90.216 Y30.753 E0.04553
G1 X9.787 Y30.765 E4.01262
G1 X8.746 Y30.538 E0.05316
G1 X7.848 Y30.06 E0.05075
G1 X7.463 Y29.758 E0.02441
G1 X6.88 Y29.034 E0.04638
G1 X6.386 Y28.042 E0.05529
G1 X6.254 Y27.139 E0.04553
G1 X6.242 Y24.762 E0.11859
G1 X6.464 Y23.679 E0.05515
G1 X6.947 Y22.771 E0.05131
G1 X7.249 Y22.386 E0.02441
G1 X7.973 Y21.803 E0.04638
G1 X8.965 Y21.309 E0.05529
G1 X9.868 Y21.177 E0.04553
G1 F1500 E-6.5
G0 F3600 X9.389 Y24.312
G0 X9.389 Y27.618
G0 X10.112 Y31.165
G1 F1500 E6.5
G1 F1800 X89.895 Y31.165 E3.98039
G1 X90.402 Y31.145 E0.02531
G1 X90.997 Y31.1 E0.02977
G1 X92.156 Y31.239 E0.05824
G1 X93.372 Y31.862 E0.06817
G1 X94.101 Y32.674 E0.05444
G1 X94.445 Y33.215 E0.03198
G1 X94.842 Y34.221 E0.05396
G1 X94.842 Y76.24 E2.09634
G1 X94.62 Y77.321 E0.05506
G1 X94.137 Y78.229 E0.05131
G1 X93.835 Y78.614 E0.02441
G1 X93.111 Y79.197 E0.04638
G1 X92.119 Y79.691 E0.05529
G1 X91.216 Y79.823 E0.04553
G1 X8.775 Y79.835 E4.113
G1 X7.732 Y79.606 E0.05327
G1 X6.809 Y79.112 E0.05223
G1 X6.44 Y78.805 E0.02395
G1 X5.881 Y78.11 E0.0445
G1 X5.386 Y77.111 E0.05562
G1 X5.254 Y76.209 E0.04548
G1 X5.242 Y36.558 E1.9782
G1 X5.194 Y36.185 E0.01876
G1 X5.187 Y34.692 E0.07449
G1 X5.426 Y33.557 E0.05787
G1 X6.045 Y32.45 E0.06328
G1 X6.73 Y31.877 E0.04455
G1 X7.71 Y31.291 E0.05697
G1 X7.856 Y31.239 E0.00773
G1 X8.812 Y31.1 E0.0482
G1 X10.112 Y31.165 E0.06494
G0 F3600 X10.112 Y31.565
G1 F1800 X89.911 Y31.565 E3.98119
G1 X90.42 Y31.545 E0.02541
G1 X90.99 Y31.502 E0.02852
G1 X92.036 Y31.627 E0.05256
G1 X93.124 Y32.185 E0.061
G1 X93.763 Y32.888 E0.0474
G1 X94.087 Y33.398 E0.03014
G1 X94.442 Y34.297 E0.04822
G1 X94.442 Y76.199 E2.0905
G1 X94.24 Y77.185 E0.05021
G1 X93.816 Y77.99 E0.04539
G1 X93.584 Y78.302 E0.0194
G1 X92.891 Y78.86 E0.04439
G1 X91.999 Y79.304 E0.04971
G1 X91.158 Y79.427 E0.0424
G1 X8.82 Y79.435 E4.10786
G1 X7.872 Y79.227 E0.04842
G1 X6.998 Y78.759 E0.04946
G1 X6.752 Y78.554 E0.01598
G1 X6.219 Y77.891 E0.04244
G1 X5.773 Y76.992 E0.05007
G1 X5.65 Y76.151 E0.0424
G1 X5.642 Y36.53 E1.9767
G1 X5.591 Y36.134 E0.01992
G1 X5.587 Y34.73 E0.07005
G1 X5.804 Y33.7 E0.05251
G1 X6.357 Y32.711 E0.05653
G1 X6.987 Y32.184 E0.04098
G1 X7.914 Y31.635 E0.05375
G1 X8.835 Y31.501 E0.04643
G1 X10.112 Y31.565 E0.06379
G0 F3600 X10.092 Y31.965
G1 F1800 X89.927 Y31.965 E3.98298
G1 X90.437 Y31.945 E0.02546
G1 X90.982 Y31.904 E0.02727
G1 X91.917 Y32.016 E0.04698
G1 X92.877 Y32.508 E0.05382
G1 X93.425 Y33.103 E0.04036
G1 X93.73 Y33.583 E0.02837
G1 X94.042 Y34.373 E0.04238
G1 X94.042 Y76.158 E2.08466
G1 X93.86 Y77.048 E0.04532
G1 X93.462 Y77.803 E0.04258
G1 X93.293 Y78.023 E0.01384
G1 X92.675 Y78.521 E0.0396
