;FLAVOR:RepRap
;TIME:2554
;Filament used: 2.04253m
;Layer height: 0.15
;MINX:2.2
;MINY:17.2
;MINZ:0.3
;MAXX:97.8
;MAXY:82.8
;MAXZ:10.65
;TARGET_MACHINE.NAME:Unknown
;Generated with Cura_SteamEngine 5.7.2
T0
M104 S200
M109 S200
M82 ;absolute extrusion mode
G28 ;Home
G1 Z15.0 F6000 ;Move the platform down 15mm
G92 E0
M83 ;relative extrusion mode
G1 F1500 E-6.5
;LAYER_COUNT:70
;LAYER:0
M107
G0 F3600 X7.722 Y17.474 Z0.3
;TYPE:SKIRT
G1 F1500 E6.5
G1 F1800 X9.246 Y17.252 E0.07684
G1 X90.622 Y17.2 E4.05987
G1 X92.679 Y17.622 E0.10476
G1 X94.45 Y18.617 E0.10135
G1 X95.448 Y19.39 E0.06298
G1 X96.54 Y20.743 E0.08674
G1 X97.526 Y22.722 E0.11031
G1 X97.748 Y24.246 E0.07684
G1 X97.8 Y75.622 E2.56316
G1 X97.378 Y77.679 E0.10476
G1 X96.383 Y79.45 E0.10135
G1 X95.61 Y80.448 E0.06298
G1 X94.257 Y81.54 E0.08674
G1 X92.278 Y82.526 E0.11031
G1 X90.754 Y82.748 E0.07684
G1 X9.378 Y82.8 E4.05987
G1 X7.321 Y82.378 E0.10476
G1 X5.55 Y81.383 E0.10135
G1 X4.552 Y80.61 E0.06298
G1 X3.46 Y79.257 E0.08674
G1 X2.474 Y77.278 E0.11031
G1 X2.252 Y75.754 E0.07684
G1 X2.2 Y24.378 E2.56316
G1 X2.622 Y22.321 E0.10476
G1 X3.617 Y20.55 E0.10135
G1 X4.39 Y19.552 E0.06298
G1 X5.743 Y18.46 E0.08674
G1 X7.722 Y17.474 E0.11031
G0 F3600 X7.842 Y17.861
G1 F1800 X9.304 Y17.648 E0.07371
G1 X90.581 Y17.6 E4.05493
G1 X92.538 Y18.002 E0.09967
G1 X94.205 Y18.933 E0.09526
G1 X95.167 Y19.678 E0.0607
G1 X96.201 Y20.96 E0.08217
G1 X97.139 Y22.842 E0.10491
G1 X97.352 Y24.304 E0.07371
G1 X97.4 Y75.581 E2.55822
G1 X96.998 Y77.538 E0.09967
G1 X96.067 Y79.205 E0.09526
G1 X95.322 Y80.167 E0.0607
G1 X94.04 Y81.201 E0.08217
G1 X92.158 Y82.139 E0.10491
G1 X90.696 Y82.352 E0.07371
G1 X9.419 Y82.4 E4.05493
G1 X7.462 Y81.998 E0.09967
G1 X5.795 Y81.067 E0.09526
G1 X4.833 Y80.322 E0.0607
G1 X3.799 Y79.04 E0.08217
G1 X2.861 Y77.158 E0.10491
G1 X2.648 Y75.696 E0.07371
G1 X2.6 Y24.419 E2.55822
G1 X3.002 Y22.462 E0.09967
G1 X3.933 Y20.795 E0.09526
G1 X4.678 Y19.833 E0.0607
G1 X5.96 Y18.799 E0.08217
G1 X7.842 Y17.861 E0.10491
G0 F3600 X7.962 Y18.248
G1 F1800 X9.362 Y18.044 E0.07058
G1 X90.539 Y18 E4.04994
G1 X92.397 Y18.382 E0.09463
G1 X93.96 Y19.249 E0.08917
G1 X94.886 Y19.966 E0.05843
G1 X95.862 Y21.177 E0.0776
G1 X96.752 Y22.962 E0.09951
G1 X96.956 Y24.362 E0.07058
G1 X97 Y75.539 E2.55323
G1 X96.618 Y77.397 E0.09463
G1 X95.751 Y78.96 E0.08917
G1 X95.034 Y79.886 E0.05843
G1 X93.823 Y80.862 E0.0776
G1 X92.038 Y81.752 E0.09951
G1 X90.638 Y81.956 E0.07058
G1 X9.461 Y82 E4.04994
G1 X7.603 Y81.618 E0.09463
G1 X6.04 Y80.751 E0.08917
G1 X5.114 Y80.034 E0.05843
G1 X4.138 Y78.823 E0.0776
G1 X3.248 Y77.038 E0.09951
G1 X3.044 Y75.638 E0.07058
G1 X3 Y24.461 E2.55323
G1 X3.382 Y22.603 E0.09463
G1 X4.249 Y21.04 E0.08917
G1 X4.966 Y20.114 E0.05843
G1 X6.177 Y19.138 E0.0776
G1 X7.962 Y18.248 E0.09951
G0 F3600 X8.082 Y18.635
G1 F1800 X9.42 Y18.44 E0.06746
G1 X90.497 Y18.4 E4.04495
G1 X92.257 Y18.762 E0.08964
G1 X93.766 Y19.599 E0.08609
G1 X94.602 Y20.251 E0.05289
G1 X95.525 Y21.397 E0.07341
G1 X96.365 Y23.082 E0.09393
G1 X96.56 Y24.42 E0.06746
G1 X96.6 Y75.497 E2.54824
G1 X96.238 Y77.257 E0.08964
G1 X95.401 Y78.766 E0.08609
G1 X94.749 Y79.602 E0.05289
G1 X93.603 Y80.525 E0.07341
G1 X91.918 Y81.365 E0.09393
G1 X90.58 Y81.56 E0.06746
G1 X9.503 Y81.6 E4.04495
G1 X7.743 Y81.238 E0.08964
G1 X6.234 Y80.401 E0.08609
G1 X5.398 Y79.749 E0.05289
G1 X4.475 Y78.603 E0.07341
G1 X3.635 Y76.918 E0.09393
G1 X3.44 Y75.58 E0.06746
G1 X3.4 Y24.503 E2.54824
G1 X3.762 Y22.743 E0.08964
G1 X4.599 Y21.234 E0.08609
G1 X5.251 Y20.398 E0.05289
G1 X6.397 Y19.475 E0.07341
G1 X8.082 Y18.635 E0.09393
G0 F3600 X8.202 Y19.022
G1 F1800 X9.478 Y18.836 E0.06433
G1 X90.455 Y18.8 E4.03996
G1 X92.117 Y19.142 E0.08465
G1 X93.572 Y19.949 E0.08301
G1 X94.317 Y20.535 E0.04729
G1 X95.188 Y21.617 E0.0693
G1 X95.978 Y23.202 E0.08835
G1 X96.164 Y24.478 E0.06433
G1 X96.2 Y75.455 E2.54325
G1 X95.858 Y77.117 E0.08465
G1 X95.051 Y78.572 E0.08301
G1 X94.465 Y79.317 E0.04729
G1 X93.383 Y80.188 E0.0693
G1 X91.798 Y80.978 E0.08835
G1 X90.522 Y81.164 E0.06433
G1 X9.545 Y81.2 E4.03996
G1 X7.883 Y80.858 E0.08465
G1 X6.428 Y80.051 E0.08301
G1 X5.683 Y79.465 E0.04729
G1 X4.812 Y78.383 E0.0693
G1 X4.022 Y76.798 E0.08835
G1 X3.836 Y75.522 E0.06433
G1 X3.8 Y24.545 E2.54325
G1 X4.142 Y22.883 E0.08465
G1 X4.949 Y21.428 E0.08301
G1 X5.535 Y20.683 E0.04729
G1 X6.617 Y19.812 E0.0693
G1 X8.202 Y19.022 E0.08835
G0 F3600 X8.323 Y19.409
G1 F1800 X9.536 Y19.232 E0.06116
G1 X90.413 Y19.2 E4.03497
G1 X91.977 Y19.522 E0.07966
G1 X93.378 Y20.299 E0.07993
G1 X94.032 Y20.82 E0.04172
G1 X94.849 Y21.835 E0.06501
G1 X95.591 Y23.323 E0.08295
G1 X95.768 Y24.536 E0.06116
G1 X95.8 Y75.413 E2.53826
G1 X95.478 Y76.977 E0.07966
G1 X94.701 Y78.378 E0.07993
G1 X94.18 Y79.032 E0.04172
G1 X93.165 Y79.849 E0.06501
G1 X91.677 Y80.591 E0.08295
G1 X90.464 Y80.768 E0.06116
G1 X9.587 Y80.8 E4.03497
G1 X8.023 Y80.478 E0.07966
G1 X6.622 Y79.701 E0.07993
G1 X5.968 Y79.18 E0.04172
G1 X5.151 Y78.165 E0.06501
G1 X4.409 Y76.677 E0.08295
G1 X4.232 Y75.464 E0.06116
G1 X4.2 Y24.587 E2.53826
G1 X4.522 Y23.023 E0.07966
G1 X5.299 Y21.622 E0.07993
G1 X5.82 Y20.968 E0.04172
G1 X6.835 Y20.151 E0.06501
G1 X8.323 Y19.409 E0.08295
G0 F3600 X8.443 Y19.796
G1 F1800 X9.594 Y19.628 E0.05803
G1 X90.371 Y19.6 E4.02998
G1 X91.838 Y19.902 E0.07472
G1 X93.129 Y20.612 E0.07351
G1 X93.746 Y21.104 E0.03937
G1 X94.512 Y22.055 E0.06092
G1 X95.204 Y23.443 E0.07738
G1 X95.372 Y24.594 E0.05803
G1 X95.4 Y75.371 E2.53328
G1 X95.098 Y76.838 E0.07472
G1 X94.388 Y78.129 E0.07351
G1 X93.896 Y78.746 E0.03937
G1 X92.945 Y79.512 E0.06092
G1 X91.557 Y80.204 E0.07738
G1 X90.406 Y80.372 E0.05803
G1 X9.629 Y80.4 E4.02998
G1 X8.162 Y80.098 E0.07472
G1 X6.871 Y79.388 E0.07351
G1 X6.254 Y78.896 E0.03937
G1 X5.488 Y77.945 E0.06092
G1 X4.796 Y76.557 E0.07738
G1 X4.628 Y75.406 E0.05803
G1 X4.6 Y24.629 E2.53328
G1 X4.902 Y23.162 E0.07472
G1 X5.612 Y21.871 E0.07351
G1 X6.104 Y21.254 E0.03937
G1 X7.055 Y20.488 E0.06092
G1 X8.443 Y19.796 E0.07738
G0 F3600 X8.563 Y20.183
G1 F1800 X9.652 Y20.024 E0.05491
G1 X90.329 Y20 E4.02499
G1 X91.7 Y20.282 E0.06983
G1 X92.88 Y20.925 E0.06704
G1 X93.463 Y21.39 E0.0372
G1 X94.173 Y22.271 E0.05645
G1 X94.817 Y23.563 E0.07202
G1 X94.976 Y24.652 E0.05491
G1 X95 Y75.329 E2.52829
G1 X94.718 Y76.7 E0.06983
G1 X94.075 Y77.88 E0.06704
G1 X93.61 Y78.463 E0.0372
G1 X92.729 Y79.173 E0.05645
G1 X91.437 Y79.817 E0.07202
G1 X90.348 Y79.976 E0.05491
G1 X9.671 Y80 E4.02499
G1 X8.3 Y79.718 E0.06983
G1 X7.12 Y79.075 E0.06704
G1 X6.537 Y78.61 E0.0372
G1 X5.827 Y77.729 E0.05645
G1 X5.183 Y76.437 E0.07202
G1 X5.024 Y75.348 E0.05491
G1 X5 Y24.671 E2.52829
G1 X5.282 Y23.3 E0.06983
G1 X5.925 Y22.12 E0.06704
G1 X6.39 Y21.537 E0.0372
G1 X7.271 Y20.827 E0.05645
G1 X8.563 Y20.183 E0.07202
G0 F3600 X8.683 Y20.57
G1 F1800 X9.71 Y20.42 E0.05178
G1 X90.287 Y20.4 E4.02
G1 X91.562 Y20.662 E0.06494
G1 X92.631 Y21.238 E0.06058
G1 X93.178 Y21.674 E0.0349
G1 X93.836 Y22.491 E0.05234
G1 X94.43 Y23.683 E0.06644
G1 X94.58 Y24.71 E0.05178
G1 X94.6 Y75.287 E2.5233
G1 X94.338 Y76.562 E0.06494
G1 X93.762 Y77.631 E0.06058
G1 X93.326 Y78.178 E0.0349
G1 X92.509 Y78.836 E0.05234
G1 X91.317 Y79.43 E0.06644
G1 X90.29 Y79.58 E0.05178
G1 X9.713 Y79.6 E4.02
G1 X8.438 Y79.338 E0.06494
G1 X7.369 Y78.762 E0.06058
G1 X6.822 Y78.326 E0.0349
G1 X6.164 Y77.509 E0.05234
G1 X5.57 Y76.317 E0.06644
G1 X5.42 Y75.29 E0.05178
G1 X5.4 Y24.713 E2.5233
G1 X5.662 Y23.438 E0.06494
G1 X6.238 Y22.369 E0.06058
G1 X6.674 Y21.822 E0.0349
G1 X7.491 Y21.164 E0.05234
G1 X8.683 Y20.57 E0.06644
G0 F3600 X8.803 Y20.957
G1 F1800 X9.768 Y20.816 E0.04866
G1 X90.246 Y20.8 E4.01506
G1 X91.424 Y21.042 E0.06
G1 X92.441 Y21.59 E0.05764
G1 X92.891 Y21.956 E0.02894
G1 X93.499 Y22.711 E0.04836
G1 X94.043 Y23.803 E0.06087
G1 X94.184 Y24.768 E0.04866
G1 X94.2 Y75.246 E2.51836
G1 X93.958 Y76.424 E0.06
G1 X93.41 Y77.441 E0.05764
G1 X93.044 Y77.891 E0.02894
G1 X92.289 Y78.499 E0.04836
G1 X91.197 Y79.043 E0.06087
G1 X90.232 Y79.184 E0.04866
G1 X9.754 Y79.2 E4.01506
G1 X8.576 Y78.958 E0.06
G1 X7.559 Y78.41 E0.05764
G1 X7.109 Y78.044 E0.02894
G1 X6.501 Y77.289 E0.04836
G1 X5.957 Y76.197 E0.06087
G1 X5.816 Y75.232 E0.04866
G1 X5.8 Y24.754 E2.51836
G1 X6.042 Y23.576 E0.06
G1 X6.59 Y22.559 E0.05764
G1 X6.956 Y22.109 E0.02894
G1 X7.711 Y21.501 E0.04836
G1 X8.803 Y20.957 E0.06087
G0 F3600 X8.923 Y21.344
G1 F1800 X9.826 Y21.212 E0.04553
G1 X90.205 Y21.2 E4.01012
G1 X91.286 Y21.422 E0.05506
G1 X92.194 Y21.905 E0.05131
G1 X92.579 Y22.207 E0.02441
G1 X93.162 Y22.931 E0.04638
G1 X93.656 Y23.923 E0.05529
G1 X93.788 Y24.826 E0.04553
G1 X93.8 Y75.205 E2.51342
G1 X93.578 Y76.286 E0.05506
G1 X93.095 Y77.194 E0.05131
G1 X92.793 Y77.579 E0.02441
G1 X92.069 Y78.162 E0.04638
G1 X91.077 Y78.656 E0.05529
G1 X90.174 Y78.788 E0.04553
G1 X9.795 Y78.8 E4.01012
G1 X8.714 Y78.578 E0.05506
G1 X7.806 Y78.095 E0.05131
G1 X7.421 Y77.793 E0.02441
G1 X6.838 Y77.069 E0.04638
G1 X6.344 Y76.077 E0.05529
G1 X6.212 Y75.174 E0.04553
G1 X6.2 Y24.795 E2.51342
G1 X6.422 Y23.714 E0.05506
G1 X6.905 Y22.806 E0.05131
G1 X7.207 Y22.421 E0.02441
G1 X7.931 Y21.838 E0.04638
G1 X8.923 Y21.344 E0.05529
G0 F3600 X9.043 Y21.731
G1 F1800 X9.884 Y21.608 E0.0424
G1 X90.164 Y21.6 E4.00519
G1 X91.15 Y21.802 E0.05021
G1 X91.955 Y22.226 E0.04539
G1 X92.267 Y22.458 E0.0194
G1 X92.825 Y23.151 E0.04439
G1 X93.269 Y24.043 E0.04971
G1 X93.392 Y24.884 E0.0424
G1 X93.4 Y75.164 E2.50848
G1 X93.198 Y76.15 E0.05021
G1 X92.774 Y76.955 E0.04539
G1 X92.542 Y77.267 E0.0194
G1 X91.849 Y77.825 E0.04439
G1 X90.957 Y78.269 E0.04971
G1 X90.116 Y78.392 E0.0424
G1 X9.836 Y78.4 E4.00519
G1 X8.85 Y78.198 E0.05021
G1 X8.045 Y77.774 E0.04539
G1 X7.733 Y77.542 E0.0194
G1 X7.175 Y76.849 E0.04439
G1 X6.731 Y75.957 E0.04971
G1 X6.608 Y75.116 E0.0424
G1 X6.6 Y24.836 E2.50848
G1 X6.802 Y23.85 E0.05021
G1 X7.226 Y23.045 E0.04539
G1 X7.458 Y22.733 E0.0194
G1 X8.151 Y22.175 E0.04439
G1 X9.043 Y21.731 E0.04971
G0 F3600 X9.163 Y22.118
G1 F1800 X9.942 Y22.004 E0.03928
G1 X90.123 Y22 E4.00025
G1 X91.013 Y22.182 E0.04532
G1 X91.768 Y22.58 E0.04258
G1 X91.988 Y22.749 E0.01384
G1 X92.486 Y23.367 E0.0396
G1 X92.882 Y24.163 E0.04436
G1 X92.996 Y24.942 E0.03928
G1 X93 Y75.123 E2.50354
G1 X92.818 Y76.013 E0.04532
G1 X92.42 Y76.768 E0.04258
G1 X92.251 Y76.988 E0.01384
G1 X91.633 Y77.486 E0.0396
G1 X90.837 Y77.882 E0.04436
G1 X90.058 Y77.996 E0.03928
G1 X9.877 Y78 E4.00025
G1 X8.987 Y77.818 E0.04532
G1 X8.232 Y77.42 E0.04258
G1 X8.012 Y77.251 E0.01384
G1 X7.514 Y76.633 E0.0396
G1 X7.118 Y75.837 E0.04436
G1 X7.004 Y75.058 E0.03928
G1 X7 Y24.877 E2.50354
G1 X7.182 Y23.987 E0.04532
G1 X7.58 Y23.232 E0.04258
G1 X7.749 Y23.012 E0.01384
G1 X8.367 Y22.514 E0.0396
G1 X9.163 Y22.118 E0.04436
G0 F3600 X9.283 Y22.505
G1 F1800 X10 Y22.4 E0.03615
G1 X90.082 Y22.4 E3.99531
G1 X90.878 Y22.563 E0.04054
G1 X91.582 Y22.934 E0.0397
G1 X91.707 Y23.037 E0.00808
G1 X92.147 Y23.583 E0.03498
G1 X92.495 Y24.283 E0.039
G1 X92.6 Y25 E0.03615
G1 X92.6 Y75.082 E2.4986
G1 X92.437 Y75.878 E0.04054
G1 X92.066 Y76.582 E0.0397
G1 X91.963 Y76.707 E0.00808
G1 X91.417 Y77.147 E0.03498
G1 X90.717 Y77.495 E0.039
G1 X90 Y77.6 E0.03615
G1 X9.918 Y77.6 E3.99531
G1 X9.122 Y77.437 E0.04054
G1 X8.418 Y77.066 E0.0397
G1 X8.293 Y76.963 E0.00808
G1 X7.853 Y76.417 E0.03498
G1 X7.505 Y75.717 E0.039
G1 X7.4 Y75 E0.03615
G1 X7.4 Y24.918 E2.4986
G1 X7.563 Y24.122 E0.04054
G1 X7.934 Y23.418 E0.0397
G1 X8.037 Y23.293 E0.00808
G1 X8.583 Y22.853 E0.03498
G1 X9.283 Y22.505 E0.039
G0 F3600 X9.405 Y22.891
G1 F1800 X10 Y22.8 E0.03003
G1 X90.041 Y22.8 E3.99326
G1 X90.743 Y22.944 E0.03575
G1 X91.396 Y23.288 E0.03682
G1 X91.808 Y23.799 E0.03275
G1 X92.109 Y24.405 E0.03376
G1 X92.2 Y25 E0.03003
G1 X92.2 Y75.041 E2.49656
G1 X92.056 Y75.743 E0.03575
G1 X91.712 Y76.396 E0.03682
G1 X91.201 Y76.808 E0.03275
G1 X90.595 Y77.109 E0.03376
G1 X90 Y77.2 E0.03003
G1 X9.959 Y77.2 E3.99326
G1 X9.257 Y77.056 E0.03575
G1 X8.604 Y76.712 E0.03682
G1 X8.192 Y76.201 E0.03275
G1 X7.891 Y75.595 E0.03376
G1 X7.8 Y75 E0.03003
G1 X7.8 Y24.959 E2.49656
G1 X7.944 Y24.257 E0.03575
G1 X8.288 Y23.604 E0.03682
G1 X8.799 Y23.192 E0.03275
G1 X9.405 Y22.891 E0.03376
G0 F3600 X9.526 Y23.277
G1 F1800 X10 Y23.2 E0.02396
G1 X90 Y23.2 E3.99122
G1 X90.606 Y23.324 E0.03086
G1 X91.138 Y23.605 E0.03002
G1 X91.45 Y23.977 E0.02422
G1 X91.723 Y24.526 E0.03059
G1 X91.8 Y25 E0.02396
G1 X91.8 Y75 E2.49451
G1 X91.676 Y75.606 E0.03086
G1 X91.395 Y76.138 E0.03002
G1 X91.023 Y76.45 E0.02422
G1 X90.474 Y76.723 E0.03059
G1 X90 Y76.8 E0.02396
G1 X10 Y76.8 E3.99122
G1 X9.394 Y76.676 E0.03086
G1 X8.862 Y76.395 E0.03002
G1 X8.55 Y76.023 E0.02422
G1 X8.277 Y75.474 E0.03059
G1 X8.2 Y75 E0.02396
G1 X8.2 Y25 E2.49451
G1 X8.324 Y24.394 E0.03086
G1 X8.605 Y23.862 E0.03002
G1 X8.977 Y23.55 E0.02422
G1 X9.526 Y23.277 E0.03059
G0 F3600 X9.649 Y23.662
G1 F1800 X9.155 Y23.908 E0.02753
G1 X8.923 Y24.117 E0.01558
G1 X8.678 Y24.581 E0.02618
G1 X8.6 Y25 E0.02126
G1 X8.6 Y75 E2.49451
G1 X8.662 Y75.351 E0.01778
G1 X8.908 Y75.845 E0.02753
G1 X9.117 Y76.077 E0.01558
G1 X9.581 Y76.322 E0.02618
G1 X10 Y76.4 E0.02126
G1 X90 Y76.4 E3.99122
G1 X90.351 Y76.338 E0.01778
G1 X90.845 Y76.092 E0.02753
G1 X91.077 Y75.883 E0.01558
G1 X91.322 Y75.419 E0.02618
G1 X91.4 Y75 E0.02126
G1 X91.4 Y25 E2.49451
G1 X91.338 Y24.649 E0.01778
G1 X91.092 Y24.155 E0.02753
G1 X90.883 Y23.923 E0.01558
G1 X90.419 Y23.678 E0.02618
G1 X90 Y23.6 E0.02126
G1 X10 Y23.6 E3.99122
G1 X9.649 Y23.662 E0.01778
G0 F3600 X9.727 Y24.054
G1 F1800 X10 Y24 E0.01388
G1 X90 Y24 E3.99122
G1 X90.338 Y24.07 E0.01722
G1 X90.601 Y24.207 E0.01479
G1 X90.74 Y24.345 E0.00977
G1 X90.946 Y24.727 E0.02165
G1 X91 Y25 E0.01388
G1 X91 Y75 E2.49451
G1 X90.93 Y75.338 E0.01722
G1 X90.793 Y75.601 E0.01479
G1 X90.655 Y75.74 E0.00977
G1 X90.273 Y75.946 E0.02165
G1 X90 Y76 E0.01388
G1 X10 Y76 E3.99122
G1 X9.662 Y75.93 E0.01722
G1 X9.399 Y75.793 E0.01479
G1 X9.26 Y75.655 E0.00977
G1 X9.054 Y75.273 E0.02165
G1 X9 Y75 E0.01388
G1 X9 Y25 E2.49451
G1 X9.07 Y24.662 E0.01722
G1 X9.207 Y24.399 E0.01479
G1 X9.345 Y24.26 E0.00977
G1 X9.727 Y24.054 E0.02165
G0 F3600 X10 Y24.8
G1 F1800 X90 Y24.8 E3.99122
G1 X90.119 Y24.839 E0.00625
G1 X90.2 Y25 E0.00899
G1 X90.2 Y75 E2.49451
G1 X90.161 Y75.119 E0.00625
G1 X90 Y75.2 E0.00899
G1 X10 Y75.2 E3.99122
G1 X9.881 Y75.161 E0.00625
G1 X9.8 Y75 E0.00899
G1 X9.8 Y25 E2.49451
G1 X9.839 Y24.881 E0.00625
G1 X10 Y24.8 E0.00899
G0 F3600 X9.82 Y24.443
G1 F1800 X10 Y24.4 E0.00923
G1 X90 Y24.4 E3.99122
G1 X90.244 Y24.459 E0.01252
G1 X90.396 Y24.55 E0.00884
G1 X90.557 Y24.82 E0.01568
G1 X90.6 Y25 E0.00923
G1 X90.6 Y75 E2.49451
G1 X90.541 Y75.244 E0.01252
G1 X90.45 Y75.396 E0.00884
G1 X90.18 Y75.557 E0.01568
G1 X90 Y75.6 E0.00923
G1 X10 Y75.6 E3.99122
G1 X9.756 Y75.541 E0.01252
G1 X9.604 Y75.45 E0.00884
G1 X9.443 Y75.18 E0.01568
G1 X9.4 Y75 E0.00923
G1 X9.4 Y25 E2.49451
G1 X9.459 Y24.756 E0.01252
G1 X9.55 Y24.604 E0.00884
G1 X9.82 Y24.443 E0.01568
G1 F1500 E-6.5
;MESH:timinoo_backplate01.stl
G0 F3600 X10.414 Y25.414
G0 X24.572 Y70.428
G0 X75.36 Y70.9
G0 X75.36 Y70.481
;TYPE:WALL-INNER
G1 F1500 E6.5
G1 F1800 X75.195 Y70.568 E0.00931
G1 X75 Y70.6 E0.00986
G1 X25 Y70.6 E2.49451
G1 X24.805 Y70.568 E0.00986
G1 X24.64 Y70.48 E0.00933
G1 X24.52 Y70.36 E0.00847
G1 X24.4 Y70.079 E0.01524
G1 X24.4 Y29.921 E2.00349
G1 X24.52 Y29.64 E0.01524
G1 X24.64 Y29.519 E0.0085
G1 X24.805 Y29.432 E0.00931
G1 X25 Y29.4 E0.00986
G1 X75 Y29.4 E2.49451
G1 X75.195 Y29.432 E0.00986
G1 X75.36 Y29.52 E0.00933
G1 X75.48 Y29.64 E0.00847
G1 X75.6 Y29.921 E0.01524
G1 X75.6 Y70.079 E2.00349
G1 X75.48 Y70.36 E0.01524
G1 X75.36 Y70.481 E0.0085
G0 F3600 X75.36 Y70.9
G0 X89.13 Y74.13
G0 X89.4 Y74.4
G1 F1800 X89.4 Y25.6 E2.43464
G1 X10.6 Y25.6 E3.93135
G1 X10.6 Y74.4 E2.43464
G1 X89.4 Y74.4 E3.93135
G0 F3600 X89.8 Y74.8
;TYPE:WALL-OUTER
G1 F1800 X89.8 Y25.2 E2.47455
G1 X10.2 Y25.2 E3.97126
G1 X10.2 Y74.8 E2.47455
G1 X89.8 Y74.8 E3.97126
G0 F3600 X89.8 Y74.6
G0 X89.13 Y74.13
G0 X75.051 Y70.9
G0 X75.051 Y70.2
G1 F1800 X24.949 Y70.2 E2.4996
G1 X24.84 Y70.12 E0.00675
G1 X24.803 Y70.037 E0.00453
G1 X24.803 Y29.963 E1.9993
G1 X24.84 Y29.88 E0.00453
G1 X24.949 Y29.8 E0.00675
G1 X75.051 Y29.8 E2.4996
G1 X75.16 Y29.88 E0.00675
