;FLAVOR:RepRap
;TIME:17769
;Filament used: 19.2637m
;Layer height: 0.15
;MINX:14.2
;MINY:0
;MINZ:0.3
;MAXX:85.8
;MAXY:100
;MAXZ:40.05
;TARGET_MACHINE.NAME:Unknown
;Generated with Cura_SteamEngine 5.7.2
T0
M104 S200
M109 S200
M82 ;absolute extrusion mode
G28 ;Home
G1 Z15.0 F6000 ;Move the platform down 15mm
G92 E0
M83 ;relative extrusion mode
G1 F1500 E-6.5
;LAYER_COUNT:266
;LAYER:0
M107
G0 F3600 X18.666 Y0.00 Z0.3
;TYPE:SKIRT
G1 F1500 E6.5
G1 F1800 X17.743 Y0.46 E0.05145
G1 X16.39 Y1.552 E0.08674
G1 X15.617 Y2.55 E0.06298
G1 X14.622 Y4.321 E0.10135
G1 X14.2 Y6.378 E0.10476
G1 X14.252 Y93.754 E4.35921
G1 X14.474 Y95.278 E0.07684
G1 X15.46 Y97.257 E0.11031
G1 X16.552 Y98.61 E0.08674
G1 X17.55 Y99.383 E0.06298
G1 X18.649 Y100 E0.06288
G0 F3600 X19.472 Y100
G1 F1800 X17.795 Y99.067 E0.09574
G1 X16.833 Y98.322 E0.0607
G1 X15.799 Y97.04 E0.08217
G1 X14.861 Y95.158 E0.10491
G1 X14.648 Y93.696 E0.07371
G1 X14.6 Y6.419 E4.35427
G1 X15.002 Y4.462 E0.09967
G1 X15.933 Y2.795 E0.09526
G1 X16.678 Y1.833 E0.0607
G1 X17.96 Y0.799 E0.08217
G1 X19.563 Y0.00 E0.08936
G1 F1500 E-6.5
G0 F3600 X81.351 Y0.00
G1 F1500 E6.5
G1 F1800 X82.45 Y0.617 E0.06288
G1 X83.448 Y1.39 E0.06298
G1 X84.54 Y2.743 E0.08674
G1 X85.526 Y4.722 E0.11031
G1 X85.748 Y6.246 E0.07684
G1 X85.8 Y93.622 E4.35921
G1 X85.378 Y95.679 E0.10476
G1 X84.383 Y97.45 E0.10135
G1 X83.61 Y98.448 E0.06298
G1 X82.257 Y99.54 E0.08674
G1 X81.334 Y100 E0.05145
G0 F3600 X80.437 Y100
G1 F1800 X82.04 Y99.201 E0.08936
G1 X83.322 Y98.167 E0.08217
G1 X84.067 Y97.205 E0.0607
G1 X84.998 Y95.538 E0.09526
G1 X85.4 Y93.581 E0.09967
G1 X85.352 Y6.304 E4.35427
G1 X85.139 Y4.842 E0.07371
G1 X84.201 Y2.96 E0.10491
G1 X83.167 Y1.678 E0.08217
G1 X82.205 Y0.933 E0.0607
G1 X80.528 Y0.00 E0.09574
G0 F3600 X80.397 Y0.382
G1 F1800 X81.96 Y1.249 E0.08917
G1 X82.886 Y1.966 E0.05843
G1 X83.862 Y3.177 E0.0776
G1 X84.752 Y4.962 E0.09951
G1 X84.956 Y6.362 E0.07058
G1 X85 Y93.539 E4.34928
G1 X84.618 Y95.397 E0.09463
G1 X83.751 Y96.96 E0.08917
G1 X83.034 Y97.886 E0.05843
G1 X81.823 Y98.862 E0.0776
G1 X80.038 Y99.752 E0.09951
G1 X78.638 Y99.956 E0.07058
G1 X21.461 Y100 E2.85257
G1 X19.603 Y99.618 E0.09463
G1 X18.04 Y98.751 E0.08917
G1 X17.114 Y98.034 E0.05843
G1 X16.138 Y96.823 E0.0776
G1 X15.248 Y95.038 E0.09951
G1 X15.044 Y93.638 E0.07058
G1 X15 Y6.461 E4.34928
G1 X15.382 Y4.603 E0.09463
G1 X16.249 Y3.04 E0.08917
G1 X16.966 Y2.114 E0.05843
G1 X18.177 Y1.138 E0.0776
G1 X19.962 Y0.248 E0.09951
G1 X21.362 Y0.044 E0.07058
G1 X78.539 Y0.00 E2.85257
G1 X80.397 Y0.382 E0.09463
G0 F3600 X80.257 Y0.762
G1 F1800 X81.766 Y1.599 E0.08609
G1 X82.602 Y2.251 E0.05289
G1 X83.525 Y3.397 E0.07341
G1 X84.365 Y5.082 E0.09393
G1 X84.56 Y6.42 E0.06746
G1 X84.6 Y93.497 E4.34429
G1 X84.238 Y95.257 E0.08964
G1 X83.401 Y96.766 E0.08609
G1 X82.749 Y97.602 E0.05289
G1 X81.603 Y98.525 E0.07341
G1 X79.918 Y99.365 E0.09393
G1 X78.58 Y99.56 E0.06746
G1 X21.503 Y99.6 E2.84758
G1 X19.743 Y99.238 E0.08964
G1 X18.234 Y98.401 E0.08609
G1 X17.398 Y97.749 E0.05289
G1 X16.475 Y96.603 E0.07341
G1 X15.635 Y94.918 E0.09393
G1 X15.44 Y93.58 E0.06746
G1 X15.4 Y6.503 E4.34429
G1 X15.762 Y4.743 E0.08964
G1 X16.599 Y3.234 E0.08609
G1 X17.251 Y2.398 E0.05289
G1 X18.397 Y1.475 E0.07341
G1 X20.082 Y0.635 E0.09393
G1 X21.42 Y0.44 E0.06746
G1 X78.497 Y0.4 E2.84758
G1 X80.257 Y0.762 E0.08964
G0 F3600 X80.117 Y1.142
G1 F1800 X81.572 Y1.949 E0.08301
G1 X82.317 Y2.535 E0.04729
G1 X83.188 Y3.617 E0.0693
G1 X83.978 Y5.202 E0.08835
G1 X84.164 Y6.478 E0.06433
G1 X84.2 Y93.455 E4.3393
G1 X83.858 Y95.117 E0.08465
G1 X83.051 Y96.572 E0.08301
G1 X82.465 Y97.317 E0.04729
G1 X81.383 Y98.188 E0.0693
G1 X79.798 Y98.978 E0.08835
G1 X78.522 Y99.164 E0.06433
G1 X21.545 Y99.2 E2.84259
G1 X19.883 Y98.858 E0.08465
G1 X18.428 Y98.051 E0.08301
G1 X17.683 Y97.465 E0.04729
G1 X16.812 Y96.383 E0.0693
G1 X16.022 Y94.798 E0.08835
G1 X15.836 Y93.522 E0.06433
G1 X15.8 Y6.545 E4.3393
G1 X16.142 Y4.883 E0.08465
G1 X16.949 Y3.428 E0.08301
G1 X17.535 Y2.683 E0.04729
G1 X18.617 Y1.812 E0.0693
G1 X20.202 Y1.022 E0.08835
G1 X21.478 Y0.836 E0.06433
G1 X78.455 Y0.8 E2.84259
G1 X80.117 Y1.142 E0.08465
G0 F3600 X79.977 Y1.522
G1 F1800 X81.378 Y2.299 E0.07993
G1 X82.032 Y2.82 E0.04172
G1 X82.849 Y3.835 E0.06501
G1 X83.591 Y5.323 E0.08295
G1 X83.768 Y6.536 E0.06116
G1 X83.8 Y93.413 E4.33431
G1 X83.478 Y94.977 E0.07966
G1 X82.701 Y96.378 E0.07993
G1 X82.18 Y97.032 E0.04172
G1 X81.165 Y97.849 E0.06501
G1 X79.677 Y98.591 E0.08295
G1 X78.464 Y98.768 E0.06116
G1 X21.587 Y98.8 E2.83761
G1 X20.023 Y98.478 E0.07966
G1 X18.622 Y97.701 E0.07993
G1 X17.968 Y97.18 E0.04172
G1 X17.151 Y96.165 E0.06501
G1 X16.409 Y94.677 E0.08295
G1 X16.232 Y93.464 E0.06116
G1 X16.2 Y6.587 E4.33431
G1 X16.522 Y5.023 E0.07966
G1 X17.299 Y3.622 E0.07993
G1 X17.82 Y2.968 E0.04172
G1 X18.835 Y2.151 E0.06501
G1 X20.323 Y1.409 E0.08295
G1 X21.536 Y1.232 E0.06116
G1 X78.413 Y1.2 E2.83761
G1 X79.977 Y1.522 E0.07966
G0 F3600 X79.838 Y1.902
G1 F1800 X81.129 Y2.612 E0.07351
G1 X81.746 Y3.104 E0.03937
G1 X82.512 Y4.055 E0.06092
G1 X83.204 Y5.443 E0.07738
G1 X83.372 Y6.594 E0.05803
G1 X83.4 Y93.371 E4.32932
G1 X83.098 Y94.838 E0.07472
G1 X82.388 Y96.129 E0.07351
G1 X81.896 Y96.746 E0.03937
G1 X80.945 Y97.512 E0.06092
G1 X79.557 Y98.204 E0.07738
G1 X78.406 Y98.372 E0.05803
G1 X21.629 Y98.4 E2.83262
G1 X20.162 Y98.098 E0.07472
G1 X18.871 Y97.388 E0.07351
G1 X18.254 Y96.896 E0.03937
G1 X17.488 Y95.945 E0.06092
G1 X16.796 Y94.557 E0.07738
G1 X16.628 Y93.406 E0.05803
G1 X16.6 Y6.629 E4.32932
G1 X16.902 Y5.162 E0.07472
G1 X17.612 Y3.871 E0.07351
G1 X18.104 Y3.254 E0.03937
G1 X19.055 Y2.488 E0.06092
G1 X20.443 Y1.796 E0.07738
G1 X21.594 Y1.628 E0.05803
G1 X78.371 Y1.6 E2.83262
G1 X79.838 Y1.902 E0.07472
G0 F3600 X79.7 Y2.282
G1 F1800 X80.88 Y2.925 E0.06704
G1 X81.463 Y3.39 E0.0372
G1 X82.173 Y4.271 E0.05645
G1 X82.817 Y5.563 E0.07202
G1 X82.976 Y6.652 E0.05491
G1 X83 Y93.329 E4.32433
G1 X82.718 Y94.7 E0.06983
G1 X82.075 Y95.88 E0.06704
G1 X81.61 Y96.463 E0.0372
G1 X80.729 Y97.173 E0.05645
G1 X79.437 Y97.817 E0.07202
G1 X78.348 Y97.976 E0.05491
G1 X21.671 Y98 E2.82763
G1 X20.3 Y97.718 E0.06983
G1 X19.12 Y97.075 E0.06704
G1 X18.537 Y96.61 E0.0372
G1 X17.827 Y95.729 E0.05645
G1 X17.183 Y94.437 E0.07202
G1 X17.024 Y93.348 E0.05491
G1 X17 Y6.671 E4.32433
G1 X17.282 Y5.3 E0.06983
G1 X17.925 Y4.12 E0.06704
G1 X18.39 Y3.537 E0.0372
G1 X19.271 Y2.827 E0.05645
G1 X20.563 Y2.183 E0.07202
G1 X21.652 Y2.024 E0.05491
G1 X78.329 Y2 E2.82763
G1 X79.7 Y2.282 E0.06983
G0 F3600 X79.562 Y2.662
G1 F1800 X80.631 Y3.238 E0.06058
G1 X81.178 Y3.674 E0.0349
G1 X81.836 Y4.491 E0.05234
G1 X82.43 Y5.683 E0.06644
G1 X82.58 Y6.71 E0.05178
G1 X82.6 Y93.287 E4.31934
G1 X82.338 Y94.562 E0.06494
G1 X81.762 Y95.631 E0.06058
G1 X81.326 Y96.178 E0.0349
G1 X80.509 Y96.836 E0.05234
G1 X79.317 Y97.43 E0.06644
G1 X78.29 Y97.58 E0.05178
G1 X21.713 Y97.6 E2.82264
G1 X20.438 Y97.338 E0.06494
G1 X19.369 Y96.762 E0.06058
G1 X18.822 Y96.326 E0.0349
G1 X18.164 Y95.509 E0.05234
G1 X17.57 Y94.317 E0.06644
G1 X17.42 Y93.29 E0.05178
G1 X17.4 Y6.713 E4.31934
G1 X17.662 Y5.438 E0.06494
G1 X18.238 Y4.369 E0.06058
G1 X18.674 Y3.822 E0.0349
G1 X19.491 Y3.164 E0.05234
G1 X20.683 Y2.57 E0.06644
G1 X21.71 Y2.42 E0.05178
G1 X78.287 Y2.4 E2.82264
G1 X79.562 Y2.662 E0.06494
G0 F3600 X79.424 Y3.042
G1 F1800 X80.441 Y3.59 E0.05764
G1 X80.891 Y3.956 E0.02894
G1 X81.499 Y4.711 E0.04836
G1 X82.043 Y5.803 E0.06087
G1 X82.184 Y6.768 E0.04866
G1 X82.2 Y93.246 E4.31441
G1 X81.958 Y94.424 E0.06
G1 X81.41 Y95.441 E0.05764
G1 X81.044 Y95.891 E0.02894
G1 X80.289 Y96.499 E0.04836
G1 X79.197 Y97.043 E0.06087
G1 X78.232 Y97.184 E0.04866
G1 X21.754 Y97.2 E2.8177
G1 X20.576 Y96.958 E0.06
G1 X19.559 Y96.41 E0.05764
G1 X19.109 Y96.044 E0.02894
G1 X18.501 Y95.289 E0.04836
G1 X17.957 Y94.197 E0.06087
G1 X17.816 Y93.232 E0.04866
G1 X17.8 Y6.754 E4.31441
G1 X18.042 Y5.576 E0.06
G1 X18.59 Y4.559 E0.05764
G1 X18.956 Y4.109 E0.02894
G1 X19.711 Y3.501 E0.04836
G1 X20.803 Y2.957 E0.06087
G1 X21.768 Y2.816 E0.04866
G1 X78.246 Y2.8 E2.8177
G1 X79.424 Y3.042 E0.06
G0 F3600 X79.286 Y3.422
G1 F1800 X80.194 Y3.905 E0.05131
G1 X80.579 Y4.207 E0.02441
G1 X81.162 Y4.931 E0.04638
G1 X81.656 Y5.923 E0.05529
G1 X81.788 Y6.826 E0.04553
G1 X81.8 Y93.205 E4.30947
G1 X81.578 Y94.286 E0.05506
G1 X81.095 Y95.194 E0.05131
G1 X80.793 Y95.579 E0.02441
G1 X80.069 Y96.162 E0.04638
G1 X79.077 Y96.656 E0.05529
G1 X78.174 Y96.788 E0.04553
G1 X21.795 Y96.8 E2.81276
G1 X20.714 Y96.578 E0.05506
G1 X19.806 Y96.095 E0.05131
G1 X19.421 Y95.793 E0.02441
G1 X18.838 Y95.069 E0.04638
G1 X18.344 Y94.077 E0.05529
G1 X18.212 Y93.174 E0.04553
G1 X18.2 Y6.795 E4.30947
G1 X18.422 Y5.714 E0.05506
G1 X18.905 Y4.806 E0.05131
G1 X19.207 Y4.421 E0.02441
G1 X19.931 Y3.838 E0.04638
G1 X20.923 Y3.344 E0.05529
G1 X21.826 Y3.212 E0.04553
G1 X78.205 Y3.2 E2.81276
G1 X79.286 Y3.422 E0.05506
G0 F3600 X79.15 Y3.802
G1 F1800 X79.955 Y4.226 E0.04539
G1 X80.267 Y4.458 E0.0194
G1 X80.825 Y5.151 E0.04439
G1 X81.269 Y6.043 E0.04971
G1 X81.392 Y6.884 E0.0424
G1 X81.4 Y93.164 E4.30453
G1 X81.198 Y94.15 E0.05021
G1 X80.774 Y94.955 E0.04539
G1 X80.542 Y95.267 E0.0194
G1 X79.849 Y95.825 E0.04439
G1 X78.957 Y96.269 E0.04971
G1 X78.116 Y96.392 E0.0424
G1 X21.836 Y96.4 E2.80782
G1 X20.85 Y96.198 E0.05021
G1 X20.045 Y95.774 E0.04539
G1 X19.733 Y95.542 E0.0194
G1 X19.175 Y94.849 E0.04439
G1 X18.731 Y93.957 E0.04971
G1 X18.608 Y93.116 E0.0424
G1 X18.6 Y6.836 E4.30453
G1 X18.802 Y5.85 E0.05021
G1 X19.226 Y5.045 E0.04539
G1 X19.458 Y4.733 E0.0194
G1 X20.151 Y4.175 E0.04439
G1 X21.043 Y3.731 E0.04971
G1 X21.884 Y3.608 E0.0424
G1 X78.164 Y3.6 E2.80782
G1 X79.15 Y3.802 E0.05021
G0 F3600 X79.013 Y4.182
G1 F1800 X79.768 Y4.58 E0.04258
G1 X79.988 Y4.749 E0.01384
G1 X80.486 Y5.367 E0.0396
G1 X80.882 Y6.163 E0.04436
G1 X80.996 Y6.942 E0.03928
G1 X81 Y93.123 E4.29959
G1 X80.818 Y94.013 E0.04532
G1 X80.42 Y94.768 E0.04258
G1 X80.251 Y94.988 E0.01384
G1 X79.633 Y95.486 E0.0396
G1 X78.837 Y95.882 E0.04436
G1 X78.058 Y95.996 E0.03928
G1 X21.877 Y96 E2.80288
G1 X20.987 Y95.818 E0.04532
G1 X20.232 Y95.42 E0.04258
G1 X20.012 Y95.251 E0.01384
G1 X19.514 Y94.633 E0.0396
G1 X19.118 Y93.837 E0.04436
G1 X19.004 Y93.058 E0.03928
G1 X19 Y6.877 E4.29959
G1 X19.182 Y5.987 E0.04532
G1 X19.58 Y5.232 E0.04258
G1 X19.749 Y5.012 E0.01384
G1 X20.367 Y4.514 E0.0396
G1 X21.163 Y4.118 E0.04436
G1 X21.942 Y4.004 E0.03928
G1 X78.123 Y4 E2.80288
G1 X79.013 Y4.182 E0.04532
G0 F3600 X78.878 Y4.563
G1 F1800 X79.582 Y4.934 E0.0397
G1 X79.707 Y5.037 E0.00808
G1 X80.147 Y5.583 E0.03498
G1 X80.495 Y6.283 E0.039
G1 X80.6 Y7 E0.03615
G1 X80.6 Y93.082 E4.29465
G1 X80.437 Y93.878 E0.04054
G1 X80.066 Y94.582 E0.0397
G1 X79.963 Y94.707 E0.00808
G1 X79.417 Y95.147 E0.03498
G1 X78.717 Y95.495 E0.039
G1 X78 Y95.6 E0.03615
G1 X21.918 Y95.6 E2.79794
G1 X21.122 Y95.437 E0.04054
G1 X20.418 Y95.066 E0.0397
G1 X20.293 Y94.963 E0.00808
G1 X19.853 Y94.417 E0.03498
G1 X19.505 Y93.717 E0.039
G1 X19.4 Y93 E0.03615
G1 X19.4 Y6.918 E4.29465
G1 X19.563 Y6.122 E0.04054
G1 X19.934 Y5.418 E0.0397
G1 X20.037 Y5.293 E0.00808
G1 X20.583 Y4.853 E0.03498
G1 X21.283 Y4.505 E0.039
G1 X22 Y4.4 E0.03615
G1 X78.082 Y4.4 E2.79794
G1 X78.878 Y4.563 E0.04054
G0 F3600 X78.743 Y4.944
G1 F1800 X79.396 Y5.288 E0.03682
G1 X79.808 Y5.799 E0.03275
G1 X80.109 Y6.405 E0.03376
G1 X80.2 Y7 E0.03003
G1 X80.2 Y93.041 E4.2926
G1 X80.056 Y93.743 E0.03575
G1 X79.712 Y94.396 E0.03682
G1 X79.201 Y94.808 E0.03275
G1 X78.595 Y95.109 E0.03376
G1 X78 Y95.2 E0.03003
G1 X21.959 Y95.2 E2.7959
G1 X21.257 Y95.056 E0.03575
G1 X20.604 Y94.712 E0.03682
G1 X20.192 Y94.201 E0.03275
G1 X19.891 Y93.595 E0.03376
G1 X19.8 Y93 E0.03003
G1 X19.8 Y6.959 E4.2926
G1 X19.944 Y6.257 E0.03575
G1 X20.288 Y5.604 E0.03682
G1 X20.799 Y5.192 E0.03275
G1 X21.405 Y4.891 E0.03376
G1 X22 Y4.8 E0.03003
G1 X78.041 Y4.8 E2.7959
G1 X78.743 Y4.944 E0.03575
G0 F3600 X78.606 Y5.324
G1 F1800 X79.138 Y5.605 E0.03002
G1 X79.45 Y5.977 E0.02422
G1 X79.723 Y6.526 E0.03059
G1 X79.8 Y7 E0.02396
G1 X79.8 Y93 E4.29056
G1 X79.676 Y93.606 E0.03086
G1 X79.395 Y94.138 E0.03002
G1 X79.023 Y94.45 E0.02422
G1 X78.474 Y94.723 E0.03059
G1 X78 Y94.8 E0.02396
G1 X22 Y94.8 E2.79385
G1 X21.394 Y94.676 E0.03086
G1 X20.862 Y94.395 E0.03002
G1 X20.55 Y94.023 E0.02422
G1 X20.277 Y93.474 E0.03059
G1 X20.2 Y93 E0.02396
G1 X20.2 Y7 E4.29056
G1 X20.324 Y6.394 E0.03086
G1 X20.605 Y5.862 E0.03002
G1 X20.977 Y5.55 E0.02422
G1 X21.526 Y5.277 E0.03059
G1 X22 Y5.2 E0.02396
G1 X78 Y5.2 E2.79385
G1 X78.606 Y5.324 E0.03086
G0 F3600 X78.419 Y5.678
G1 F1800 X78.883 Y5.923 E0.02618
G1 X79.092 Y6.155 E0.01558
G1 X79.338 Y6.649 E0.02753
G1 X79.4 Y7 E0.01778
G1 X79.4 Y93 E4.29056
G1 X79.322 Y93.419 E0.02126
G1 X79.077 Y93.883 E0.02618
G1 X78.845 Y94.092 E0.01558
G1 X78.351 Y94.338 E0.02753
G1 X78 Y94.4 E0.01778
G1 X22 Y94.4 E2.79385
G1 X21.581 Y94.322 E0.02126
G1 X21.117 Y94.077 E0.02618
G1 X20.908 Y93.845 E0.01558
G1 X20.662 Y93.351 E0.02753
G1 X20.6 Y93 E0.01778
G1 X20.6 Y7 E4.29056
G1 X20.678 Y6.581 E0.02126
G1 X20.923 Y6.117 E0.02618
G1 X21.155 Y5.908 E0.01558
G1 X21.649 Y5.662 E0.02753
G1 X22 Y5.6 E0.01778
G1 X78 Y5.6 E2.79385
G1 X78.419 Y5.678 E0.02126
G0 F3600 X78.338 Y6.07
G1 F1800 X78.601 Y6.207 E0.01479
G1 X78.74 Y6.345 E0.00977
G1 X78.946 Y6.727 E0.02165
G1 X79 Y7 E0.01388
G1 X79 Y93 E4.29056
G1 X78.93 Y93.338 E0.01722
G1 X78.793 Y93.601 E0.01479
G1 X78.655 Y93.74 E0.00977
G1 X78.273 Y93.946 E0.02165
G1 X78 Y94 E0.01388
G1 X22 Y94 E2.79385
G1 X21.662 Y93.93 E0.01722
G1 X21.399 Y93.793 E0.01479
G1 X21.26 Y93.655 E0.00977
G1 X21.054 Y93.273 E0.02165
G1 X21 Y93 E0.01388
G1 X21 Y7 E4.29056
G1 X21.07 Y6.662 E0.01722
G1 X21.207 Y6.399 E0.01479
G1 X21.345 Y6.26 E0.00977
G1 X21.727 Y6.054 E0.02165
G1 X22 Y6 E0.01388
G1 X78 Y6 E2.79385
G1 X78.338 Y6.07 E0.01722
G0 F3600 X78.119 Y6.839
G1 F1800 X78.2 Y7 E0.00899
G1 X78.2 Y93 E4.29056
G1 X78.161 Y93.119 E0.00625
G1 X78 Y93.2 E0.00899
G1 X22 Y93.2 E2.79385
G1 X21.881 Y93.161 E0.00625
G1 X21.8 Y93 E0.00899
G1 X21.8 Y7 E4.29056
G1 X21.839 Y6.881 E0.00625
G1 X22 Y6.8 E0.00899
G1 X78 Y6.8 E2.79385
G1 X78.119 Y6.839 E0.00625
G0 F3600 X78.244 Y6.459
G1 F1800 X78.396 Y6.55 E0.00884
G1 X78.557 Y6.82 E0.01568
G1 X78.6 Y7 E0.00923
G1 X78.6 Y93 E4.29056
G1 X78.541 Y93.244 E0.01252
G1 X78.45 Y93.396 E0.00884
G1 X78.18 Y93.557 E0.01568
G1 X78 Y93.6 E0.00923
G1 X22 Y93.6 E2.79385
G1 X21.756 Y93.541 E0.01252
G1 X21.604 Y93.45 E0.00884
G1 X21.443 Y93.18 E0.01568
G1 X21.4 Y93 E0.00923
G1 X21.4 Y7 E4.29056
G1 X21.459 Y6.756 E0.01252
G1 X21.55 Y6.604 E0.00884
G1 X21.82 Y6.443 E0.01568
G1 X22 Y6.4 E0.00923
G1 X78 Y6.4 E2.79385
G1 X78.244 Y6.459 E0.01252
G1 F1500 E-6.5
G0 F3600 X23.9 Y8.9
G1 F1500 E6.5
G1 F1800 X76.1 Y8.9 E2.60427
G1 X76.1 Y91.1 E4.10097
G1 X23.9 Y91.1 E2.60427
G1 X23.9 Y8.9 E4.10097
G0 F3600 X24.3 Y9.3
G1 F1800 X75.7 Y9.3 E2.56436
G1 X75.7 Y90.7 E4.06106
G1 X24.3 Y90.7 E2.56436
G1 X24.3 Y9.3 E4.06106
G0 F3600 X24.7 Y9.7
G1 F1800 X75.3 Y9.7 E2.52444
G1 X75.3 Y90.3 E4.02115
G1 X24.7 Y90.3 E2.52444
G1 X24.7 Y9.7 E4.02115
G1 F1500 E-6.5
G0 F3600 X44.281 Y25.422
G1 F1500 E6.5
G1 F1800 X43.764 Y26.112 E0.04302
G1 X43.678 Y26.248 E0.00803
G1 X43.278 Y27.012 E0.04302
G1 X43.229 Y27.122 E0.00601
G1 X42.987 Y27.761 E0.03409
G1 X42.96 Y27.842 E0.00426
G1 X42.771 Y28.507 E0.03449
G1 X42.744 Y28.632 E0.00638
G1 X42.638 Y29.341 E0.03577
G1 X42.631 Y29.401 E0.00301
G1 X42.555 Y30.261 E0.04307
G1 X42.551 Y30.323 E0.0031
G1 X42.506 Y32.036 E0.08549
G1 X42.506 Y32.072 E0.0018
G1 X42.606 Y41.815 E0.48611
G1 X42.612 Y41.918 E0.00515
G1 X42.725 Y42.915 E0.05006
G1 X42.762 Y43.091 E0.00897
G1 X43.014 Y43.926 E0.04351
G1 X43.077 Y44.085 E0.00853
G1 X43.457 Y44.844 E0.04235
G1 X43.526 Y44.961 E0.00678
G1 X43.815 Y45.383 E0.02552
G1 X43.859 Y45.443 E0.00371
G1 X44.26 Y45.944 E0.03202
G1 X44.355 Y46.046 E0.00695
G1 X45.035 Y46.688 E0.04666
G1 X45.22 Y46.826 E0.01151
G1 X45.966 Y47.258 E0.04301
G1 X46.032 Y47.294 E0.00375
G1 X46.614 Y47.575 E0.03224
G1 X46.732 Y47.623 E0.00636
G1 X47.547 Y47.895 E0.04287
G1 X47.743 Y47.939 E0.01002
G1 X48.967 Y48.088 E0.06152
G1 X49.063 Y48.095 E0.0048
G1 X50.281 Y48.125 E0.06078
G1 X50.326 Y48.125 E0.00225
