;FLAVOR:RepRap
;TIME:8381
;Filament used: 6.2487m
;Layer height: 0.15
;MINX:18.453
;MINY:18.225
;MINZ:0.3
;MAXX:81.748
;MAXY:82.046
;MAXZ:80.1
;TARGET_MACHINE.NAME:Unknown
;Generated with Cura_SteamEngine 5.9.0
T0
M104 S200
M109 S200
M82 ;absolute extrusion mode
G28 ;Home
G1 Z15.0 F6000 ;Move the platform down 15mm
G92 E0
M83 ;relative extrusion mode
G1 F1500 E-6.5
;LAYER_COUNT:533
;LAYER:0
M107
G0 F3600 X26.47 Y72.693 Z0.3
;TYPE:SKIRT
G1 F1500 E6.5
G1 F1800 X24.183 Y72.048 E0.11855
G1 X22.101 Y70.753 E0.12233
G1 X20.878 Y69.234 E0.09729
G1 X19.291 Y66.703 E0.14904
G1 X18.59 Y64.726 E0.10465
G1 X18.453 Y62.31 E0.12073
G1 X19.098 Y60.023 E0.11855
G1 X20.375 Y57.967 E0.12075
G1 X21.569 Y56.968 E0.07767
G1 X56.465 Y35.393 E2.04684
G1 X53.513 Y30.606 E0.28058
G1 X52.823 Y28.655 E0.10324
G1 X52.686 Y26.242 E0.12058
G1 X53.331 Y23.955 E0.11855
G1 X54.626 Y21.873 E0.12233
G1 X56.145 Y20.65 E0.09729
G1 X58.676 Y19.063 E0.14904
G1 X60.653 Y18.362 E0.10465
G1 X63.069 Y18.225 E0.12073
G1 X65.356 Y18.87 E0.11855
G1 X67.412 Y20.147 E0.12075
G1 X68.411 Y21.341 E0.07767
G1 X77.035 Y35.321 E0.8195
G1 X77.106 Y35.482 E0.00878
G1 X80.093 Y40.375 E0.286
G1 X80.866 Y41.736 E0.07809
G1 X81.455 Y43.137 E0.07582
G1 X81.748 Y45.33 E0.11038
G1 X81.645 Y46.263 E0.04683
G1 X81.283 Y47.68 E0.07296
G1 X81.131 Y48.048 E0.01986
G1 X81.131 Y74.868 E1.33806
G1 X80.709 Y76.925 E0.10476
G1 X79.714 Y78.696 E0.10135
G1 X78.94 Y79.697 E0.06313
G1 X77.586 Y80.784 E0.08663
G1 X75.588 Y81.779 E0.11136
G1 X73.777 Y82.019 E0.09114
G1 X70.654 Y82.046 E0.15581
G1 X68.618 Y81.605 E0.10393
G1 X66.881 Y80.629 E0.0994
G1 X65.883 Y79.856 E0.06298
G1 X64.791 Y78.503 E0.08674
G1 X63.805 Y76.524 E0.11031
G1 X63.583 Y75 E0.07684
G1 X63.539 Y57.996 E0.84834
G1 X62.244 Y57.631 E0.06713
G1 X60.159 Y56.333 E0.12253
G1 X58.788 Y54.62 E0.10946
G1 X30.83 Y71.867 E1.63888
G1 X28.883 Y72.556 E0.10304
G1 X26.47 Y72.693 E0.12058
G0 F3600 X26.516 Y72.29
G1 F1800 X24.346 Y71.678 E0.11248
G1 X22.369 Y70.448 E0.11616
G1 X21.217 Y69.021 E0.0915
G1 X19.653 Y66.527 E0.14687
G1 X18.986 Y64.645 E0.09962
G1 X18.856 Y62.356 E0.11438
G1 X19.468 Y60.186 E0.11248
G1 X20.681 Y58.233 E0.1147
G1 X21.826 Y57.275 E0.07448
G1 X57.015 Y35.523 E2.06392
G1 X53.876 Y30.433 E0.29835
G1 X53.219 Y28.575 E0.09832
G1 X53.089 Y26.288 E0.11428
G1 X53.701 Y24.118 E0.11248
G1 X54.931 Y22.141 E0.11616
G1 X56.358 Y20.989 E0.0915
G1 X58.852 Y19.425 E0.14687
G1 X60.734 Y18.758 E0.09962
G1 X63.023 Y18.628 E0.11438
G1 X65.193 Y19.24 E0.11248
G1 X67.146 Y20.453 E0.1147
G1 X68.104 Y21.598 E0.07448
G1 X76.669 Y35.483 E0.81392
G1 X76.748 Y35.662 E0.00976
G1 X79.745 Y40.573 E0.28703
G1 X80.518 Y41.934 E0.07809
G1 X81.066 Y43.244 E0.07084
G1 X81.345 Y45.332 E0.1051
G1 X81.257 Y46.164 E0.04174
G1 X80.895 Y47.581 E0.07296
G1 X80.731 Y47.966 E0.02088
G1 X80.731 Y74.827 E1.3401
G1 X80.329 Y76.784 E0.09967
G1 X79.398 Y78.451 E0.09526
G1 X78.654 Y79.413 E0.06067
G1 X77.367 Y80.447 E0.08236
G1 X75.471 Y81.391 E0.10567
G1 X73.725 Y81.622 E0.08787
G1 X70.696 Y81.646 E0.15112
G1 X68.76 Y81.226 E0.09883
G1 X67.126 Y80.313 E0.09338
G1 X66.164 Y79.568 E0.0607
G1 X65.13 Y78.286 E0.08217
G1 X64.192 Y76.404 E0.10491
G1 X63.979 Y74.942 E0.07371
G1 X63.938 Y57.693 E0.86056
G1 X62.408 Y57.262 E0.0793
G1 X60.428 Y56.029 E0.11637
G1 X59.218 Y54.52 E0.0965
G1 X58.93 Y54.062 E0.02699
G1 X30.657 Y71.504 E1.65737
G1 X28.803 Y72.16 E0.09812
G1 X26.516 Y72.29 E0.11428
G0 F3600 X26.562 Y71.887
G1 F1800 X24.509 Y71.308 E0.10642
G1 X22.638 Y70.144 E0.10993
G1 X21.556 Y68.808 E0.08577
G1 X20.015 Y66.351 E0.14469
G1 X19.382 Y64.564 E0.09458
G1 X19.259 Y62.402 E0.10804
G1 X19.838 Y60.349 E0.10642
G1 X20.987 Y58.499 E0.10865
G1 X22.083 Y57.582 E0.07129
G1 X57.565 Y35.653 E2.081
G1 X54.238 Y30.256 E0.31631
G1 X53.615 Y28.495 E0.09319
G1 X53.492 Y26.334 E0.10799
G1 X54.071 Y24.281 E0.10642
G1 X55.235 Y22.41 E0.10993
G1 X56.571 Y21.328 E0.08577
G1 X59.028 Y19.787 E0.14469
G1 X60.815 Y19.154 E0.09458
G1 X62.977 Y19.031 E0.10804
G1 X65.03 Y19.61 E0.10642
G1 X66.88 Y20.759 E0.10865
G1 X67.797 Y21.855 E0.07129
G1 X76.303 Y35.645 E0.80834
G1 X76.39 Y35.842 E0.01074
G1 X79.398 Y40.771 E0.28808
G1 X80.149 Y42.088 E0.07564
G1 X80.677 Y43.351 E0.0683
G1 X80.942 Y45.336 E0.09991
G1 X80.869 Y46.065 E0.03655
G1 X80.507 Y47.482 E0.07296
G1 X80.331 Y47.884 E0.02189
G1 X80.331 Y74.785 E1.3421
G1 X79.949 Y76.643 E0.09463
G1 X79.082 Y78.206 E0.08917
G1 X78.367 Y79.131 E0.05833
G1 X77.15 Y80.108 E0.07786
G1 X75.354 Y81.002 E0.10009
G1 X73.672 Y81.225 E0.08465
G1 X70.738 Y81.246 E0.14638
G1 X68.903 Y80.848 E0.09368
G1 X67.371 Y79.997 E0.08743
G1 X66.445 Y79.28 E0.05843
G1 X65.469 Y78.069 E0.0776
G1 X64.579 Y76.284 E0.09951
G1 X64.375 Y74.884 E0.07058
G1 X64.337 Y57.39 E0.87278
G1 X62.571 Y56.892 E0.09154
G1 X60.698 Y55.726 E0.11007
G1 X59.557 Y54.307 E0.09084
G1 X59.058 Y53.513 E0.04679
G1 X30.484 Y71.141 E1.67502
G1 X28.723 Y71.764 E0.09319
G1 X26.562 Y71.887 E0.10799
G0 F3600 X26.608 Y71.484
G1 F1800 X24.672 Y70.938 E0.10036
G1 X22.907 Y69.84 E0.1037
G1 X21.867 Y68.556 E0.08244
G1 X20.378 Y66.177 E0.14002
G1 X19.778 Y64.483 E0.08966
G1 X19.662 Y62.448 E0.10169
G1 X20.208 Y60.512 E0.10036
G1 X21.293 Y58.765 E0.1026
G1 X22.34 Y57.889 E0.06811
G1 X58.115 Y35.783 E2.09807
G1 X54.601 Y30.083 E0.33407
G1 X54.011 Y28.415 E0.08827
G1 X53.895 Y26.38 E0.10169
G1 X54.441 Y24.444 E0.10036
G1 X55.539 Y22.679 E0.1037
G1 X56.823 Y21.639 E0.08244
G1 X59.202 Y20.15 E0.14002
G1 X60.896 Y19.55 E0.08966
G1 X62.931 Y19.434 E0.10169
G1 X64.867 Y19.98 E0.10036
G1 X66.614 Y21.065 E0.1026
G1 X67.49 Y22.112 E0.06811
G1 X75.937 Y35.807 E0.80276
G1 X76.032 Y36.022 E0.01173
G1 X79.051 Y40.969 E0.28914
G1 X79.802 Y42.286 E0.07564
G1 X80.288 Y43.456 E0.06321
G1 X80.54 Y45.341 E0.09488
G1 X80.481 Y45.966 E0.03132
G1 X80.119 Y47.383 E0.07296
G1 X79.931 Y47.798 E0.02273
G1 X79.931 Y74.743 E1.34429
G1 X79.569 Y76.503 E0.08964
G1 X78.732 Y78.012 E0.08609
G1 X78.082 Y78.846 E0.05275
G1 X76.931 Y79.771 E0.07367
G1 X75.237 Y80.614 E0.0944
G1 X73.62 Y80.828 E0.08138
G1 X70.78 Y80.846 E0.14169
G1 X69.046 Y80.47 E0.08852
G1 X67.565 Y79.647 E0.08453
G1 X66.729 Y78.995 E0.05289
G1 X65.806 Y77.849 E0.07341
G1 X64.966 Y76.164 E0.09393
G1 X64.771 Y74.826 E0.06746
G1 X64.736 Y57.046 E0.88705
G1 X64.543 Y57.032 E0.00965
G1 X62.734 Y56.522 E0.09377
G1 X60.968 Y55.423 E0.10377
G1 X59.869 Y54.056 E0.08751
G1 X59.187 Y52.964 E0.06423
G1 X30.311 Y70.778 E1.69271
G1 X28.643 Y71.368 E0.08827
G1 X26.608 Y71.484 E0.10169
G0 F3600 X26.653 Y71.081
G1 F1800 X24.836 Y70.569 E0.09418
G1 X23.176 Y69.536 E0.09754
G1 X22.178 Y68.304 E0.0791
G1 X20.74 Y66.002 E0.13541
G1 X20.174 Y64.403 E0.08462
G1 X20.065 Y62.493 E0.09545
G1 X20.577 Y60.676 E0.09418
G1 X21.599 Y59.031 E0.09662
G1 X22.597 Y58.196 E0.06492
G1 X58.665 Y35.913 E2.11515
G1 X54.964 Y29.91 E0.35184
G1 X54.407 Y28.335 E0.08335
G1 X54.298 Y26.425 E0.09545
G1 X54.81 Y24.608 E0.09418
G1 X55.843 Y22.948 E0.09754
G1 X57.075 Y21.95 E0.0791
G1 X59.377 Y20.512 E0.13541
G1 X60.976 Y19.946 E0.08462
G1 X62.886 Y19.837 E0.09545
G1 X64.703 Y20.349 E0.09418
G1 X66.348 Y21.371 E0.09662
G1 X67.183 Y22.369 E0.06492
G1 X75.571 Y35.968 E0.79714
G1 X75.675 Y36.205 E0.01291
G1 X78.693 Y41.148 E0.28894
G1 X78.747 Y41.256 E0.00602
G1 X79.455 Y42.486 E0.0708
G1 X79.899 Y43.563 E0.05812
G1 X80.138 Y45.349 E0.0899
G1 X80.093 Y45.867 E0.02594
G1 X79.731 Y47.284 E0.07296
G1 X79.531 Y47.707 E0.02334
G1 X79.531 Y74.701 E1.34674
G1 X79.189 Y76.363 E0.08465
G1 X78.382 Y77.818 E0.08301
G1 X77.796 Y78.563 E0.04729
G1 X76.714 Y79.432 E0.06924
G1 X75.12 Y80.225 E0.08882
G1 X73.567 Y80.431 E0.07816
G1 X70.822 Y80.446 E0.13695
G1 X69.189 Y80.092 E0.08336
G1 X67.759 Y79.297 E0.08163
G1 X67.014 Y78.711 E0.04729
G1 X66.143 Y77.629 E0.0693
G1 X65.353 Y76.044 E0.08835
G1 X65.167 Y74.768 E0.06433
G1 X65.135 Y56.641 E0.90436
G1 X64.651 Y56.647 E0.02415
G1 X62.898 Y56.153 E0.09086
G1 X61.238 Y55.12 E0.09754
G1 X60.181 Y53.805 E0.08417
G1 X59.317 Y52.414 E0.08169
G1 X30.138 Y70.415 E1.71048
G1 X28.563 Y70.972 E0.08335
G1 X26.653 Y71.081 E0.09545
G0 F3600 X26.698 Y70.678
G1 F1800 X24.999 Y70.199 E0.08807
G1 X23.445 Y69.232 E0.09131
G1 X22.489 Y68.052 E0.07577
G1 X21.102 Y65.827 E0.13081
G1 X20.57 Y64.323 E0.07959
G1 X20.468 Y62.538 E0.0892
G1 X20.947 Y60.839 E0.08807
G1 X21.905 Y59.297 E0.09057
G1 X22.854 Y58.503 E0.06173
G1 X59.215 Y36.043 E2.13223
G1 X55.327 Y29.737 E0.3696
G1 X54.803 Y28.255 E0.07842
G1 X54.701 Y26.47 E0.0892
G1 X55.18 Y24.771 E0.08807
G1 X56.147 Y23.217 E0.09131
G1 X57.327 Y22.261 E0.07577
G1 X59.552 Y20.874 E0.13081
G1 X61.056 Y20.342 E0.07959
G1 X62.841 Y20.24 E0.0892
G1 X64.54 Y20.719 E0.08807
G1 X66.082 Y21.677 E0.09057
G1 X66.876 Y22.626 E0.06173
G1 X75.205 Y36.129 E0.79152
G1 X75.32 Y36.391 E0.01427
G1 X78.335 Y41.327 E0.28856
G1 X78.39 Y41.437 E0.00614
G1 X79.085 Y42.638 E0.06923
G1 X79.51 Y43.669 E0.05564
G1 X79.736 Y45.356 E0.08492
G1 X79.705 Y45.768 E0.02061
G1 X79.352 Y47.148 E0.07107
G1 X79.131 Y47.617 E0.02587
G1 X79.131 Y74.659 E1.34913
G1 X78.809 Y76.223 E0.07966
G1 X78.032 Y77.624 E0.07993
G1 X77.511 Y78.278 E0.04172
G1 X76.495 Y79.095 E0.06504
G1 X75.003 Y79.837 E0.08313
G1 X73.515 Y80.034 E0.07488
G1 X70.864 Y80.046 E0.13226
G1 X69.332 Y79.714 E0.07821
G1 X67.953 Y78.947 E0.07872
G1 X67.299 Y78.426 E0.04172
G1 X66.482 Y77.411 E0.06501
G1 X65.74 Y75.923 E0.08295
G1 X65.563 Y74.71 E0.06116
G1 X65.534 Y56.217 E0.92262
G1 X64.76 Y56.262 E0.03868
G1 X63.061 Y55.783 E0.08807
G1 X61.508 Y54.817 E0.09125
G1 X60.493 Y53.554 E0.08084
G1 X59.447 Y51.864 E0.09916
G1 X29.965 Y70.052 E1.72824
G1 X28.483 Y70.576 E0.07842
G1 X26.698 Y70.678 E0.0892
G0 F3600 X26.743 Y70.275
G1 F1800 X25.162 Y69.829 E0.08195
G1 X23.714 Y68.928 E0.08508
G1 X22.8 Y67.8 E0.07243
G1 X21.464 Y65.651 E0.12624
G1 X20.966 Y64.243 E0.07451
G1 X20.871 Y62.583 E0.08295
G1 X21.317 Y61.002 E0.08195
G1 X22.211 Y59.563 E0.08452
G1 X23.111 Y58.81 E0.05854
G1 X59.765 Y36.173 E2.14931
G1 X55.69 Y29.564 E0.38736
G1 X55.199 Y28.175 E0.0735
G1 X55.104 Y26.515 E0.08295
G1 X55.55 Y24.934 E0.08195
G1 X56.451 Y23.486 E0.08508
G1 X57.579 Y22.572 E0.07243
G1 X59.728 Y21.236 E0.12624
G1 X61.136 Y20.738 E0.07451
G1 X62.796 Y20.643 E0.08295
G1 X64.377 Y21.089 E0.08195
G1 X65.816 Y21.983 E0.08452
G1 X66.569 Y22.883 E0.05854
G1 X74.839 Y36.29 E0.78589
G1 X74.965 Y36.577 E0.01564
G1 X77.977 Y41.506 E0.28819
G1 X78.037 Y41.626 E0.00669
G1 X78.715 Y42.79 E0.06721
G1 X79.121 Y43.775 E0.05315
G1 X79.34 Y45.409 E0.08225
G1 X79.317 Y45.669 E0.01302
G1 X78.964 Y47.049 E0.07107
G1 X78.731 Y47.525 E0.02644
G1 X78.731 Y74.617 E1.35163
G1 X78.429 Y76.084 E0.07472
G1 X77.719 Y77.375 E0.07351
G1 X77.227 Y77.992 E0.03937
G1 X76.276 Y78.758 E0.06092
G1 X74.884 Y79.45 E0.07756
G1 X73.513 Y79.634 E0.06901
G1 X70.907 Y79.646 E0.13002
G1 X69.473 Y79.335 E0.07321
G1 X68.202 Y78.634 E0.07242
G1 X67.585 Y78.142 E0.03937
G1 X66.819 Y77.191 E0.06092
G1 X66.127 Y75.803 E0.07738
G1 X65.959 Y74.652 E0.05803
G1 X65.933 Y55.794 E0.94083
G1 X64.805 Y55.859 E0.05637
G1 X63.224 Y55.413 E0.08195
G1 X61.776 Y54.512 E0.08508
G1 X60.833 Y53.343 E0.07493
G1 X59.577 Y51.314 E0.11905
G1 X29.792 Y69.689 E1.74601
G1 X28.403 Y70.18 E0.0735
G1 X26.743 Y70.275 E0.08295
G0 F3600 X26.788 Y69.872
G1 F1800 X25.326 Y69.46 E0.07578
G1 X23.983 Y68.624 E0.07892
G1 X23.111 Y67.548 E0.0691
G1 X21.826 Y65.475 E0.12168
G1 X21.362 Y64.163 E0.06943
G1 X21.274 Y62.628 E0.07671
G1 X21.686 Y61.166 E0.07578
G1 X22.517 Y59.829 E0.07854
G1 X23.368 Y59.117 E0.05536
G1 X60.315 Y36.303 E2.16638
G1 X56.053 Y29.391 E0.40513
G1 X55.595 Y28.095 E0.06858
G1 X55.507 Y26.56 E0.07671
G1 X55.919 Y25.098 E0.07578
G1 X56.755 Y23.755 E0.07892
G1 X57.831 Y22.883 E0.0691
G1 X59.904 Y21.598 E0.12168
G1 X61.216 Y21.134 E0.06943
G1 X62.751 Y21.046 E0.07671
G1 X64.213 Y21.458 E0.07578
G1 X65.55 Y22.289 E0.07854
G1 X66.262 Y23.14 E0.05536
G1 X74.473 Y36.451 E0.78027
G1 X74.61 Y36.763 E0.017
G1 X77.619 Y41.685 E0.28781
G1 X77.682 Y41.811 E0.00703
G1 X78.345 Y42.942 E0.06541
G1 X78.732 Y43.881 E0.05067
G1 X78.938 Y45.418 E0.07737
G1 X78.929 Y45.57 E0.0076
G1 X78.576 Y46.95 E0.07107
G1 X78.331 Y47.429 E0.02684
G1 X78.331 Y74.575 E1.35432
G1 X78.049 Y75.946 E0.06983
G1 X77.406 Y77.126 E0.06704
G1 X76.941 Y77.709 E0.0372
G1 X76.06 Y78.419 E0.05645
G1 X74.765 Y79.063 E0.07216
G1 X73.511 Y79.234 E0.06314
G1 X70.95 Y79.246 E0.12777
G1 X69.615 Y78.956 E0.06816
G1 X68.451 Y78.321 E0.06615
G1 X67.868 Y77.856 E0.0372
G1 X67.158 Y76.975 E0.05645
G1 X66.514 Y75.683 E0.07202
G1 X66.355 Y74.594 E0.05491
G1 X66.332 Y55.37 E0.95909
G1 X64.85 Y55.456 E0.07406
G1 X63.388 Y55.044 E0.07578
G1 X62.045 Y54.208 E0.07892
G1 X61.173 Y53.132 E0.0691
G1 X59.873 Y51.032 E0.12322
G1 X59.76 Y50.731 E0.01604
G1 X29.619 Y69.326 E1.76688
G1 X28.323 Y69.784 E0.06858
G1 X26.788 Y69.872 E0.07671
G0 F3600 X26.833 Y69.469
G1 F1800 X25.489 Y69.09 E0.06967
G1 X24.25 Y68.319 E0.0728
G1 X23.451 Y67.337 E0.06316
G1 X22.188 Y65.299 E0.11962
G1 X21.758 Y64.083 E0.06435
G1 X21.677 Y62.673 E0.07046
G1 X22.056 Y61.329 E0.06967
G1 X22.823 Y60.095 E0.07249
G1 X23.625 Y59.424 E0.05217
G1 X60.865 Y36.433 E2.18346
G1 X56.416 Y29.218 E0.42289
G1 X55.991 Y28.015 E0.06365
G1 X55.91 Y26.605 E0.07046
G1 X56.289 Y25.261 E0.06967
G1 X57.06 Y24.022 E0.0728
G1 X58.042 Y23.223 E0.06316
G1 X60.08 Y21.96 E0.11962
G1 X61.296 Y21.53 E0.06435
G1 X62.706 Y21.449 E0.07046
G1 X64.05 Y21.828 E0.06967
G1 X65.284 Y22.595 E0.07249
G1 X65.955 Y23.397 E0.05217
G1 X74.107 Y36.612 E0.77465
G1 X74.255 Y36.949 E0.01836
G1 X77.261 Y41.864 E0.28744
G1 X77.327 Y41.996 E0.00736
G1 X78 Y43.144 E0.06639
G1 X78.343 Y43.986 E0.04536
G1 X78.542 Y45.471 E0.07475
G1 X78.2 Y46.806 E0.06875
G1 X77.931 Y47.333 E0.02952
G1 X77.931 Y74.533 E1.35701
G1 X77.669 Y75.808 E0.06494
G1 X77.093 Y76.877 E0.06058
G1 X76.657 Y77.424 E0.0349
G1 X75.84 Y78.082 E0.05234
G1 X74.646 Y78.676 E0.06653
G1 X73.509 Y78.834 E0.05727
G1 X70.993 Y78.846 E0.12553
G1 X69.756 Y78.577 E0.06316
G1 X68.7 Y78.008 E0.05985
G1 X68.153 Y77.572 E0.0349
G1 X67.495 Y76.755 E0.05234
G1 X66.901 Y75.563 E0.06644
G1 X66.751 Y74.536 E0.05178
G1 X66.731 Y54.821 E0.98359
G1 X66.248 Y54.975 E0.02529
G1 X64.895 Y55.053 E0.06761
G1 X63.551 Y54.674 E0.06967
G1 X62.312 Y53.903 E0.0728
G1 X61.513 Y52.921 E0.06316
G1 X60.213 Y50.821 E0.12322
G1 X59.978 Y50.127 E0.03655
G1 X29.446 Y68.963 E1.7898
G1 X28.243 Y69.388 E0.06365
G1 X26.833 Y69.469 E0.07046
G1 F1500 E-6.5
G0 F3600 X28.163 Y68.992
G1 F1500 E6.5
G1 F1800 X26.878 Y69.066 E0.06422
G1 X25.653 Y68.721 E0.06349
G1 X24.518 Y68.015 E0.06669
G1 X23.791 Y67.126 E0.05729
G1 X22.55 Y65.123 E0.11756
G1 X22.154 Y64.003 E0.05927
G1 X22.08 Y62.718 E0.06422
G1 X22.425 Y61.493 E0.06349
G1 X23.129 Y60.361 E0.06651
G1 X23.882 Y59.731 E0.04898
G1 X61.415 Y36.563 E2.20054
G1 X56.779 Y29.045 E0.44065
G1 X56.387 Y27.935 E0.05873
G1 X56.313 Y26.65 E0.06422
G1 X56.658 Y25.425 E0.06349
G1 X57.364 Y24.29 E0.06669
G1 X58.253 Y23.563 E0.05729
G1 X60.256 Y22.322 E0.11756
G1 X61.376 Y21.926 E0.05927
G1 X62.661 Y21.852 E0.06422
G1 X63.886 Y22.197 E0.06349
G1 X65.018 Y22.901 E0.06651
G1 X65.648 Y23.654 E0.04898
G1 X73.741 Y36.773 E0.76903
G1 X73.9 Y37.135 E0.01973
G1 X76.903 Y42.043 E0.28706
G1 X76.97 Y42.177 E0.00747
G1 X77.63 Y43.295 E0.06477
G1 X77.954 Y44.09 E0.04283
G1 X78.135 Y45.445 E0.0682
G1 X77.812 Y46.707 E0.06499
G1 X77.531 Y47.233 E0.02975
G1 X77.531 Y74.492 E1.35996
G1 X77.289 Y75.67 E0.06
G1 X76.741 Y76.687 E0.05764
G1 X76.375 Y77.137 E0.02894
G1 X75.62 Y77.745 E0.04836
G1 X74.527 Y78.289 E0.06091
G1 X73.507 Y78.434 E0.0514
G1 X71.036 Y78.446 E0.12328
G1 X69.896 Y78.198 E0.05821
G1 X68.89 Y77.656 E0.05701
G1 X68.44 Y77.29 E0.02894
G1 X67.832 Y76.535 E0.04836
G1 X67.288 Y75.443 E0.06087
G1 X67.147 Y74.478 E0.04866
G1 X67.131 Y54.256 E1.00888
G1 X66.225 Y54.576 E0.04794
G1 X64.94 Y54.65 E0.06422
G1 X63.715 Y54.305 E0.06349
G1 X62.58 Y53.599 E0.06669
G1 X61.853 Y52.71 E0.05729
G1 X60.577 Y50.649 E0.12094
G1 X60.196 Y49.523 E0.05931
G1 X29.273 Y68.6 E1.81271
G1 X28.163 Y68.992 E0.05873
G1 F1500 E-6.5
G0 F3600 X29.1 Y68.237
G1 F1500 E6.5
G1 F1800 X28.083 Y68.596 E0.05381
G1 X26.923 Y68.663 E0.05797
G1 X25.816 Y68.351 E0.05738
