;FLAVOR:RepRap
;TIME:4936
;Filament used: 5.48681m
;Layer height: 0.15
;MINX:0
;MINY:16.2
;MINZ:0.3
;MAXX:100
;MAXY:83.8
;MAXZ:30
;TARGET_MACHINE.NAME:Unknown
;Generated with Cura_SteamEngine 5.7.2
T0
M104 S200
M109 S200
M82 ;absolute extrusion mode
G28 ;Home
G1 Z15.0 F6000 ;Move the platform down 15mm
G92 E0
M83 ;relative extrusion mode
G1 F1500 E-6.5
;LAYER_COUNT:199
;LAYER:0
M107
G0 F3600 X0.00 Y18.063 Z0.3
;TYPE:SKIRT
G1 F1500 E6.5
G1 F1800 X0.754 Y17.455 E0.04832
G1 X2.721 Y16.474 E0.10966
G1 X4.246 Y16.252 E0.07688
G1 X95.622 Y16.2 E4.55877
G1 X97.679 Y16.622 E0.10476
G1 X99.45 Y17.617 E0.10135
G1 X100 Y18.042 E0.03468
G0 F3600 X100 Y18.548
G1 F1800 X99.205 Y17.933 E0.05015
G1 X97.538 Y17.002 E0.09526
G1 X95.581 Y16.6 E0.09967
G1 X4.304 Y16.648 E4.55383
G1 X2.842 Y16.861 E0.07371
G1 X0.969 Y17.795 E0.10442
G1 X0.00 Y18.576 E0.06209
G0 F3600 X0.00 Y19.089
G1 F1800 X1.185 Y18.134 E0.07593
G1 X2.962 Y17.248 E0.09906
G1 X4.362 Y17.044 E0.07058
G1 X95.539 Y17 E4.54884
G1 X97.397 Y17.382 E0.09463
G1 X98.96 Y18.249 E0.08917
G1 X99.884 Y18.964 E0.05829
G1 X100 Y19.108 E0.00923
G0 F3600 X100 Y19.745
G1 F1800 X99.602 Y19.251 E0.03165
G1 X98.766 Y18.599 E0.05289
G1 X97.257 Y17.762 E0.08609
G1 X95.497 Y17.4 E0.08964
G1 X4.42 Y17.44 E4.54385
G1 X3.082 Y17.635 E0.06746
G1 X1.401 Y18.473 E0.09371
G1 X0.248 Y19.402 E0.07387
G1 X0.00 Y19.72 E0.02012
G0 F3600 X0.00 Y20.37
G1 F1800 X0.535 Y19.684 E0.0434
G1 X1.617 Y18.812 E0.06933
G1 X3.202 Y18.022 E0.08835
G1 X4.478 Y17.836 E0.06433
G1 X95.455 Y17.8 E4.53886
G1 X97.117 Y18.142 E0.08465
G1 X98.572 Y18.949 E0.08301
G1 X99.317 Y19.535 E0.04729
G1 X100 Y20.384 E0.05436
G0 F3600 X100 Y21.138
G1 F1800 X99.849 Y20.835 E0.01689
G1 X99.032 Y19.82 E0.06501
G1 X98.378 Y19.299 E0.04172
G1 X96.977 Y18.522 E0.07993
G1 X95.413 Y18.2 E0.07966
G1 X4.536 Y18.232 E4.53387
G1 X3.323 Y18.409 E0.06116
G1 X1.835 Y19.151 E0.08295
G1 X0.819 Y19.969 E0.06508
G1 X0.261 Y20.678 E0.04501
G1 X0.00 Y21.153 E0.02704
G0 F3600 X0.00 Y21.984
G1 F1800 X0.612 Y20.871 E0.06337
G1 X1.104 Y20.254 E0.03937
G1 X2.055 Y19.488 E0.06092
G1 X3.443 Y18.796 E0.07738
G1 X4.594 Y18.628 E0.05803
G1 X95.371 Y18.6 E4.52888
G1 X96.838 Y18.902 E0.07472
G1 X98.129 Y19.612 E0.07351
G1 X98.746 Y20.104 E0.03937
G1 X99.512 Y21.055 E0.06092
G1 X100 Y22.034 E0.05457
G1 F1500 E-6.5
G0 F3600 X100 Y81.937
G1 F1500 E6.5
G1 F1800 X99.246 Y82.545 E0.04832
G1 X97.279 Y83.526 E0.10966
G1 X95.754 Y83.748 E0.07688
G1 X4.378 Y83.8 E4.55877
G1 X2.321 Y83.378 E0.10476
G1 X0.55 Y82.383 E0.10135
G1 X0.00 Y81.958 E0.03468
G0 F3600 X0.00 Y81.452
G1 F1800 X0.795 Y82.067 E0.05015
G1 X2.462 Y82.998 E0.09526
G1 X4.419 Y83.4 E0.09967
G1 X95.696 Y83.352 E4.55383
G1 X97.158 Y83.139 E0.07371
G1 X99.031 Y82.205 E0.10442
G1 X100 Y81.424 E0.06209
G0 F3600 X100 Y80.911
G1 F1800 X98.815 Y81.866 E0.07593
G1 X97.038 Y82.752 E0.09906
G1 X95.638 Y82.956 E0.07058
G1 X4.461 Y83 E4.54884
G1 X2.603 Y82.618 E0.09463
G1 X1.04 Y81.751 E0.08917
G1 X0.116 Y81.036 E0.05829
G1 X0.00 Y80.892 E0.00923
G0 F3600 X0.00 Y80.255
G1 F1800 X0.398 Y80.749 E0.03165
G1 X1.234 Y81.401 E0.05289
G1 X2.743 Y82.238 E0.08609
G1 X4.503 Y82.6 E0.08964
G1 X95.58 Y82.56 E4.54385
G1 X96.918 Y82.365 E0.06746
G1 X98.599 Y81.527 E0.09371
G1 X99.752 Y80.598 E0.07387
G1 X100 Y80.28 E0.02012
G0 F3600 X100 Y79.63
G1 F1800 X99.465 Y80.316 E0.0434
G1 X98.383 Y81.188 E0.06933
G1 X96.798 Y81.978 E0.08835
G1 X95.522 Y82.164 E0.06433
G1 X4.545 Y82.2 E4.53886
G1 X2.883 Y81.858 E0.08465
G1 X1.428 Y81.051 E0.08301
G1 X0.683 Y80.465 E0.04729
G1 X0.00 Y79.616 E0.05436
G0 F3600 X0.00 Y78.862
G1 F1800 X0.151 Y79.165 E0.01689
G1 X0.968 Y80.18 E0.06501
G1 X1.622 Y80.701 E0.04172
G1 X3.023 Y81.478 E0.07993
G1 X4.587 Y81.8 E0.07966
G1 X95.464 Y81.768 E4.53387
G1 X96.677 Y81.591 E0.06116
G1 X98.165 Y80.849 E0.08295
G1 X99.181 Y80.031 E0.06508
G1 X99.739 Y79.322 E0.04501
G1 X100 Y78.847 E0.02704
G0 F3600 X100 Y78.016
G1 F1800 X99.388 Y79.129 E0.06337
G1 X98.896 Y79.746 E0.03937
G1 X97.945 Y80.512 E0.06092
G1 X96.557 Y81.204 E0.07738
G1 X95.406 Y81.372 E0.05803
G1 X4.629 Y81.4 E4.52888
G1 X3.162 Y81.098 E0.07472
G1 X1.871 Y80.388 E0.07351
G1 X1.254 Y79.896 E0.03937
G1 X0.488 Y78.945 E0.06092
G1 X0.00 Y77.966 E0.05457
G0 F3600 X0.183 Y77.437
G1 F1800 X0.024 Y76.348 E0.05491
G1 X0.00 Y23.671 E2.62807
G1 X0.282 Y22.3 E0.06983
G1 X0.925 Y21.12 E0.06704
G1 X1.39 Y20.537 E0.0372
G1 X2.271 Y19.827 E0.05645
G1 X3.563 Y19.183 E0.07202
G1 X4.652 Y19.024 E0.05491
G1 X95.329 Y19 E4.52389
G1 X96.7 Y19.282 E0.06983
G1 X97.88 Y19.925 E0.06704
G1 X98.463 Y20.39 E0.0372
G1 X99.173 Y21.271 E0.05645
G1 X99.817 Y22.563 E0.07202
G1 X99.976 Y23.652 E0.05491
G1 X100 Y76.329 E2.62807
G1 X99.718 Y77.7 E0.06983
G1 X99.075 Y78.88 E0.06704
G1 X98.61 Y79.463 E0.0372
G1 X97.729 Y80.173 E0.05645
G1 X96.437 Y80.817 E0.07202
G1 X95.348 Y80.976 E0.05491
G1 X4.671 Y81 E4.52389
G1 X3.3 Y80.718 E0.06983
G1 X2.12 Y80.075 E0.06704
G1 X1.537 Y79.61 E0.0372
G1 X0.827 Y78.729 E0.05645
G1 X0.183 Y77.437 E0.07202
G0 F3600 X0.57 Y77.317
G1 F1800 X0.42 Y76.29 E0.05178
G1 X0.4 Y23.713 E2.62308
G1 X0.662 Y22.438 E0.06494
G1 X1.238 Y21.369 E0.06058
G1 X1.674 Y20.822 E0.0349
G1 X2.491 Y20.164 E0.05234
G1 X3.683 Y19.57 E0.06644
G1 X4.71 Y19.42 E0.05178
G1 X95.287 Y19.4 E4.5189
G1 X96.562 Y19.662 E0.06494
G1 X97.631 Y20.238 E0.06058
G1 X98.178 Y20.674 E0.0349
G1 X98.836 Y21.491 E0.05234
G1 X99.43 Y22.683 E0.06644
G1 X99.58 Y23.71 E0.05178
G1 X99.6 Y76.287 E2.62308
G1 X99.338 Y77.562 E0.06494
G1 X98.762 Y78.631 E0.06058
G1 X98.326 Y79.178 E0.0349
G1 X97.509 Y79.836 E0.05234
G1 X96.317 Y80.43 E0.06644
G1 X95.29 Y80.58 E0.05178
G1 X4.713 Y80.6 E4.5189
G1 X3.438 Y80.338 E0.06494
G1 X2.369 Y79.762 E0.06058
G1 X1.822 Y79.326 E0.0349
G1 X1.164 Y78.509 E0.05234
G1 X0.57 Y77.317 E0.06644
G0 F3600 X0.957 Y77.197
G1 F1800 X0.816 Y76.232 E0.04866
G1 X0.8 Y23.754 E2.61814
G1 X1.042 Y22.576 E0.06
G1 X1.59 Y21.559 E0.05764
G1 X1.956 Y21.109 E0.02894
G1 X2.711 Y20.501 E0.04836
G1 X3.803 Y19.957 E0.06087
G1 X4.768 Y19.816 E0.04866
G1 X95.246 Y19.8 E4.51397
G1 X96.424 Y20.042 E0.06
G1 X97.441 Y20.59 E0.05764
G1 X97.891 Y20.956 E0.02894
G1 X98.499 Y21.711 E0.04836
G1 X99.043 Y22.803 E0.06087
G1 X99.184 Y23.768 E0.04866
G1 X99.2 Y76.246 E2.61814
G1 X98.958 Y77.424 E0.06
G1 X98.41 Y78.441 E0.05764
G1 X98.044 Y78.891 E0.02894
G1 X97.289 Y79.499 E0.04836
G1 X96.197 Y80.043 E0.06087
G1 X95.232 Y80.184 E0.04866
G1 X4.754 Y80.2 E4.51397
G1 X3.576 Y79.958 E0.06
G1 X2.559 Y79.41 E0.05764
G1 X2.109 Y79.044 E0.02894
G1 X1.501 Y78.289 E0.04836
G1 X0.957 Y77.197 E0.06087
G0 F3600 X1.344 Y77.077
G1 F1800 X1.212 Y76.174 E0.04553
G1 X1.2 Y23.795 E2.6132
G1 X1.422 Y22.714 E0.05506
G1 X1.905 Y21.806 E0.05131
G1 X2.207 Y21.421 E0.02441
G1 X2.931 Y20.838 E0.04638
G1 X3.923 Y20.344 E0.05529
G1 X4.826 Y20.212 E0.04553
G1 X95.205 Y20.2 E4.50903
G1 X96.286 Y20.422 E0.05506
G1 X97.194 Y20.905 E0.05131
G1 X97.579 Y21.207 E0.02441
G1 X98.162 Y21.931 E0.04638
G1 X98.656 Y22.923 E0.05529
G1 X98.788 Y23.826 E0.04553
G1 X98.8 Y76.205 E2.6132
G1 X98.578 Y77.286 E0.05506
G1 X98.095 Y78.194 E0.05131
G1 X97.793 Y78.579 E0.02441
G1 X97.069 Y79.162 E0.04638
G1 X96.077 Y79.656 E0.05529
G1 X95.174 Y79.788 E0.04553
G1 X4.795 Y79.8 E4.50903
G1 X3.714 Y79.578 E0.05506
G1 X2.806 Y79.095 E0.05131
G1 X2.421 Y78.793 E0.02441
G1 X1.838 Y78.069 E0.04638
G1 X1.344 Y77.077 E0.05529
G0 F3600 X1.731 Y76.957
G1 F1800 X1.608 Y76.116 E0.0424
G1 X1.6 Y23.836 E2.60826
G1 X1.802 Y22.85 E0.05021
G1 X2.226 Y22.045 E0.04539
G1 X2.458 Y21.733 E0.0194
G1 X3.151 Y21.175 E0.04439
G1 X4.043 Y20.731 E0.04971
G1 X4.884 Y20.608 E0.0424
G1 X95.164 Y20.6 E4.50409
G1 X96.15 Y20.802 E0.05021
G1 X96.955 Y21.226 E0.04539
G1 X97.267 Y21.458 E0.0194
G1 X97.825 Y22.151 E0.04439
G1 X98.269 Y23.043 E0.04971
G1 X98.392 Y23.884 E0.0424
G1 X98.4 Y76.164 E2.60826
G1 X98.198 Y77.15 E0.05021
G1 X97.774 Y77.955 E0.04539
G1 X97.542 Y78.267 E0.0194
G1 X96.849 Y78.825 E0.04439
G1 X95.957 Y79.269 E0.04971
G1 X95.116 Y79.392 E0.0424
G1 X4.836 Y79.4 E4.50409
G1 X3.85 Y79.198 E0.05021
G1 X3.045 Y78.774 E0.04539
G1 X2.733 Y78.542 E0.0194
G1 X2.175 Y77.849 E0.04439
G1 X1.731 Y76.957 E0.04971
G0 F3600 X2.118 Y76.837
G1 F1800 X2.004 Y76.058 E0.03928
G1 X2 Y23.877 E2.60332
G1 X2.182 Y22.987 E0.04532
G1 X2.58 Y22.232 E0.04258
G1 X2.749 Y22.012 E0.01384
G1 X3.367 Y21.514 E0.0396
G1 X4.163 Y21.118 E0.04436
G1 X4.942 Y21.004 E0.03928
G1 X95.123 Y21 E4.49915
G1 X96.013 Y21.182 E0.04532
G1 X96.768 Y21.58 E0.04258
G1 X96.988 Y21.749 E0.01384
G1 X97.486 Y22.367 E0.0396
G1 X97.882 Y23.163 E0.04436
G1 X97.996 Y23.942 E0.03928
G1 X98 Y76.123 E2.60332
G1 X97.818 Y77.013 E0.04532
G1 X97.42 Y77.768 E0.04258
G1 X97.251 Y77.988 E0.01384
G1 X96.633 Y78.486 E0.0396
G1 X95.837 Y78.882 E0.04436
G1 X95.058 Y78.996 E0.03928
G1 X4.877 Y79 E4.49915
G1 X3.987 Y78.818 E0.04532
G1 X3.232 Y78.42 E0.04258
G1 X3.012 Y78.251 E0.01384
G1 X2.514 Y77.633 E0.0396
G1 X2.118 Y76.837 E0.04436
G0 F3600 X2.505 Y76.717
G1 F1800 X2.4 Y76 E0.03615
G1 X2.4 Y23.918 E2.59838
G1 X2.563 Y23.122 E0.04054
G1 X2.934 Y22.418 E0.0397
G1 X3.037 Y22.293 E0.00808
G1 X3.583 Y21.853 E0.03498
G1 X4.283 Y21.505 E0.039
G1 X5 Y21.4 E0.03615
G1 X95.082 Y21.4 E4.49421
G1 X95.878 Y21.563 E0.04054
G1 X96.582 Y21.934 E0.0397
G1 X96.707 Y22.037 E0.00808
G1 X97.147 Y22.583 E0.03498
G1 X97.495 Y23.283 E0.039
G1 X97.6 Y24 E0.03615
G1 X97.6 Y76.082 E2.59838
G1 X97.437 Y76.878 E0.04054
G1 X97.066 Y77.582 E0.0397
G1 X96.963 Y77.707 E0.00808
G1 X96.417 Y78.147 E0.03498
G1 X95.717 Y78.495 E0.039
G1 X95 Y78.6 E0.03615
G1 X4.918 Y78.6 E4.49421
G1 X4.122 Y78.437 E0.04054
G1 X3.418 Y78.066 E0.0397
G1 X3.293 Y77.963 E0.00808
G1 X2.853 Y77.417 E0.03498
G1 X2.505 Y76.717 E0.039
G0 F3600 X2.891 Y76.595
G1 F1800 X2.8 Y76 E0.03003
G1 X2.8 Y23.959 E2.59634
G1 X2.944 Y23.257 E0.03575
G1 X3.288 Y22.604 E0.03682
G1 X3.799 Y22.192 E0.03275
G1 X4.405 Y21.891 E0.03376
G1 X5 Y21.8 E0.03003
G1 X95.041 Y21.8 E4.49216
G1 X95.743 Y21.944 E0.03575
G1 X96.396 Y22.288 E0.03682
G1 X96.808 Y22.799 E0.03275
G1 X97.109 Y23.405 E0.03376
G1 X97.2 Y24 E0.03003
G1 X97.2 Y76.041 E2.59634
G1 X97.056 Y76.743 E0.03575
G1 X96.712 Y77.396 E0.03682
G1 X96.201 Y77.808 E0.03275
G1 X95.595 Y78.109 E0.03376
G1 X95 Y78.2 E0.03003
G1 X4.959 Y78.2 E4.49216
G1 X4.257 Y78.056 E0.03575
G1 X3.604 Y77.712 E0.03682
G1 X3.192 Y77.201 E0.03275
G1 X2.891 Y76.595 E0.03376
G0 F3600 X3.277 Y76.474
G1 F1800 X3.2 Y76 E0.02396
G1 X3.2 Y24 E2.59429
G1 X3.324 Y23.394 E0.03086
G1 X3.605 Y22.862 E0.03002
G1 X3.977 Y22.55 E0.02422
G1 X4.526 Y22.277 E0.03059
G1 X5 Y22.2 E0.02396
G1 X95 Y22.2 E4.49012
G1 X95.606 Y22.324 E0.03086
G1 X96.138 Y22.605 E0.03002
G1 X96.45 Y22.977 E0.02422
G1 X96.723 Y23.526 E0.03059
G1 X96.8 Y24 E0.02396
G1 X96.8 Y76 E2.59429
G1 X96.676 Y76.606 E0.03086
G1 X96.395 Y77.138 E0.03002
G1 X96.023 Y77.45 E0.02422
G1 X95.474 Y77.723 E0.03059
G1 X95 Y77.8 E0.02396
G1 X5 Y77.8 E4.49012
G1 X4.394 Y77.676 E0.03086
G1 X3.862 Y77.395 E0.03002
G1 X3.55 Y77.023 E0.02422
G1 X3.277 Y76.474 E0.03059
G0 F3600 X3.662 Y76.351
G1 F1800 X3.908 Y76.845 E0.02753
G1 X4.117 Y77.077 E0.01558
G1 X4.581 Y77.322 E0.02618
G1 X5 Y77.4 E0.02126
G1 X95 Y77.4 E4.49012
G1 X95.351 Y77.338 E0.01778
G1 X95.845 Y77.092 E0.02753
G1 X96.077 Y76.883 E0.01558
G1 X96.322 Y76.419 E0.02618
G1 X96.4 Y76 E0.02126
G1 X96.4 Y24 E2.59429
G1 X96.338 Y23.649 E0.01778
G1 X96.092 Y23.155 E0.02753
G1 X95.883 Y22.923 E0.01558
G1 X95.419 Y22.678 E0.02618
G1 X95 Y22.6 E0.02126
G1 X5 Y22.6 E4.49012
G1 X4.649 Y22.662 E0.01778
G1 X4.155 Y22.908 E0.02753
G1 X3.923 Y23.117 E0.01558
G1 X3.678 Y23.581 E0.02618
G1 X3.6 Y24 E0.02126
G1 X3.6 Y76 E2.59429
G1 X3.662 Y76.351 E0.01778
G0 F3600 X4.054 Y76.273
G1 F1800 X4 Y76 E0.01388
G1 X4 Y24 E2.59429
G1 X4.07 Y23.662 E0.01722
G1 X4.207 Y23.399 E0.01479
G1 X4.345 Y23.26 E0.00977
G1 X4.727 Y23.054 E0.02165
G1 X5 Y23 E0.01388
G1 X95 Y23 E4.49012
G1 X95.338 Y23.07 E0.01722
G1 X95.601 Y23.207 E0.01479
G1 X95.74 Y23.345 E0.00977
G1 X95.946 Y23.727 E0.02165
G1 X96 Y24 E0.01388
G1 X96 Y76 E2.59429
G1 X95.93 Y76.338 E0.01722
G1 X95.793 Y76.601 E0.01479
G1 X95.655 Y76.74 E0.00977
G1 X95.273 Y76.946 E0.02165
G1 X95 Y77 E0.01388
G1 X5 Y77 E4.49012
G1 X4.662 Y76.93 E0.01722
G1 X4.399 Y76.793 E0.01479
G1 X4.26 Y76.655 E0.00977
G1 X4.054 Y76.273 E0.02165
G0 F3600 X4.8 Y76
G1 F1800 X4.8 Y24 E2.59429
G1 X4.839 Y23.881 E0.00625
G1 X5 Y23.8 E0.00899
G1 X95 Y23.8 E4.49012
G1 X95.119 Y23.839 E0.00625
G1 X95.2 Y24 E0.00899
G1 X95.2 Y76 E2.59429
G1 X95.161 Y76.119 E0.00625
G1 X95 Y76.2 E0.00899
G1 X5 Y76.2 E4.49012
G1 X4.881 Y76.161 E0.00625
G1 X4.8 Y76 E0.00899
G0 F3600 X4.443 Y76.18
G1 F1800 X4.4 Y76 E0.00923
G1 X4.4 Y24 E2.59429
G1 X4.459 Y23.756 E0.01252
G1 X4.55 Y23.604 E0.00884
G1 X4.82 Y23.443 E0.01568
G1 X5 Y23.4 E0.00923
G1 X95 Y23.4 E4.49012
G1 X95.244 Y23.459 E0.01252
G1 X95.396 Y23.55 E0.00884
G1 X95.557 Y23.82 E0.01568
G1 X95.6 Y24 E0.00923
G1 X95.6 Y76 E2.59429
G1 X95.541 Y76.244 E0.01252
G1 X95.45 Y76.396 E0.00884
G1 X95.18 Y76.557 E0.01568
G1 X95 Y76.6 E0.00923
G1 X5 Y76.6 E4.49012
G1 X4.756 Y76.541 E0.01252
G1 X4.604 Y76.45 E0.00884
G1 X4.443 Y76.18 E0.01568
G1 F1500 E-6.5
;MESH:timinoo_borderplate01.stl
G0 F3600 X5.6 Y75.36
G0 X94.426 Y24.556
;TYPE:WALL-INNER
G1 F1500 E6.5
G1 F1818.2 X94.353 Y24.598 E0.00416
G1 X94.426 Y24.64 E0.00416
G1 X94.451 Y24.598 E0.00241
G0 F3600 X94.75 Y25.04
;TYPE:WALL-OUTER
G1 F1600 X94.8 Y24.2 E0.04723
G1 F1800 X94.402 Y24.2 E0.01986
G1 F1565.2 X94 Y24.26 E0.02332
G1 F1384.6 X64.637 Y24.26 E1.9044
G1 F1379.3 X35.274 Y24.261 E1.91173
G1 F1374 X5.911 Y24.261 E1.91905
G1 F1283.4 X5.299 Y24.299 E0.0429
G1 F1313.9 X5.25 Y25.04 E0.05076
G1 F1437.1 X5.251 Y50.044 E1.56244
G1 F1431.4 X5.252 Y75.048 E1.56867
G1 F1306.7 X5.299 Y75.701 E0.04499
G1 F1290.3 X6 Y75.74 E0.04886
G1 F1384.6 X35.363 Y75.74 E1.9044
G1 F1379.3 X64.726 Y75.739 E1.91173
G1 F1374 X94.089 Y75.739 E1.91905
G1 F1283.4 X94.701 Y75.701 E0.0429
G1 F1309.1 X94.749 Y75.047 E0.04498
G1 F1437.1 X94.75 Y25.04 E3.12481
G0 F3600 X94.761 Y24.841
G0 X94.5 Y24.841
G0 X94.428 Y75.388
G0 X94.201 Y75.181
G1 F1283.4 X94.045 Y75.219 E0.01123
G1 F1374 X64.697 Y75.219 E1.91807
G1 F1379.3 X35.349 Y75.219 E1.91075
G1 F1384.6 X6.001 Y75.219 E1.90343
G1 F1290.3 X5.799 Y75.181 E0.01431
G1 F1306.7 X5.751 Y75.004 E0.0126
G1 F1431.4 X5.751 Y50.022 E1.56729
G1 F1437.1 X5.75 Y25.04 E1.56106
G1 F1313.9 X5.799 Y24.819 E0.01547
G1 F1283.4 X5.955 Y24.781 E0.01123
G1 F1374 X35.303 Y24.781 E1.91807
G1 F1379.3 X64.651 Y24.781 E1.91075
G1 F1384.6 X93.999 Y24.781 E1.90343
G1 F1411.8 X94.25 Y25.04 E0.02294
G1 F1437.1 X94.249 Y75.004 E3.12212
G1 F1309.1 X94.201 Y75.181 E0.01258
G0 F3600 X94.045 Y75.219
G0 X94.006 Y75.219
;MESH:NONMESH
G0 F600 X94.006 Y75.219 Z0.45
G0 F3600 X94.006 Y75.46
G0 X94.47 Y24.57
G0 X94.426 Y24.556
;TIME_ELAPSED:210.009536
;LAYER:1
M106 S255
;TYPE:WALL-INNER
;MESH:timinoo_borderplate01.stl
G1 F3333.3 X94.353 Y24.598 E0.00208
G1 X94.426 Y24.64 E0.00208
G1 X94.451 Y24.598 E0.00121
G0 F5400 X94.75 Y25.04
;TYPE:WALL-OUTER
G1 F1866.7 X94.8 Y24.2 E0.02361
G1 F2100 X94.402 Y24.2 E0.00993
G1 F1826.1 X94 Y24.26 E0.01166
G1 F1615.4 X64.637 Y24.26 E0.9522
G1 F1609.2 X35.274 Y24.261 E0.95586
G1 F1603.1 X5.911 Y24.261 E0.95953
G1 F1497.3 X5.299 Y24.299 E0.02145
G1 F1532.8 X5.25 Y25.04 E0.02538
G1 F1676.6 X5.251 Y50.044 E0.78122
G1 F1670 X5.252 Y75.048 E0.78434
G1 F1524.5 X5.299 Y75.701 E0.0225
G1 F1505.4 X6 Y75.74 E0.02443
G1 F1615.4 X35.363 Y75.74 E0.9522
G1 F1609.2 X64.726 Y75.739 E0.95586
G1 F1603.1 X94.089 Y75.739 E0.95953
G1 F1497.3 X94.701 Y75.701 E0.02145
G1 F1527.3 X94.749 Y75.047 E0.02249
G1 F1676.6 X94.75 Y25.04 E1.56241
G0 F5400 X94.761 Y24.841
G0 X94.5 Y24.841
G0 X94.428 Y75.388
G0 X94.201 Y75.181
G1 F1497.3 X94.045 Y75.219 E0.00562
G1 F1603.1 X64.697 Y75.219 E0.95904
G1 F1609.2 X35.349 Y75.219 E0.95538
G1 F1615.4 X6.001 Y75.219 E0.95172
G1 F1505.4 X5.799 Y75.181 E0.00715
G1 F1524.5 X5.751 Y75.004 E0.0063
G1 F1670 X5.751 Y50.022 E0.78365
G1 F1676.6 X5.75 Y25.04 E0.78053
G1 F1532.8 X5.799 Y24.819 E0.00774
G1 F1497.3 X5.955 Y24.781 E0.00562
G1 F1603.1 X35.303 Y24.781 E0.95904
G1 F1609.2 X64.651 Y24.781 E0.95538
G1 F1615.4 X93.999 Y24.781 E0.95172
