;FLAVOR:RepRap
;TIME:4712
;Filament used: 5.39127m
;Layer height: 0.15
;MINX:0
;MINY:17.2
;MINZ:0.3
;MAXX:100
;MAXY:82.8
;MAXZ:30
;TARGET_MACHINE.NAME:Unknown
;Generated with Cura_SteamEngine 5.7.2
T0
M104 S200
M109 S200
M82 ;absolute extrusion mode
G28 ;Home
G1 Z15.0 F6000 ;Move the platform down 15mm
G92 E0
M83 ;relative extrusion mode
G1 F1500 E-6.5
;LAYER_COUNT:199
;LAYER:0
M107
G0 F3600 X0.00 Y19.063 Z0.3
;TYPE:SKIRT
G1 F1500 E6.5
G1 F1800 X0.754 Y18.455 E0.04832
G1 X2.721 Y17.474 E0.10966
G1 X4.246 Y17.252 E0.07688
G1 X95.622 Y17.2 E4.55877
G1 X97.679 Y17.622 E0.10476
G1 X99.45 Y18.617 E0.10135
G1 X100 Y19.042 E0.03468
G0 F3600 X100 Y19.548
G1 F1800 X99.205 Y18.933 E0.05015
G1 X97.538 Y18.002 E0.09526
G1 X95.581 Y17.6 E0.09967
G1 X4.304 Y17.648 E4.55383
G1 X2.842 Y17.861 E0.07371
G1 X0.969 Y18.795 E0.10442
G1 X0.00 Y19.576 E0.06209
G0 F3600 X0.00 Y20.089
G1 F1800 X1.185 Y19.134 E0.07593
G1 X2.962 Y18.248 E0.09906
G1 X4.362 Y18.044 E0.07058
G1 X95.539 Y18 E4.54884
G1 X97.397 Y18.382 E0.09463
G1 X98.96 Y19.249 E0.08917
G1 X99.884 Y19.964 E0.05829
G1 X100 Y20.108 E0.00923
G0 F3600 X100 Y20.745
G1 F1800 X99.602 Y20.251 E0.03165
G1 X98.766 Y19.599 E0.05289
G1 X97.257 Y18.762 E0.08609
G1 X95.497 Y18.4 E0.08964
G1 X4.42 Y18.44 E4.54385
G1 X3.082 Y18.635 E0.06746
G1 X1.401 Y19.473 E0.09371
G1 X0.248 Y20.402 E0.07387
G1 X0.00 Y20.72 E0.02012
G0 F3600 X0.00 Y21.37
G1 F1800 X0.535 Y20.684 E0.0434
G1 X1.617 Y19.812 E0.06933
G1 X3.202 Y19.022 E0.08835
G1 X4.478 Y18.836 E0.06433
G1 X95.455 Y18.8 E4.53886
G1 X97.117 Y19.142 E0.08465
G1 X98.572 Y19.949 E0.08301
G1 X99.317 Y20.535 E0.04729
G1 X100 Y21.384 E0.05436
G0 F3600 X100 Y22.138
G1 F1800 X99.849 Y21.835 E0.01689
G1 X99.032 Y20.82 E0.06501
G1 X98.378 Y20.299 E0.04172
G1 X96.977 Y19.522 E0.07993
G1 X95.413 Y19.2 E0.07966
G1 X4.536 Y19.232 E4.53387
G1 X3.323 Y19.409 E0.06116
G1 X1.835 Y20.151 E0.08295
G1 X0.819 Y20.969 E0.06508
G1 X0.261 Y21.678 E0.04501
G1 X0.00 Y22.153 E0.02704
G0 F3600 X0.00 Y22.984
G1 F1800 X0.612 Y21.871 E0.06337
G1 X1.104 Y21.254 E0.03937
G1 X2.055 Y20.488 E0.06092
G1 X3.443 Y19.796 E0.07738
G1 X4.594 Y19.628 E0.05803
G1 X95.371 Y19.6 E4.52888
G1 X96.838 Y19.902 E0.07472
G1 X98.129 Y20.612 E0.07351
G1 X98.746 Y21.104 E0.03937
G1 X99.512 Y22.055 E0.06092
G1 X100 Y23.034 E0.05457
G1 F1500 E-6.5
G0 F3600 X100 Y80.937
G1 F1500 E6.5
G1 F1800 X99.246 Y81.545 E0.04832
G1 X97.279 Y82.526 E0.10966
G1 X95.754 Y82.748 E0.07688
G1 X4.378 Y82.8 E4.55877
G1 X2.321 Y82.378 E0.10476
G1 X0.55 Y81.383 E0.10135
G1 X0.00 Y80.958 E0.03468
G0 F3600 X0.00 Y80.452
G1 F1800 X0.795 Y81.067 E0.05015
G1 X2.462 Y81.998 E0.09526
G1 X4.419 Y82.4 E0.09967
G1 X95.696 Y82.352 E4.55383
G1 X97.158 Y82.139 E0.07371
G1 X99.031 Y81.205 E0.10442
G1 X100 Y80.424 E0.06209
G0 F3600 X100 Y79.911
G1 F1800 X98.815 Y80.866 E0.07593
G1 X97.038 Y81.752 E0.09906
G1 X95.638 Y81.956 E0.07058
G1 X4.461 Y82 E4.54884
G1 X2.603 Y81.618 E0.09463
G1 X1.04 Y80.751 E0.08917
G1 X0.116 Y80.036 E0.05829
G1 X0.00 Y79.892 E0.00923
G0 F3600 X0.00 Y79.255
G1 F1800 X0.398 Y79.749 E0.03165
G1 X1.234 Y80.401 E0.05289
G1 X2.743 Y81.238 E0.08609
G1 X4.503 Y81.6 E0.08964
G1 X95.58 Y81.56 E4.54385
G1 X96.918 Y81.365 E0.06746
G1 X98.599 Y80.527 E0.09371
G1 X99.752 Y79.598 E0.07387
G1 X100 Y79.28 E0.02012
G0 F3600 X100 Y78.63
G1 F1800 X99.465 Y79.316 E0.0434
G1 X98.383 Y80.188 E0.06933
G1 X96.798 Y80.978 E0.08835
G1 X95.522 Y81.164 E0.06433
G1 X4.545 Y81.2 E4.53886
G1 X2.883 Y80.858 E0.08465
G1 X1.428 Y80.051 E0.08301
G1 X0.683 Y79.465 E0.04729
G1 X0.00 Y78.616 E0.05436
G0 F3600 X0.00 Y77.862
G1 F1800 X0.151 Y78.165 E0.01689
G1 X0.968 Y79.18 E0.06501
G1 X1.622 Y79.701 E0.04172
G1 X3.023 Y80.478 E0.07993
G1 X4.587 Y80.8 E0.07966
G1 X95.464 Y80.768 E4.53387
G1 X96.677 Y80.591 E0.06116
G1 X98.165 Y79.849 E0.08295
G1 X99.181 Y79.031 E0.06508
G1 X99.739 Y78.322 E0.04501
G1 X100 Y77.847 E0.02704
G0 F3600 X100 Y77.016
G1 F1800 X99.388 Y78.129 E0.06337
G1 X98.896 Y78.746 E0.03937
G1 X97.945 Y79.512 E0.06092
G1 X96.557 Y80.204 E0.07738
G1 X95.406 Y80.372 E0.05803
G1 X4.629 Y80.4 E4.52888
G1 X3.162 Y80.098 E0.07472
G1 X1.871 Y79.388 E0.07351
G1 X1.254 Y78.896 E0.03937
G1 X0.488 Y77.945 E0.06092
G1 X0.00 Y76.966 E0.05457
G0 F3600 X0.183 Y76.437
G1 F1800 X0.024 Y75.348 E0.05491
G1 X0.00 Y24.671 E2.52829
G1 X0.282 Y23.3 E0.06983
G1 X0.925 Y22.12 E0.06704
G1 X1.39 Y21.537 E0.0372
G1 X2.271 Y20.827 E0.05645
G1 X3.563 Y20.183 E0.07202
G1 X4.652 Y20.024 E0.05491
G1 X95.329 Y20 E4.52389
G1 X96.7 Y20.282 E0.06983
G1 X97.88 Y20.925 E0.06704
G1 X98.463 Y21.39 E0.0372
G1 X99.173 Y22.271 E0.05645
G1 X99.817 Y23.563 E0.07202
G1 X99.976 Y24.652 E0.05491
G1 X100 Y75.329 E2.52829
G1 X99.718 Y76.7 E0.06983
G1 X99.075 Y77.88 E0.06704
G1 X98.61 Y78.463 E0.0372
G1 X97.729 Y79.173 E0.05645
G1 X96.437 Y79.817 E0.07202
G1 X95.348 Y79.976 E0.05491
G1 X4.671 Y80 E4.52389
G1 X3.3 Y79.718 E0.06983
G1 X2.12 Y79.075 E0.06704
G1 X1.537 Y78.61 E0.0372
G1 X0.827 Y77.729 E0.05645
G1 X0.183 Y76.437 E0.07202
G0 F3600 X0.57 Y76.317
G1 F1800 X0.42 Y75.29 E0.05178
G1 X0.4 Y24.713 E2.5233
G1 X0.662 Y23.438 E0.06494
G1 X1.238 Y22.369 E0.06058
G1 X1.674 Y21.822 E0.0349
G1 X2.491 Y21.164 E0.05234
G1 X3.683 Y20.57 E0.06644
G1 X4.71 Y20.42 E0.05178
G1 X95.287 Y20.4 E4.5189
G1 X96.562 Y20.662 E0.06494
G1 X97.631 Y21.238 E0.06058
G1 X98.178 Y21.674 E0.0349
G1 X98.836 Y22.491 E0.05234
G1 X99.43 Y23.683 E0.06644
G1 X99.58 Y24.71 E0.05178
G1 X99.6 Y75.287 E2.5233
G1 X99.338 Y76.562 E0.06494
G1 X98.762 Y77.631 E0.06058
G1 X98.326 Y78.178 E0.0349
G1 X97.509 Y78.836 E0.05234
G1 X96.317 Y79.43 E0.06644
G1 X95.29 Y79.58 E0.05178
G1 X4.713 Y79.6 E4.5189
G1 X3.438 Y79.338 E0.06494
G1 X2.369 Y78.762 E0.06058
G1 X1.822 Y78.326 E0.0349
G1 X1.164 Y77.509 E0.05234
G1 X0.57 Y76.317 E0.06644
G0 F3600 X0.957 Y76.197
G1 F1800 X0.816 Y75.232 E0.04866
G1 X0.8 Y24.754 E2.51836
G1 X1.042 Y23.576 E0.06
G1 X1.59 Y22.559 E0.05764
G1 X1.956 Y22.109 E0.02894
G1 X2.711 Y21.501 E0.04836
G1 X3.803 Y20.957 E0.06087
G1 X4.768 Y20.816 E0.04866
G1 X95.246 Y20.8 E4.51397
G1 X96.424 Y21.042 E0.06
G1 X97.441 Y21.59 E0.05764
G1 X97.891 Y21.956 E0.02894
G1 X98.499 Y22.711 E0.04836
G1 X99.043 Y23.803 E0.06087
G1 X99.184 Y24.768 E0.04866
G1 X99.2 Y75.246 E2.51836
G1 X98.958 Y76.424 E0.06
G1 X98.41 Y77.441 E0.05764
G1 X98.044 Y77.891 E0.02894
G1 X97.289 Y78.499 E0.04836
G1 X96.197 Y79.043 E0.06087
G1 X95.232 Y79.184 E0.04866
G1 X4.754 Y79.2 E4.51397
G1 X3.576 Y78.958 E0.06
G1 X2.559 Y78.41 E0.05764
G1 X2.109 Y78.044 E0.02894
G1 X1.501 Y77.289 E0.04836
G1 X0.957 Y76.197 E0.06087
G0 F3600 X1.344 Y76.077
G1 F1800 X1.212 Y75.174 E0.04553
G1 X1.2 Y24.795 E2.51342
G1 X1.422 Y23.714 E0.05506
G1 X1.905 Y22.806 E0.05131
G1 X2.207 Y22.421 E0.02441
G1 X2.931 Y21.838 E0.04638
G1 X3.923 Y21.344 E0.05529
G1 X4.826 Y21.212 E0.04553
G1 X95.205 Y21.2 E4.50903
G1 X96.286 Y21.422 E0.05506
G1 X97.194 Y21.905 E0.05131
G1 X97.579 Y22.207 E0.02441
G1 X98.162 Y22.931 E0.04638
G1 X98.656 Y23.923 E0.05529
G1 X98.788 Y24.826 E0.04553
G1 X98.8 Y75.205 E2.51342
G1 X98.578 Y76.286 E0.05506
G1 X98.095 Y77.194 E0.05131
G1 X97.793 Y77.579 E0.02441
G1 X97.069 Y78.162 E0.04638
G1 X96.077 Y78.656 E0.05529
G1 X95.174 Y78.788 E0.04553
G1 X4.795 Y78.8 E4.50903
G1 X3.714 Y78.578 E0.05506
G1 X2.806 Y78.095 E0.05131
G1 X2.421 Y77.793 E0.02441
G1 X1.838 Y77.069 E0.04638
G1 X1.344 Y76.077 E0.05529
G0 F3600 X1.731 Y75.957
G1 F1800 X1.608 Y75.116 E0.0424
G1 X1.6 Y24.836 E2.50848
G1 X1.802 Y23.85 E0.05021
G1 X2.226 Y23.045 E0.04539
G1 X2.458 Y22.733 E0.0194
G1 X3.151 Y22.175 E0.04439
G1 X4.043 Y21.731 E0.04971
G1 X4.884 Y21.608 E0.0424
G1 X95.164 Y21.6 E4.50409
G1 X96.15 Y21.802 E0.05021
G1 X96.955 Y22.226 E0.04539
G1 X97.267 Y22.458 E0.0194
G1 X97.825 Y23.151 E0.04439
G1 X98.269 Y24.043 E0.04971
G1 X98.392 Y24.884 E0.0424
G1 X98.4 Y75.164 E2.50848
G1 X98.198 Y76.15 E0.05021
G1 X97.774 Y76.955 E0.04539
G1 X97.542 Y77.267 E0.0194
G1 X96.849 Y77.825 E0.04439
G1 X95.957 Y78.269 E0.04971
G1 X95.116 Y78.392 E0.0424
G1 X4.836 Y78.4 E4.50409
G1 X3.85 Y78.198 E0.05021
G1 X3.045 Y77.774 E0.04539
G1 X2.733 Y77.542 E0.0194
G1 X2.175 Y76.849 E0.04439
G1 X1.731 Y75.957 E0.04971
G0 F3600 X2.118 Y75.837
G1 F1800 X2.004 Y75.058 E0.03928
G1 X2 Y24.877 E2.50354
G1 X2.182 Y23.987 E0.04532
G1 X2.58 Y23.232 E0.04258
G1 X2.749 Y23.012 E0.01384
G1 X3.367 Y22.514 E0.0396
G1 X4.163 Y22.118 E0.04436
G1 X4.942 Y22.004 E0.03928
G1 X95.123 Y22 E4.49915
G1 X96.013 Y22.182 E0.04532
G1 X96.768 Y22.58 E0.04258
G1 X96.988 Y22.749 E0.01384
G1 X97.486 Y23.367 E0.0396
G1 X97.882 Y24.163 E0.04436
G1 X97.996 Y24.942 E0.03928
G1 X98 Y75.123 E2.50354
G1 X97.818 Y76.013 E0.04532
G1 X97.42 Y76.768 E0.04258
G1 X97.251 Y76.988 E0.01384
G1 X96.633 Y77.486 E0.0396
G1 X95.837 Y77.882 E0.04436
G1 X95.058 Y77.996 E0.03928
G1 X4.877 Y78 E4.49915
G1 X3.987 Y77.818 E0.04532
G1 X3.232 Y77.42 E0.04258
G1 X3.012 Y77.251 E0.01384
G1 X2.514 Y76.633 E0.0396
G1 X2.118 Y75.837 E0.04436
G0 F3600 X2.505 Y75.717
G1 F1800 X2.4 Y75 E0.03615
G1 X2.4 Y24.918 E2.4986
G1 X2.563 Y24.122 E0.04054
G1 X2.934 Y23.418 E0.0397
G1 X3.037 Y23.293 E0.00808
G1 X3.583 Y22.853 E0.03498
G1 X4.283 Y22.505 E0.039
G1 X5 Y22.4 E0.03615
G1 X95.082 Y22.4 E4.49421
G1 X95.878 Y22.563 E0.04054
G1 X96.582 Y22.934 E0.0397
G1 X96.707 Y23.037 E0.00808
G1 X97.147 Y23.583 E0.03498
G1 X97.495 Y24.283 E0.039
G1 X97.6 Y25 E0.03615
G1 X97.6 Y75.082 E2.4986
G1 X97.437 Y75.878 E0.04054
G1 X97.066 Y76.582 E0.0397
G1 X96.963 Y76.707 E0.00808
G1 X96.417 Y77.147 E0.03498
G1 X95.717 Y77.495 E0.039
G1 X95 Y77.6 E0.03615
G1 X4.918 Y77.6 E4.49421
G1 X4.122 Y77.437 E0.04054
G1 X3.418 Y77.066 E0.0397
G1 X3.293 Y76.963 E0.00808
G1 X2.853 Y76.417 E0.03498
G1 X2.505 Y75.717 E0.039
G0 F3600 X2.891 Y75.595
G1 F1800 X2.8 Y75 E0.03003
G1 X2.8 Y24.959 E2.49656
G1 X2.944 Y24.257 E0.03575
G1 X3.288 Y23.604 E0.03682
G1 X3.799 Y23.192 E0.03275
G1 X4.405 Y22.891 E0.03376
G1 X5 Y22.8 E0.03003
G1 X95.041 Y22.8 E4.49216
G1 X95.743 Y22.944 E0.03575
G1 X96.396 Y23.288 E0.03682
G1 X96.808 Y23.799 E0.03275
G1 X97.109 Y24.405 E0.03376
G1 X97.2 Y25 E0.03003
G1 X97.2 Y75.041 E2.49656
G1 X97.056 Y75.743 E0.03575
G1 X96.712 Y76.396 E0.03682
G1 X96.201 Y76.808 E0.03275
G1 X95.595 Y77.109 E0.03376
G1 X95 Y77.2 E0.03003
G1 X4.959 Y77.2 E4.49216
G1 X4.257 Y77.056 E0.03575
G1 X3.604 Y76.712 E0.03682
G1 X3.192 Y76.201 E0.03275
G1 X2.891 Y75.595 E0.03376
G0 F3600 X3.277 Y75.474
G1 F1800 X3.2 Y75 E0.02396
G1 X3.2 Y25 E2.49451
G1 X3.324 Y24.394 E0.03086
G1 X3.605 Y23.862 E0.03002
G1 X3.977 Y23.55 E0.02422
G1 X4.526 Y23.277 E0.03059
G1 X5 Y23.2 E0.02396
G1 X95 Y23.2 E4.49012
G1 X95.606 Y23.324 E0.03086
G1 X96.138 Y23.605 E0.03002
G1 X96.45 Y23.977 E0.02422
G1 X96.723 Y24.526 E0.03059
G1 X96.8 Y25 E0.02396
G1 X96.8 Y75 E2.49451
G1 X96.676 Y75.606 E0.03086
G1 X96.395 Y76.138 E0.03002
G1 X96.023 Y76.45 E0.02422
G1 X95.474 Y76.723 E0.03059
G1 X95 Y76.8 E0.02396
G1 X5 Y76.8 E4.49012
G1 X4.394 Y76.676 E0.03086
G1 X3.862 Y76.395 E0.03002
G1 X3.55 Y76.023 E0.02422
G1 X3.277 Y75.474 E0.03059
G0 F3600 X3.662 Y75.351
G1 F1800 X3.908 Y75.845 E0.02753
G1 X4.117 Y76.077 E0.01558
G1 X4.581 Y76.322 E0.02618
G1 X5 Y76.4 E0.02126
G1 X95 Y76.4 E4.49012
G1 X95.351 Y76.338 E0.01778
G1 X95.845 Y76.092 E0.02753
G1 X96.077 Y75.883 E0.01558
G1 X96.322 Y75.419 E0.02618
G1 X96.4 Y75 E0.02126
G1 X96.4 Y25 E2.49451
G1 X96.338 Y24.649 E0.01778
G1 X96.092 Y24.155 E0.02753
G1 X95.883 Y23.923 E0.01558
G1 X95.419 Y23.678 E0.02618
G1 X95 Y23.6 E0.02126
G1 X5 Y23.6 E4.49012
G1 X4.649 Y23.662 E0.01778
G1 X4.155 Y23.908 E0.02753
G1 X3.923 Y24.117 E0.01558
G1 X3.678 Y24.581 E0.02618
G1 X3.6 Y25 E0.02126
G1 X3.6 Y75 E2.49451
G1 X3.662 Y75.351 E0.01778
G0 F3600 X4.054 Y75.273
G1 F1800 X4 Y75 E0.01388
G1 X4 Y25 E2.49451
G1 X4.07 Y24.662 E0.01722
G1 X4.207 Y24.399 E0.01479
G1 X4.345 Y24.26 E0.00977
G1 X4.727 Y24.054 E0.02165
G1 X5 Y24 E0.01388
G1 X95 Y24 E4.49012
G1 X95.338 Y24.07 E0.01722
G1 X95.601 Y24.207 E0.01479
G1 X95.74 Y24.345 E0.00977
G1 X95.946 Y24.727 E0.02165
G1 X96 Y25 E0.01388
G1 X96 Y75 E2.49451
G1 X95.93 Y75.338 E0.01722
G1 X95.793 Y75.601 E0.01479
G1 X95.655 Y75.74 E0.00977
G1 X95.273 Y75.946 E0.02165
G1 X95 Y76 E0.01388
G1 X5 Y76 E4.49012
G1 X4.662 Y75.93 E0.01722
G1 X4.399 Y75.793 E0.01479
G1 X4.26 Y75.655 E0.00977
G1 X4.054 Y75.273 E0.02165
G0 F3600 X4.8 Y75
G1 F1800 X4.8 Y25 E2.49451
G1 X4.839 Y24.881 E0.00625
G1 X5 Y24.8 E0.00899
G1 X95 Y24.8 E4.49012
G1 X95.119 Y24.839 E0.00625
G1 X95.2 Y25 E0.00899
G1 X95.2 Y75 E2.49451
G1 X95.161 Y75.119 E0.00625
G1 X95 Y75.2 E0.00899
G1 X5 Y75.2 E4.49012
G1 X4.881 Y75.161 E0.00625
G1 X4.8 Y75 E0.00899
G0 F3600 X4.443 Y75.18
G1 F1800 X4.4 Y75 E0.00923
G1 X4.4 Y25 E2.49451
G1 X4.459 Y24.756 E0.01252
G1 X4.55 Y24.604 E0.00884
G1 X4.82 Y24.443 E0.01568
G1 X5 Y24.4 E0.00923
G1 X95 Y24.4 E4.49012
G1 X95.244 Y24.459 E0.01252
G1 X95.396 Y24.55 E0.00884
G1 X95.557 Y24.82 E0.01568
G1 X95.6 Y25 E0.00923
G1 X95.6 Y75 E2.49451
G1 X95.541 Y75.244 E0.01252
G1 X95.45 Y75.396 E0.00884
G1 X95.18 Y75.557 E0.01568
G1 X95 Y75.6 E0.00923
G1 X5 Y75.6 E4.49012
G1 X4.756 Y75.541 E0.01252
G1 X4.604 Y75.45 E0.00884
G1 X4.443 Y75.18 E0.01568
G1 F1500 E-6.5
;MESH:timinoo_borderplate01.stl
G0 F3600 X5.6 Y74.4
G0 X94.436 Y25.547
;TYPE:WALL-INNER
G1 F1500 E6.5
G1 F1935.5 X94.368 Y25.586 E0.00364
G1 X94.437 Y25.625 E0.00368
G1 X94.46 Y25.586 E0.0021
G0 F3600 X94.75 Y26
;TYPE:WALL-OUTER
G1 F1600 X94.8 Y25.2 E0.04499
G1 X94 Y25.25 E0.04499
G1 F1440 X64.638 Y25.25 E1.8311
G1 F1434.3 X35.276 Y25.251 E1.83842
G1 F1428.6 X5.914 Y25.251 E1.84574
G1 F1321.1 X5.293 Y25.293 E0.04231
G1 F1328.4 X5.25 Y26 E0.04788
G1 F1437.1 X5.251 Y50.044 E1.50245
G1 F1431.4 X5.252 Y74.088 E1.50845
G1 F1321.1 X5.293 Y74.707 E0.04217
G1 F1328.4 X6 Y74.75 E0.04788
G1 F1440 X35.362 Y74.75 E1.8311
G1 F1434.3 X64.724 Y74.749 E1.83842
G1 F1428.6 X94.086 Y74.749 E1.84574
G1 F1321.1 X94.707 Y74.707 E0.04231
G1 F1323.5 X94.749 Y74.087 E0.04216
G1 F1437.1 X94.75 Y26 E3.00484
G0 F3600 X94.762 Y25.801
G0 X94.5 Y25.801
G0 X94.5 Y74.207
G0 X94.207 Y74.207
G1 F1321.1 X94.044 Y74.249 E0.01144
G1 F1428.6 X64.696 Y74.249 E1.84486
G1 F1434.3 X35.348 Y74.249 E1.83754
G1 F1440 X6 Y74.25 E1.83022
G1 F1328.4 X5.793 Y74.207 E0.01429
G1 F1321.1 X5.751 Y74.044 E0.01144
G1 F1431.4 X5.751 Y50.022 E1.50707
G1 F1437.1 X5.75 Y26 E1.50107
G1 F1328.4 X5.793 Y25.793 E0.01429
G1 F1321.1 X5.956 Y25.751 E0.01144
G1 F1428.6 X35.304 Y25.751 E1.84486
G1 F1434.3 X64.652 Y25.751 E1.83754
G1 F1440 X94 Y25.75 E1.83022
G1 X94.25 Y26 E0.02205
G1 F1437.1 X94.249 Y74.044 E3.00215
G1 F1323.5 X94.207 Y74.207 E0.01142
G0 F3600 X94.044 Y74.249
G0 X94.012 Y74.249
;MESH:NONMESH
G0 F600 X94.012 Y74.249 Z0.45
G0 F3600 X94.012 Y74.5
G0 X94.47 Y25.53
G0 X94.436 Y25.547
;TIME_ELAPSED:207.250968
;LAYER:1
M106 S255
;TYPE:WALL-INNER
;MESH:timinoo_borderplate01.stl
G1 F3548.4 X94.368 Y25.586 E0.00182
G1 X94.437 Y25.625 E0.00184
G1 X94.46 Y25.586 E0.00105
G0 F5400 X94.75 Y26
;TYPE:WALL-OUTER
G1 F1866.7 X94.8 Y25.2 E0.02249
G1 X94 Y25.25 E0.02249
G1 F1680 X64.638 Y25.25 E0.91555
G1 F1673.3 X35.276 Y25.251 E0.91921
G1 F1666.7 X5.914 Y25.251 E0.92287
G1 F1541.3 X5.293 Y25.293 E0.02115
G1 F1549.8 X5.25 Y26 E0.02394
G1 F1676.6 X5.251 Y50.044 E0.75122
G1 F1670 X5.252 Y74.088 E0.75422
G1 F1541.3 X5.293 Y74.707 E0.02108
G1 F1549.8 X6 Y74.75 E0.02394
G1 F1680 X35.362 Y74.75 E0.91555
G1 F1673.3 X64.724 Y74.749 E0.91921
G1 F1666.7 X94.086 Y74.749 E0.92287
G1 F1541.3 X94.707 Y74.707 E0.02115
G1 F1544.1 X94.749 Y74.087 E0.02108
G1 F1676.6 X94.75 Y26 E1.50242
G0 F5400 X94.762 Y25.801
G0 X94.5 Y25.801
G0 X94.5 Y74.207
G0 X94.207 Y74.207
G1 F1541.3 X94.044 Y74.249 E0.00572
G1 F1666.7 X64.696 Y74.249 E0.92243
G1 F1673.3 X35.348 Y74.249 E0.91877
G1 F1680 X6 Y74.25 E0.91511
G1 F1549.8 X5.793 Y74.207 E0.00715
G1 F1541.3 X5.751 Y74.044 E0.00572
G1 F1670 X5.751 Y50.022 E0.75353
G1 F1676.6 X5.75 Y26 E0.75054
G1 F1549.8 X5.793 Y25.793 E0.00715
G1 F1541.3 X5.956 Y25.751 E0.00572
G1 F1666.7 X35.304 Y25.751 E0.92243
G1 F1673.3 X64.652 Y25.751 E0.91877
G1 F1680 X94 Y25.75 E0.91511
G1 X94.25 Y26 E0.01102
G1 F1676.6 X94.249 Y74.044 E1.50107
G1 F1544.1 X94.207 Y74.207 E0.00571
G0 F5400 X94.044 Y74.249
G0 X94.012 Y74.249
