;FLAVOR:RepRap
;TIME:2121
;Filament used: 1.5381m
;Layer height: 0.15
;MINX:32.163
;MINY:32.163
;MINZ:0.3
;MAXX:67.837
;MAXY:67.837
;MAXZ:81.6
;TARGET_MACHINE.NAME:Unknown
;Generated with Cura_SteamEngine 5.9.0
T0
M104 S200
M109 S200
M82 ;absolute extrusion mode
G28 ;Home
G1 Z15.0 F6000 ;Move the platform down 15mm
G92 E0
M83 ;relative extrusion mode
G1 F1500 E-6.5
;LAYER_COUNT:543
;LAYER:0
M107
G0 F3600 X33.507 Y56.782 Z0.3
;TYPE:SKIRT
G1 F1500 E6.5
G1 F1800 X32.507 Y53.47 E0.1726
G1 X32.163 Y49.98 E0.17496
G1 X32.507 Y46.485 E0.17521
G1 X33.513 Y43.19 E0.17188
G1 X35.199 Y40.051 E0.17777
G1 X37.417 Y37.363 E0.17386
G1 X40.053 Y35.189 E0.17047
G1 X43.215 Y33.508 E0.17866
G1 X46.533 Y32.507 E0.1729
G1 X50.022 Y32.163 E0.17491
G1 X53.51 Y32.507 E0.17486
G1 X56.844 Y33.523 E0.17389
G1 X59.942 Y35.184 E0.17537
G1 X62.612 Y37.387 E0.1727
G1 X64.815 Y40.059 E0.17277
G1 X66.493 Y43.217 E0.17841
G1 X67.493 Y46.53 E0.17265
G1 X67.837 Y50.02 E0.17496
G1 X67.493 Y53.504 E0.17466
G1 X66.471 Y56.859 E0.17498
G1 X64.825 Y59.932 E0.17392
G1 X62.616 Y62.61 E0.17319
G1 X59.941 Y64.815 E0.17295
G1 X56.785 Y66.492 E0.1783
G1 X53.467 Y67.493 E0.1729
G1 X49.978 Y67.837 E0.17491
G1 X46.49 Y67.493 E0.17486
G1 X43.176 Y66.482 E0.17286
G1 X40.069 Y64.812 E0.17598
G1 X37.355 Y62.571 E0.1756
G1 X35.188 Y59.946 E0.16982
G1 X33.507 Y56.782 E0.17875
G0 F3600 X33.879 Y56.63
G1 F1800 X32.901 Y53.39 E0.16885
G1 X32.565 Y49.98 E0.17095
G1 X32.901 Y46.567 E0.1711
G1 X33.886 Y43.34 E0.16833
G1 X35.53 Y40.28 E0.1733
G1 X37.702 Y37.648 E0.17025
G1 X40.279 Y35.522 E0.16667
G1 X43.367 Y33.88 E0.17449
G1 X46.613 Y32.901 E0.16915
G1 X50.022 Y32.565 E0.1709
G1 X53.428 Y32.901 E0.17075
G1 X56.69 Y33.895 E0.17013
G1 X59.717 Y35.518 E0.17136
G1 X62.33 Y37.674 E0.16901
G1 X64.481 Y40.283 E0.1687
G1 X66.121 Y43.369 E0.17435
G1 X67.099 Y46.61 E0.1689
G1 X67.435 Y50.02 E0.17095
G1 X67.099 Y53.422 E0.17055
G1 X66.099 Y56.705 E0.17122
G1 X64.491 Y59.707 E0.1699
G1 X62.329 Y62.328 E0.16951
G1 X59.717 Y64.481 E0.16888
G1 X56.633 Y66.12 E0.17424
G1 X53.387 Y67.099 E0.16915
G1 X49.978 Y67.435 E0.1709
G1 X46.572 Y67.099 E0.17075
G1 X43.326 Y66.109 E0.16931
G1 X40.294 Y64.48 E0.17172
G1 X37.642 Y62.29 E0.17159
G1 X35.521 Y59.72 E0.16624
G1 X33.879 Y56.63 E0.17457
G0 F3600 X34.251 Y56.478
G1 F1800 X33.295 Y53.31 E0.16509
G1 X32.967 Y49.98 E0.16694
G1 X33.295 Y46.649 E0.16699
G1 X34.259 Y43.49 E0.16478
G1 X35.861 Y40.509 E0.16884
G1 X37.987 Y37.933 E0.16663
G1 X40.505 Y35.855 E0.16288
G1 X43.519 Y34.252 E0.17031
G1 X46.692 Y33.295 E0.16535
G1 X50.022 Y32.967 E0.16694
G1 X53.346 Y33.295 E0.16664
G1 X56.536 Y34.267 E0.16637
G1 X59.492 Y35.852 E0.16734
G1 X62.048 Y37.961 E0.16532
G1 X64.147 Y40.507 E0.16462
G1 X65.749 Y43.521 E0.17029
G1 X66.705 Y46.69 E0.16514
G1 X67.033 Y50.02 E0.16694
G1 X66.705 Y53.34 E0.16644
G1 X65.727 Y56.551 E0.16746
G1 X64.157 Y59.482 E0.16589
G1 X62.042 Y62.046 E0.16582
G1 X59.493 Y64.147 E0.1648
G1 X56.481 Y65.748 E0.17018
G1 X53.308 Y66.705 E0.16535
G1 X49.978 Y67.033 E0.16694
G1 X46.654 Y66.705 E0.16664
G1 X43.476 Y65.736 E0.16576
G1 X40.519 Y64.148 E0.16745
G1 X37.926 Y62.006 E0.1678
G1 X35.855 Y59.497 E0.16231
G1 X34.251 Y56.478 E0.17056
G0 F3600 X34.623 Y56.326
G1 F1800 X33.689 Y53.23 E0.16134
G1 X33.369 Y49.98 E0.16293
G1 X33.689 Y46.731 E0.16288
G1 X34.632 Y43.64 E0.16123
G1 X36.193 Y40.734 E0.16457
G1 X38.271 Y38.217 E0.16284
G1 X40.728 Y36.189 E0.15894
G1 X43.671 Y34.624 E0.1663
G1 X46.771 Y33.689 E0.16154
G1 X50.022 Y33.369 E0.16298
G1 X53.264 Y33.689 E0.16253
G1 X56.382 Y34.639 E0.16262
G1 X59.267 Y36.186 E0.16332
G1 X61.766 Y38.248 E0.16164
G1 X63.813 Y40.731 E0.16055
G1 X65.377 Y43.673 E0.16623
G1 X66.311 Y46.769 E0.16134
G1 X66.631 Y50.02 E0.16298
G1 X66.311 Y53.258 E0.16233
G1 X65.355 Y56.397 E0.16371
G1 X63.823 Y59.257 E0.16187
G1 X61.755 Y61.764 E0.16214
G1 X59.269 Y63.813 E0.16073
G1 X56.329 Y65.376 E0.16612
G1 X53.229 Y66.311 E0.16154
G1 X49.978 Y66.631 E0.16298
G1 X46.736 Y66.311 E0.16253
G1 X43.626 Y65.363 E0.16221
G1 X40.744 Y63.816 E0.16319
G1 X38.21 Y61.722 E0.164
G1 X36.189 Y59.274 E0.15837
G1 X34.623 Y56.326 E0.16654
G0 F3600 X34.995 Y56.174
G1 F1800 X34.083 Y53.151 E0.15753
G1 X33.771 Y49.98 E0.15897
G1 X34.083 Y46.813 E0.15877
G1 X35.005 Y43.79 E0.15768
G1 X36.525 Y40.959 E0.16031
G1 X38.555 Y38.501 E0.15904
G1 X40.951 Y36.523 E0.15501
G1 X43.823 Y34.996 E0.16228
G1 X46.85 Y34.083 E0.15774
G1 X50.022 Y33.771 E0.15902
G1 X53.182 Y34.083 E0.15842
G1 X56.228 Y35.011 E0.15886
G1 X59.042 Y36.52 E0.1593
G1 X61.484 Y38.535 E0.15795
G1 X63.479 Y40.955 E0.15647
G1 X65.005 Y43.825 E0.16217
G1 X65.917 Y46.848 E0.15753
G1 X66.229 Y50.02 E0.15902
G1 X65.917 Y53.176 E0.15822
G1 X64.983 Y56.243 E0.15995
G1 X63.489 Y59.032 E0.15785
G1 X61.468 Y61.482 E0.15845
G1 X59.045 Y63.479 E0.15665
G1 X56.177 Y65.004 E0.16206
G1 X53.15 Y65.917 E0.15774
G1 X49.978 Y66.229 E0.15902
G1 X46.818 Y65.917 E0.15842
G1 X43.776 Y64.99 E0.15866
G1 X40.969 Y63.484 E0.15892
G1 X38.497 Y61.441 E0.16
G1 X36.522 Y59.048 E0.1548
G1 X34.995 Y56.174 E0.16237
G0 F3600 X35.367 Y56.022
G1 F1800 X34.477 Y53.072 E0.15373
G1 X34.173 Y49.98 E0.155
G1 X34.477 Y46.895 E0.15466
G1 X35.378 Y43.94 E0.15413
G1 X36.857 Y41.184 E0.15605
G1 X38.839 Y38.785 E0.15525
G1 X41.174 Y36.857 E0.15107
G1 X43.975 Y35.368 E0.15826
G1 X46.929 Y34.477 E0.15393
G1 X50.022 Y34.173 E0.15505
G1 X53.1 Y34.477 E0.15431
G1 X56.074 Y35.383 E0.15511
G1 X58.817 Y36.854 E0.15529
G1 X61.202 Y38.822 E0.15427
G1 X63.145 Y41.179 E0.1524
G1 X64.633 Y43.977 E0.15811
G1 X65.523 Y46.927 E0.15373
G1 X65.827 Y50.02 E0.15505
G1 X65.523 Y53.094 E0.15411
G1 X64.611 Y56.089 E0.1562
G1 X63.155 Y58.807 E0.15383
G1 X61.181 Y61.2 E0.15477
G1 X58.821 Y63.145 E0.15257
G1 X56.025 Y64.632 E0.15799
G1 X53.071 Y65.523 E0.15393
G1 X49.978 Y65.827 E0.15505
G1 X46.9 Y65.523 E0.15431
G1 X43.93 Y64.618 E0.1549
G1 X41.191 Y63.149 E0.15506
G1 X38.784 Y61.16 E0.15578
G1 X36.855 Y58.822 E0.15122
G1 X35.367 Y56.022 E0.15819
G0 F3600 X35.739 Y55.87
G1 F1800 X34.871 Y52.993 E0.14992
G1 X34.575 Y49.98 E0.15104
G1 X34.871 Y46.977 E0.15055
G1 X35.751 Y44.09 E0.15058
G1 X37.189 Y41.409 E0.15178
G1 X39.12 Y39.072 E0.15124
G1 X41.401 Y37.19 E0.14753
G1 X44.127 Y35.74 E0.15404
G1 X47.008 Y34.871 E0.15013
G1 X50.022 Y34.575 E0.15109
G1 X53.018 Y34.871 E0.1502
G1 X55.92 Y35.755 E0.15135
G1 X58.592 Y37.188 E0.15127
G1 X60.92 Y39.109 E0.15058
G1 X62.811 Y41.403 E0.14832
G1 X64.261 Y44.129 E0.15404
G1 X65.129 Y47.006 E0.14992
G1 X65.425 Y50.02 E0.15109
G1 X65.129 Y53.012 E0.15
G1 X64.239 Y55.935 E0.15244
G1 X62.821 Y58.582 E0.14981
G1 X60.894 Y60.918 E0.15108
G1 X58.597 Y62.811 E0.1485
G1 X55.873 Y64.26 E0.15393
G1 X52.992 Y65.129 E0.15013
G1 X49.978 Y65.425 E0.15109
G1 X46.982 Y65.129 E0.1502
G1 X44.08 Y64.245 E0.15135
G1 X41.416 Y62.816 E0.15082
G1 X39.071 Y60.879 E0.15174
G1 X37.188 Y58.596 E0.14764
G1 X35.739 Y55.87 E0.15402
G0 F3600 X36.111 Y55.718
G1 F1800 X35.265 Y52.914 E0.14612
G1 X34.977 Y49.98 E0.14708
G1 X35.265 Y47.059 E0.14644
G1 X36.124 Y44.24 E0.14703
G1 X37.522 Y41.634 E0.14754
G1 X39.401 Y39.359 E0.14721
G1 X41.627 Y37.523 E0.14396
G1 X44.279 Y36.112 E0.14987
G1 X47.087 Y35.265 E0.14633
G1 X50.022 Y34.977 E0.14713
G1 X52.936 Y35.265 E0.14609
G1 X55.766 Y36.127 E0.14759
G1 X58.367 Y37.522 E0.14725
G1 X60.638 Y39.396 E0.1469
G1 X62.477 Y41.627 E0.14424
G1 X63.889 Y44.281 E0.14998
G1 X64.735 Y47.085 E0.14612
G1 X65.023 Y50.02 E0.14713
G1 X64.735 Y52.932 E0.14599
G1 X63.868 Y55.78 E0.14853
G1 X62.487 Y58.357 E0.14586
G1 X60.607 Y60.636 E0.14739
G1 X58.373 Y62.477 E0.14442
G1 X55.721 Y63.888 E0.14987
G1 X52.913 Y64.735 E0.14633
G1 X49.978 Y65.023 E0.14713
G1 X47.064 Y64.735 E0.14609
G1 X44.23 Y63.872 E0.1478
G1 X41.641 Y62.483 E0.14658
G1 X39.356 Y60.596 E0.14785
G1 X37.522 Y58.372 E0.14382
G1 X36.111 Y55.718 E0.14996
G0 F3600 X36.483 Y55.566
G1 F1800 X35.659 Y52.835 E0.14232
G1 X35.379 Y49.98 E0.14312
G1 X35.659 Y47.141 E0.14233
G1 X36.497 Y44.39 E0.14347
G1 X37.855 Y41.859 E0.1433
G1 X39.684 Y39.644 E0.14331
G1 X41.851 Y37.857 E0.14013
G1 X44.431 Y36.484 E0.14581
G1 X47.166 Y35.659 E0.14252
G1 X50.022 Y35.379 E0.14317
G1 X52.854 Y35.659 E0.14198
G1 X55.616 Y36.5 E0.14404
G1 X58.138 Y37.853 E0.14279
G1 X60.356 Y39.683 E0.14346
G1 X62.143 Y41.851 E0.14017
G1 X63.517 Y44.433 E0.14592
G1 X64.341 Y47.164 E0.14232
G1 X64.621 Y50.02 E0.14317
G1 X64.341 Y52.852 E0.14198
G1 X63.497 Y55.625 E0.14461
G1 X62.153 Y58.132 E0.14191
G1 X60.32 Y60.354 E0.14371
G1 X58.149 Y62.143 E0.14035
G1 X55.569 Y63.516 E0.14581
G1 X52.834 Y64.341 E0.14252
G1 X49.978 Y64.621 E0.14317
G1 X47.146 Y64.341 E0.14198
G1 X44.384 Y63.5 E0.14404
G1 X41.863 Y62.148 E0.14272
G1 X39.641 Y60.313 E0.14377
G1 X37.856 Y58.148 E0.13999
G1 X36.483 Y55.566 E0.1459
G0 F3600 X36.855 Y55.414
G1 F1800 X36.053 Y52.756 E0.13851
G1 X35.781 Y49.98 E0.13916
G1 X36.053 Y47.223 E0.13822
G1 X36.869 Y44.544 E0.13972
G1 X38.19 Y42.081 E0.13944
G1 X39.967 Y39.929 E0.13924
G1 X42.075 Y38.191 E0.1363
G1 X44.583 Y36.856 E0.14175
G1 X47.245 Y36.053 E0.13872
G1 X50.022 Y35.781 E0.13921
G1 X52.772 Y36.053 E0.13787
G1 X55.462 Y36.872 E0.14029
G1 X57.916 Y38.188 E0.13892
G1 X60.071 Y39.967 E0.13941
G1 X61.809 Y42.075 E0.1363
G1 X63.145 Y44.585 E0.14186
G1 X63.947 Y47.243 E0.13851
G1 X64.219 Y50.02 E0.13921
G1 X63.947 Y52.772 E0.13797
G1 X63.126 Y55.47 E0.1407
G1 X61.819 Y57.907 E0.13796
G1 X60.033 Y60.072 E0.14002
G1 X57.925 Y61.809 E0.13627
G1 X55.417 Y63.144 E0.14175
G1 X52.755 Y63.947 E0.13872
G1 X49.978 Y64.219 E0.13921
G1 X47.228 Y63.947 E0.13787
G1 X44.538 Y63.128 E0.14029
G1 X42.085 Y61.813 E0.13886
G1 X39.926 Y60.03 E0.1397
G1 X38.19 Y57.924 E0.13616
G1 X36.855 Y55.414 E0.14184
G0 F3600 X37.227 Y55.262
G1 F1800 X36.447 Y52.677 E0.13471
G1 X36.183 Y49.98 E0.1352
G1 X36.447 Y47.305 E0.1341
G1 X37.242 Y44.694 E0.13617
G1 X38.523 Y42.306 E0.1352
G1 X40.25 Y40.214 E0.13534
G1 X42.299 Y38.525 E0.13248
G1 X44.735 Y37.228 E0.13769
G1 X47.324 Y36.447 E0.13491
G1 X50.022 Y36.183 E0.13525
G1 X52.692 Y36.447 E0.13386
G1 X55.307 Y37.243 E0.13637
G1 X57.694 Y38.523 E0.13513
G1 X59.786 Y40.25 E0.13534
G1 X61.475 Y42.299 E0.13248
G1 X62.773 Y44.737 E0.1378
G1 X63.553 Y47.322 E0.13471
G1 X63.817 Y50.02 E0.13525
G1 X63.553 Y52.692 E0.13396
G1 X62.755 Y55.315 E0.13678
G1 X61.484 Y57.685 E0.13417
G1 X59.749 Y59.787 E0.13598
G1 X57.701 Y61.475 E0.13241
G1 X55.265 Y62.772 E0.13769
G1 X52.676 Y63.553 E0.13491
G1 X49.978 Y63.817 E0.13525
G1 X47.308 Y63.553 E0.13386
G1 X44.689 Y62.756 E0.13658
G1 X42.31 Y61.48 E0.13468
G1 X40.211 Y59.747 E0.1358
G1 X38.524 Y57.7 E0.13234
G1 X37.227 Y55.262 E0.13777
G0 F3600 X37.598 Y55.109
G1 F1800 X36.841 Y52.599 E0.1308
G1 X36.585 Y49.98 E0.13129
G1 X36.841 Y47.387 E0.12999
G1 X37.614 Y44.848 E0.13241
G1 X38.858 Y42.528 E0.13133
G1 X40.533 Y40.499 E0.13126
G1 X42.523 Y38.859 E0.12865
G1 X44.887 Y37.6 E0.13362
G1 X47.403 Y36.841 E0.13111
G1 X50.022 Y36.585 E0.13129
G1 X52.612 Y36.841 E0.12985
G1 X55.152 Y37.614 E0.13246
G1 X57.472 Y38.858 E0.13133
G1 X59.501 Y40.533 E0.13126
G1 X61.141 Y42.523 E0.12865
G1 X62.402 Y44.89 E0.1338
G1 X63.159 Y47.4 E0.1308
G1 X63.415 Y50.02 E0.13133
G1 X63.159 Y52.612 E0.12994
G1 X62.384 Y55.16 E0.13287
G1 X61.149 Y57.463 E0.13038
G1 X59.466 Y59.502 E0.1319
G1 X57.477 Y61.141 E0.12858
G1 X55.113 Y62.4 E0.13362
G1 X52.597 Y63.159 E0.13111
G1 X49.978 Y63.415 E0.13129
G1 X47.388 Y63.159 E0.12985
G1 X44.844 Y62.385 E0.13266
G1 X42.532 Y61.145 E0.13089
G1 X40.496 Y59.464 E0.13172
G1 X38.858 Y57.476 E0.12851
G1 X37.598 Y55.109 E0.13378
G0 F3600 X37.97 Y54.957
G1 F1800 X37.235 Y52.52 E0.12699
G1 X36.987 Y49.98 E0.12732
G1 X37.235 Y47.467 E0.12598
G1 X37.985 Y45.003 E0.1285
G1 X39.193 Y42.75 E0.12754
G1 X40.816 Y40.784 E0.12719
G1 X42.747 Y39.193 E0.12483
G1 X45.039 Y37.972 E0.12956
G1 X47.482 Y37.235 E0.12731
G1 X50.022 Y36.987 E0.12732
G1 X52.532 Y37.235 E0.12583
G1 X54.997 Y37.985 E0.12855
G1 X57.25 Y39.193 E0.12754
G1 X59.216 Y40.816 E0.12719
G1 X60.807 Y42.747 E0.12483
G1 X62.03 Y45.042 E0.12974
G1 X62.765 Y47.479 E0.12699
G1 X63.013 Y50.02 E0.12737
G1 X62.765 Y52.532 E0.12593
G1 X62.013 Y55.005 E0.12896
G1 X60.814 Y57.241 E0.12658
G1 X59.183 Y59.217 E0.12783
G1 X57.253 Y60.807 E0.12476
G1 X54.961 Y62.028 E0.12956
G1 X52.518 Y62.765 E0.12731
G1 X49.978 Y63.013 E0.12732
G1 X47.468 Y62.765 E0.12583
G1 X44.999 Y62.014 E0.12875
G1 X42.754 Y60.81 E0.12709
G1 X40.781 Y59.181 E0.12765
G1 X39.192 Y57.252 E0.12469
G1 X37.97 Y54.957 E0.12972
G0 F3600 X38.342 Y54.805
G1 F1800 X37.629 Y52.441 E0.12319
G1 X37.389 Y49.98 E0.12336
G1 X37.629 Y47.547 E0.12197
G1 X38.356 Y45.158 E0.12458
G1 X39.528 Y42.972 E0.12375
G1 X41.099 Y41.069 E0.12311
G1 X42.971 Y39.527 E0.121
G1 X45.192 Y38.343 E0.12557
G1 X47.56 Y37.629 E0.12339
G1 X50.022 Y37.389 E0.12341
G1 X52.452 Y37.629 E0.12182
G1 X54.842 Y38.356 E0.12463
G1 X57.028 Y39.528 E0.12375
G1 X58.931 Y41.099 E0.12311
G1 X60.473 Y42.971 E0.121
G1 X61.658 Y45.194 E0.12568
G1 X62.371 Y47.558 E0.12319
G1 X62.611 Y50.02 E0.12341
G1 X62.371 Y52.452 E0.12192
G1 X61.642 Y54.85 E0.12504
G1 X60.479 Y57.019 E0.12279
G1 X58.9 Y58.932 E0.12375
G1 X57.029 Y60.473 E0.12093
G1 X54.808 Y61.657 E0.12557
G1 X52.44 Y62.371 E0.12339
G1 X49.978 Y62.611 E0.12341
G1 X47.548 Y62.371 E0.12182
G1 X45.154 Y61.643 E0.12484
G1 X42.976 Y60.475 E0.1233
G1 X41.066 Y58.898 E0.12357
G1 X39.526 Y57.028 E0.12086
G1 X38.342 Y54.805 E0.12566
G0 F3600 X38.714 Y54.653
G1 F1800 X38.023 Y52.362 E0.11938
G1 X37.791 Y49.98 E0.1194
G1 X38.023 Y47.627 E0.11796
G1 X38.727 Y45.313 E0.12067
G1 X39.863 Y43.194 E0.11995
G1 X41.382 Y41.354 E0.11904
G1 X43.195 Y39.861 E0.11717
G1 X45.346 Y38.714 E0.12162
G1 X47.638 Y38.023 E0.11943
G1 X50.022 Y37.791 E0.1195
G1 X52.372 Y38.023 E0.11781
G1 X54.687 Y38.727 E0.12072
G1 X56.806 Y39.863 E0.11995
G1 X58.646 Y41.382 E0.11904
G1 X60.139 Y43.195 E0.11717
G1 X61.286 Y45.346 E0.12162
G1 X61.977 Y47.637 E0.11938
G1 X62.209 Y50.02 E0.11945
G1 X61.977 Y52.372 E0.11791
G1 X61.271 Y54.695 E0.12113
G1 X60.144 Y56.797 E0.11899
G1 X58.617 Y58.647 E0.11968
G1 X56.805 Y60.139 E0.1171
G1 X54.654 Y61.286 E0.12162
G1 X52.362 Y61.977 E0.11943
G1 X49.978 Y62.209 E0.1195
G1 X47.628 Y61.977 E0.11781
G1 X45.309 Y61.272 E0.12092
G1 X43.198 Y60.14 E0.1195
G1 X41.351 Y58.615 E0.1195
G1 X39.86 Y56.804 E0.11703
G1 X38.714 Y54.653 E0.12159
G0 F3600 X39.085 Y54.5
G1 F1800 X38.417 Y52.284 E0.11547
G1 X38.193 Y49.98 E0.11549
G1 X38.417 Y47.707 E0.11395
G1 X39.098 Y45.468 E0.11676
G1 X40.198 Y43.416 E0.11616
G1 X41.665 Y41.639 E0.11496
G1 X43.419 Y40.195 E0.11335
G1 X45.5 Y39.085 E0.11767
G1 X47.716 Y38.417 E0.11547
G1 X50.022 Y38.193 E0.11559
G1 X52.292 Y38.417 E0.1138
G1 X54.532 Y39.098 E0.1168
G1 X56.584 Y40.198 E0.11616
G1 X58.361 Y41.665 E0.11496
G1 X59.805 Y43.419 E0.11335
G1 X60.915 Y45.5 E0.11767
G1 X61.583 Y47.715 E0.11542
G1 X61.807 Y50.02 E0.11554
G1 X61.583 Y52.292 E0.1139
G1 X60.9 Y54.54 E0.11722
G1 X59.809 Y56.575 E0.1152
G1 X58.334 Y58.362 E0.1156
G1 X56.581 Y59.805 E0.11328
G1 X54.5 Y60.915 E0.11767
G1 X52.284 Y61.583 E0.11547
G1 X49.978 Y61.807 E0.11559
G1 X47.708 Y61.583 E0.1138
G1 X45.464 Y60.901 E0.11701
G1 X43.42 Y59.805 E0.11571
G1 X41.636 Y58.332 E0.11542
G1 X40.194 Y56.58 E0.11321
G1 X39.085 Y54.5 E0.1176
G0 F3600 X39.456 Y54.346
G1 F1800 X38.811 Y52.206 E0.11151
G1 X38.595 Y49.98 E0.11158
G1 X38.811 Y47.787 E0.10994
G1 X39.469 Y45.623 E0.11284
G1 X40.533 Y43.638 E0.11236
G1 X41.948 Y41.924 E0.11089
G1 X43.643 Y40.529 E0.10952
G1 X45.654 Y39.456 E0.11372
G1 X47.794 Y38.811 E0.11151
G1 X50.022 Y38.595 E0.11168
G1 X52.212 Y38.811 E0.10979
G1 X54.377 Y39.469 E0.11289
G1 X56.362 Y40.533 E0.11236
G1 X58.076 Y41.948 E0.11089
G1 X59.471 Y43.643 E0.10952
G1 X60.544 Y45.654 E0.11372
G1 X61.189 Y47.793 E0.11146
G1 X61.405 Y50.02 E0.11163
G1 X61.189 Y52.212 E0.10989
G1 X60.529 Y54.385 E0.1133
G1 X59.474 Y56.353 E0.1114
G1 X58.051 Y58.077 E0.11153
G1 X56.357 Y59.471 E0.10945
G1 X54.346 Y60.544 E0.11372
G1 X52.206 Y61.189 E0.11151
G1 X49.978 Y61.405 E0.11168
G1 X47.788 Y61.189 E0.10979
G1 X45.619 Y60.53 E0.1131
G1 X43.642 Y59.47 E0.11192
G1 X41.921 Y58.049 E0.11135
G1 X40.528 Y56.356 E0.10938
G1 X39.456 Y54.346 E0.11365
G0 F3600 X39.827 Y54.192
