;FLAVOR:RepRap
;TIME:4046
;Filament used: 3.39311m
;Layer height: 0.15
;MINX:0
;MINY:17.2
;MINZ:0.3
;MAXX:100
;MAXY:82.8
;MAXZ:1.95
;TARGET_MACHINE.NAME:Unknown
;Generated with Cura_SteamEngine 5.7.2
T0
M104 S200
M109 S200
M82 ;absolute extrusion mode
G28 ;Home
G1 Z15.0 F6000 ;Move the platform down 15mm
G92 E0
M83 ;relative extrusion mode
G1 F1500 E-6.5
;LAYER_COUNT:12
;LAYER:0
M107
G0 F3600 X0.00 Y21.649 Z0.3
;TYPE:SKIRT
G1 F1500 E6.5
G1 F1800 X0.617 Y20.55 E0.06288
G1 X1.39 Y19.552 E0.06298
G1 X2.743 Y18.46 E0.08674
G1 X4.722 Y17.474 E0.11031
G1 X6.246 Y17.252 E0.07684
G1 X93.622 Y17.2 E4.35921
G1 X95.679 Y17.622 E0.10476
G1 X97.45 Y18.617 E0.10135
G1 X98.448 Y19.39 E0.06298
G1 X99.54 Y20.743 E0.08674
G1 X100 Y21.666 E0.05145
G0 F3600 X100 Y22.563
G1 F1800 X99.201 Y20.96 E0.08936
G1 X98.167 Y19.678 E0.08217
G1 X97.205 Y18.933 E0.0607
G1 X95.538 Y18.002 E0.09526
G1 X93.581 Y17.6 E0.09967
G1 X6.304 Y17.648 E4.35427
G1 X4.842 Y17.861 E0.07371
G1 X2.96 Y18.799 E0.10491
G1 X1.678 Y19.833 E0.08217
G1 X0.933 Y20.795 E0.0607
G1 X0.00 Y22.472 E0.09574
G1 F1500 E-6.5
G0 F3600 X0.00 Y78.334
G1 F1500 E6.5
G1 F1800 X0.46 Y79.257 E0.05145
G1 X1.552 Y80.61 E0.08674
G1 X2.55 Y81.383 E0.06298
G1 X4.321 Y82.378 E0.10135
G1 X6.378 Y82.8 E0.10476
G1 X93.754 Y82.748 E4.35921
G1 X95.278 Y82.526 E0.07684
G1 X97.257 Y81.54 E0.11031
G1 X98.61 Y80.448 E0.08674
G1 X99.383 Y79.45 E0.06298
G1 X100 Y78.351 E0.06288
G0 F3600 X100 Y77.528
G1 F1800 X99.067 Y79.205 E0.09574
G1 X98.322 Y80.167 E0.0607
G1 X97.04 Y81.201 E0.08217
G1 X95.158 Y82.139 E0.10491
G1 X93.696 Y82.352 E0.07371
G1 X6.419 Y82.4 E4.35427
G1 X4.462 Y81.998 E0.09967
G1 X2.795 Y81.067 E0.09526
G1 X1.833 Y80.322 E0.0607
G1 X0.799 Y79.04 E0.08217
G1 X0.00 Y77.437 E0.08936
G0 F3600 X0.248 Y77.038
G1 F1800 X0.044 Y75.638 E0.07058
G1 X0.00 Y24.461 E2.55323
G1 X0.382 Y22.603 E0.09463
G1 X1.249 Y21.04 E0.08917
G1 X1.966 Y20.114 E0.05843
G1 X3.177 Y19.138 E0.0776
G1 X4.962 Y18.248 E0.09951
G1 X6.362 Y18.044 E0.07058
G1 X93.539 Y18 E4.34928
G1 X95.397 Y18.382 E0.09463
G1 X96.96 Y19.249 E0.08917
G1 X97.886 Y19.966 E0.05843
G1 X98.862 Y21.177 E0.0776
G1 X99.752 Y22.962 E0.09951
G1 X99.956 Y24.362 E0.07058
G1 X100 Y75.539 E2.55323
G1 X99.618 Y77.397 E0.09463
G1 X98.751 Y78.96 E0.08917
G1 X98.034 Y79.886 E0.05843
G1 X96.823 Y80.862 E0.0776
G1 X95.038 Y81.752 E0.09951
G1 X93.638 Y81.956 E0.07058
G1 X6.461 Y82 E4.34928
G1 X4.603 Y81.618 E0.09463
G1 X3.04 Y80.751 E0.08917
G1 X2.114 Y80.034 E0.05843
G1 X1.138 Y78.823 E0.0776
G1 X0.248 Y77.038 E0.09951
G0 F3600 X0.635 Y76.918
G1 F1800 X0.44 Y75.58 E0.06746
G1 X0.4 Y24.503 E2.54824
G1 X0.762 Y22.743 E0.08964
G1 X1.599 Y21.234 E0.08609
G1 X2.251 Y20.398 E0.05289
G1 X3.397 Y19.475 E0.07341
G1 X5.082 Y18.635 E0.09393
G1 X6.42 Y18.44 E0.06746
G1 X93.497 Y18.4 E4.34429
G1 X95.257 Y18.762 E0.08964
G1 X96.766 Y19.599 E0.08609
G1 X97.602 Y20.251 E0.05289
G1 X98.525 Y21.397 E0.07341
G1 X99.365 Y23.082 E0.09393
G1 X99.56 Y24.42 E0.06746
G1 X99.6 Y75.497 E2.54824
G1 X99.238 Y77.257 E0.08964
G1 X98.401 Y78.766 E0.08609
G1 X97.749 Y79.602 E0.05289
G1 X96.603 Y80.525 E0.07341
G1 X94.918 Y81.365 E0.09393
G1 X93.58 Y81.56 E0.06746
G1 X6.503 Y81.6 E4.34429
G1 X4.743 Y81.238 E0.08964
G1 X3.234 Y80.401 E0.08609
G1 X2.398 Y79.749 E0.05289
G1 X1.475 Y78.603 E0.07341
G1 X0.635 Y76.918 E0.09393
G0 F3600 X1.022 Y76.798
G1 F1800 X0.836 Y75.522 E0.06433
G1 X0.8 Y24.545 E2.54325
G1 X1.142 Y22.883 E0.08465
G1 X1.949 Y21.428 E0.08301
G1 X2.535 Y20.683 E0.04729
G1 X3.617 Y19.812 E0.0693
G1 X5.202 Y19.022 E0.08835
G1 X6.478 Y18.836 E0.06433
G1 X93.455 Y18.8 E4.3393
G1 X95.117 Y19.142 E0.08465
G1 X96.572 Y19.949 E0.08301
G1 X97.317 Y20.535 E0.04729
G1 X98.188 Y21.617 E0.0693
G1 X98.978 Y23.202 E0.08835
G1 X99.164 Y24.478 E0.06433
G1 X99.2 Y75.455 E2.54325
G1 X98.858 Y77.117 E0.08465
G1 X98.051 Y78.572 E0.08301
G1 X97.465 Y79.317 E0.04729
G1 X96.383 Y80.188 E0.0693
G1 X94.798 Y80.978 E0.08835
G1 X93.522 Y81.164 E0.06433
G1 X6.545 Y81.2 E4.3393
G1 X4.883 Y80.858 E0.08465
G1 X3.428 Y80.051 E0.08301
G1 X2.683 Y79.465 E0.04729
G1 X1.812 Y78.383 E0.0693
G1 X1.022 Y76.798 E0.08835
G0 F3600 X1.409 Y76.677
G1 F1800 X1.232 Y75.464 E0.06116
G1 X1.2 Y24.587 E2.53826
G1 X1.522 Y23.023 E0.07966
G1 X2.299 Y21.622 E0.07993
G1 X2.82 Y20.968 E0.04172
G1 X3.835 Y20.151 E0.06501
G1 X5.323 Y19.409 E0.08295
G1 X6.536 Y19.232 E0.06116
G1 X93.413 Y19.2 E4.33431
G1 X94.977 Y19.522 E0.07966
G1 X96.378 Y20.299 E0.07993
G1 X97.032 Y20.82 E0.04172
G1 X97.849 Y21.835 E0.06501
G1 X98.591 Y23.323 E0.08295
G1 X98.768 Y24.536 E0.06116
G1 X98.8 Y75.413 E2.53826
G1 X98.478 Y76.977 E0.07966
G1 X97.701 Y78.378 E0.07993
G1 X97.18 Y79.032 E0.04172
G1 X96.165 Y79.849 E0.06501
G1 X94.677 Y80.591 E0.08295
G1 X93.464 Y80.768 E0.06116
G1 X6.587 Y80.8 E4.33431
G1 X5.023 Y80.478 E0.07966
G1 X3.622 Y79.701 E0.07993
G1 X2.968 Y79.18 E0.04172
G1 X2.151 Y78.165 E0.06501
G1 X1.409 Y76.677 E0.08295
G0 F3600 X1.796 Y76.557
G1 F1800 X1.628 Y75.406 E0.05803
G1 X1.6 Y24.629 E2.53328
G1 X1.902 Y23.162 E0.07472
G1 X2.612 Y21.871 E0.07351
G1 X3.104 Y21.254 E0.03937
G1 X4.055 Y20.488 E0.06092
G1 X5.443 Y19.796 E0.07738
G1 X6.594 Y19.628 E0.05803
G1 X93.371 Y19.6 E4.32932
G1 X94.838 Y19.902 E0.07472
G1 X96.129 Y20.612 E0.07351
G1 X96.746 Y21.104 E0.03937
G1 X97.512 Y22.055 E0.06092
G1 X98.204 Y23.443 E0.07738
G1 X98.372 Y24.594 E0.05803
G1 X98.4 Y75.371 E2.53328
G1 X98.098 Y76.838 E0.07472
G1 X97.388 Y78.129 E0.07351
G1 X96.896 Y78.746 E0.03937
G1 X95.945 Y79.512 E0.06092
G1 X94.557 Y80.204 E0.07738
G1 X93.406 Y80.372 E0.05803
G1 X6.629 Y80.4 E4.32932
G1 X5.162 Y80.098 E0.07472
G1 X3.871 Y79.388 E0.07351
G1 X3.254 Y78.896 E0.03937
G1 X2.488 Y77.945 E0.06092
G1 X1.796 Y76.557 E0.07738
G0 F3600 X2.183 Y76.437
G1 F1800 X2.024 Y75.348 E0.05491
G1 X2 Y24.671 E2.52829
G1 X2.282 Y23.3 E0.06983
G1 X2.925 Y22.12 E0.06704
G1 X3.39 Y21.537 E0.0372
G1 X4.271 Y20.827 E0.05645
G1 X5.563 Y20.183 E0.07202
G1 X6.652 Y20.024 E0.05491
G1 X93.329 Y20 E4.32433
G1 X94.7 Y20.282 E0.06983
G1 X95.88 Y20.925 E0.06704
G1 X96.463 Y21.39 E0.0372
G1 X97.173 Y22.271 E0.05645
G1 X97.817 Y23.563 E0.07202
G1 X97.976 Y24.652 E0.05491
G1 X98 Y75.329 E2.52829
G1 X97.718 Y76.7 E0.06983
G1 X97.075 Y77.88 E0.06704
G1 X96.61 Y78.463 E0.0372
G1 X95.729 Y79.173 E0.05645
G1 X94.437 Y79.817 E0.07202
G1 X93.348 Y79.976 E0.05491
G1 X6.671 Y80 E4.32433
G1 X5.3 Y79.718 E0.06983
G1 X4.12 Y79.075 E0.06704
G1 X3.537 Y78.61 E0.0372
G1 X2.827 Y77.729 E0.05645
G1 X2.183 Y76.437 E0.07202
G0 F3600 X2.57 Y76.317
G1 F1800 X2.42 Y75.29 E0.05178
G1 X2.4 Y24.713 E2.5233
G1 X2.662 Y23.438 E0.06494
G1 X3.238 Y22.369 E0.06058
G1 X3.674 Y21.822 E0.0349
G1 X4.491 Y21.164 E0.05234
G1 X5.683 Y20.57 E0.06644
G1 X6.71 Y20.42 E0.05178
G1 X93.287 Y20.4 E4.31934
G1 X94.562 Y20.662 E0.06494
G1 X95.631 Y21.238 E0.06058
G1 X96.178 Y21.674 E0.0349
G1 X96.836 Y22.491 E0.05234
G1 X97.43 Y23.683 E0.06644
G1 X97.58 Y24.71 E0.05178
G1 X97.6 Y75.287 E2.5233
G1 X97.338 Y76.562 E0.06494
G1 X96.762 Y77.631 E0.06058
G1 X96.326 Y78.178 E0.0349
G1 X95.509 Y78.836 E0.05234
G1 X94.317 Y79.43 E0.06644
G1 X93.29 Y79.58 E0.05178
G1 X6.713 Y79.6 E4.31934
G1 X5.438 Y79.338 E0.06494
G1 X4.369 Y78.762 E0.06058
G1 X3.822 Y78.326 E0.0349
G1 X3.164 Y77.509 E0.05234
G1 X2.57 Y76.317 E0.06644
G0 F3600 X2.957 Y76.197
G1 F1800 X2.816 Y75.232 E0.04866
G1 X2.8 Y24.754 E2.51836
G1 X3.042 Y23.576 E0.06
G1 X3.59 Y22.559 E0.05764
G1 X3.956 Y22.109 E0.02894
G1 X4.711 Y21.501 E0.04836
G1 X5.803 Y20.957 E0.06087
G1 X6.768 Y20.816 E0.04866
G1 X93.246 Y20.8 E4.31441
G1 X94.424 Y21.042 E0.06
G1 X95.441 Y21.59 E0.05764
G1 X95.891 Y21.956 E0.02894
G1 X96.499 Y22.711 E0.04836
G1 X97.043 Y23.803 E0.06087
G1 X97.184 Y24.768 E0.04866
G1 X97.2 Y75.246 E2.51836
G1 X96.958 Y76.424 E0.06
G1 X96.41 Y77.441 E0.05764
G1 X96.044 Y77.891 E0.02894
G1 X95.289 Y78.499 E0.04836
G1 X94.197 Y79.043 E0.06087
G1 X93.232 Y79.184 E0.04866
G1 X6.754 Y79.2 E4.31441
G1 X5.576 Y78.958 E0.06
G1 X4.559 Y78.41 E0.05764
G1 X4.109 Y78.044 E0.02894
G1 X3.501 Y77.289 E0.04836
G1 X2.957 Y76.197 E0.06087
G0 F3600 X3.344 Y76.077
G1 F1800 X3.212 Y75.174 E0.04553
G1 X3.2 Y24.795 E2.51342
G1 X3.422 Y23.714 E0.05506
G1 X3.905 Y22.806 E0.05131
G1 X4.207 Y22.421 E0.02441
G1 X4.931 Y21.838 E0.04638
G1 X5.923 Y21.344 E0.05529
G1 X6.826 Y21.212 E0.04553
G1 X93.205 Y21.2 E4.30947
G1 X94.286 Y21.422 E0.05506
G1 X95.194 Y21.905 E0.05131
G1 X95.579 Y22.207 E0.02441
G1 X96.162 Y22.931 E0.04638
G1 X96.656 Y23.923 E0.05529
G1 X96.788 Y24.826 E0.04553
G1 X96.8 Y75.205 E2.51342
G1 X96.578 Y76.286 E0.05506
G1 X96.095 Y77.194 E0.05131
G1 X95.793 Y77.579 E0.02441
G1 X95.069 Y78.162 E0.04638
G1 X94.077 Y78.656 E0.05529
G1 X93.174 Y78.788 E0.04553
G1 X6.795 Y78.8 E4.30947
G1 X5.714 Y78.578 E0.05506
G1 X4.806 Y78.095 E0.05131
G1 X4.421 Y77.793 E0.02441
G1 X3.838 Y77.069 E0.04638
G1 X3.344 Y76.077 E0.05529
G0 F3600 X3.731 Y75.957
G1 F1800 X3.608 Y75.116 E0.0424
G1 X3.6 Y24.836 E2.50848
G1 X3.802 Y23.85 E0.05021
G1 X4.226 Y23.045 E0.04539
G1 X4.458 Y22.733 E0.0194
G1 X5.151 Y22.175 E0.04439
G1 X6.043 Y21.731 E0.04971
G1 X6.884 Y21.608 E0.0424
G1 X93.164 Y21.6 E4.30453
G1 X94.15 Y21.802 E0.05021
G1 X94.955 Y22.226 E0.04539
G1 X95.267 Y22.458 E0.0194
G1 X95.825 Y23.151 E0.04439
G1 X96.269 Y24.043 E0.04971
G1 X96.392 Y24.884 E0.0424
G1 X96.4 Y75.164 E2.50848
G1 X96.198 Y76.15 E0.05021
G1 X95.774 Y76.955 E0.04539
G1 X95.542 Y77.267 E0.0194
G1 X94.849 Y77.825 E0.04439
G1 X93.957 Y78.269 E0.04971
G1 X93.116 Y78.392 E0.0424
G1 X6.836 Y78.4 E4.30453
G1 X5.85 Y78.198 E0.05021
G1 X5.045 Y77.774 E0.04539
G1 X4.733 Y77.542 E0.0194
G1 X4.175 Y76.849 E0.04439
G1 X3.731 Y75.957 E0.04971
G0 F3600 X4.118 Y75.837
G1 F1800 X4.004 Y75.058 E0.03928
G1 X4 Y24.877 E2.50354
G1 X4.182 Y23.987 E0.04532
G1 X4.58 Y23.232 E0.04258
G1 X4.749 Y23.012 E0.01384
G1 X5.367 Y22.514 E0.0396
G1 X6.163 Y22.118 E0.04436
G1 X6.942 Y22.004 E0.03928
G1 X93.123 Y22 E4.29959
G1 X94.013 Y22.182 E0.04532
G1 X94.768 Y22.58 E0.04258
G1 X94.988 Y22.749 E0.01384
G1 X95.486 Y23.367 E0.0396
G1 X95.882 Y24.163 E0.04436
G1 X95.996 Y24.942 E0.03928
G1 X96 Y75.123 E2.50354
G1 X95.818 Y76.013 E0.04532
G1 X95.42 Y76.768 E0.04258
G1 X95.251 Y76.988 E0.01384
G1 X94.633 Y77.486 E0.0396
G1 X93.837 Y77.882 E0.04436
G1 X93.058 Y77.996 E0.03928
G1 X6.877 Y78 E4.29959
G1 X5.987 Y77.818 E0.04532
G1 X5.232 Y77.42 E0.04258
G1 X5.012 Y77.251 E0.01384
G1 X4.514 Y76.633 E0.0396
G1 X4.118 Y75.837 E0.04436
G0 F3600 X4.505 Y75.717
G1 F1800 X4.4 Y75 E0.03615
G1 X4.4 Y24.918 E2.4986
G1 X4.563 Y24.122 E0.04054
G1 X4.934 Y23.418 E0.0397
G1 X5.037 Y23.293 E0.00808
G1 X5.583 Y22.853 E0.03498
G1 X6.283 Y22.505 E0.039
G1 X7 Y22.4 E0.03615
G1 X93.082 Y22.4 E4.29465
G1 X93.878 Y22.563 E0.04054
G1 X94.582 Y22.934 E0.0397
G1 X94.707 Y23.037 E0.00808
G1 X95.147 Y23.583 E0.03498
G1 X95.495 Y24.283 E0.039
G1 X95.6 Y25 E0.03615
G1 X95.6 Y75.082 E2.4986
G1 X95.437 Y75.878 E0.04054
G1 X95.066 Y76.582 E0.0397
G1 X94.963 Y76.707 E0.00808
G1 X94.417 Y77.147 E0.03498
G1 X93.717 Y77.495 E0.039
G1 X93 Y77.6 E0.03615
G1 X6.918 Y77.6 E4.29465
G1 X6.122 Y77.437 E0.04054
G1 X5.418 Y77.066 E0.0397
G1 X5.293 Y76.963 E0.00808
G1 X4.853 Y76.417 E0.03498
G1 X4.505 Y75.717 E0.039
G0 F3600 X4.891 Y75.595
G1 F1800 X4.8 Y75 E0.03003
G1 X4.8 Y24.959 E2.49656
G1 X4.944 Y24.257 E0.03575
G1 X5.288 Y23.604 E0.03682
G1 X5.799 Y23.192 E0.03275
G1 X6.405 Y22.891 E0.03376
G1 X7 Y22.8 E0.03003
G1 X93.041 Y22.8 E4.2926
G1 X93.743 Y22.944 E0.03575
G1 X94.396 Y23.288 E0.03682
G1 X94.808 Y23.799 E0.03275
G1 X95.109 Y24.405 E0.03376
G1 X95.2 Y25 E0.03003
G1 X95.2 Y75.041 E2.49656
G1 X95.056 Y75.743 E0.03575
G1 X94.712 Y76.396 E0.03682
G1 X94.201 Y76.808 E0.03275
G1 X93.595 Y77.109 E0.03376
G1 X93 Y77.2 E0.03003
G1 X6.959 Y77.2 E4.2926
G1 X6.257 Y77.056 E0.03575
G1 X5.604 Y76.712 E0.03682
G1 X5.192 Y76.201 E0.03275
G1 X4.891 Y75.595 E0.03376
G0 F3600 X5.277 Y75.474
G1 F1800 X5.2 Y75 E0.02396
G1 X5.2 Y25 E2.49451
G1 X5.324 Y24.394 E0.03086
G1 X5.605 Y23.862 E0.03002
G1 X5.977 Y23.55 E0.02422
G1 X6.526 Y23.277 E0.03059
G1 X7 Y23.2 E0.02396
G1 X93 Y23.2 E4.29056
G1 X93.606 Y23.324 E0.03086
G1 X94.138 Y23.605 E0.03002
G1 X94.45 Y23.977 E0.02422
G1 X94.723 Y24.526 E0.03059
G1 X94.8 Y25 E0.02396
G1 X94.8 Y75 E2.49451
G1 X94.676 Y75.606 E0.03086
G1 X94.395 Y76.138 E0.03002
G1 X94.023 Y76.45 E0.02422
G1 X93.474 Y76.723 E0.03059
G1 X93 Y76.8 E0.02396
G1 X7 Y76.8 E4.29056
G1 X6.394 Y76.676 E0.03086
G1 X5.862 Y76.395 E0.03002
G1 X5.55 Y76.023 E0.02422
G1 X5.277 Y75.474 E0.03059
G0 F3600 X5.662 Y75.351
G1 F1800 X5.6 Y75 E0.01778
G1 X5.6 Y25 E2.49451
G1 X5.678 Y24.581 E0.02126
G1 X5.923 Y24.117 E0.02618
G1 X6.155 Y23.908 E0.01558
G1 X6.649 Y23.662 E0.02753
G1 X7 Y23.6 E0.01778
G1 X93 Y23.6 E4.29056
G1 X93.419 Y23.678 E0.02126
G1 X93.883 Y23.923 E0.02618
G1 X94.092 Y24.155 E0.01558
G1 X94.338 Y24.649 E0.02753
G1 X94.4 Y25 E0.01778
G1 X94.4 Y75 E2.49451
G1 X94.322 Y75.419 E0.02126
G1 X94.077 Y75.883 E0.02618
G1 X93.845 Y76.092 E0.01558
G1 X93.351 Y76.338 E0.02753
G1 X93 Y76.4 E0.01778
G1 X7 Y76.4 E4.29056
G1 X6.581 Y76.322 E0.02126
G1 X6.117 Y76.077 E0.02618
G1 X5.908 Y75.845 E0.01558
G1 X5.662 Y75.351 E0.02753
G0 F3600 X6.054 Y75.273
G1 F1800 X6 Y75 E0.01388
G1 X6 Y25 E2.49451
G1 X6.07 Y24.662 E0.01722
G1 X6.207 Y24.399 E0.01479
G1 X6.345 Y24.26 E0.00977
G1 X6.727 Y24.054 E0.02165
G1 X7 Y24 E0.01388
G1 X93 Y24 E4.29056
G1 X93.338 Y24.07 E0.01722
G1 X93.601 Y24.207 E0.01479
G1 X93.74 Y24.345 E0.00977
G1 X93.946 Y24.727 E0.02165
G1 X94 Y25 E0.01388
G1 X94 Y75 E2.49451
G1 X93.93 Y75.338 E0.01722
G1 X93.793 Y75.601 E0.01479
G1 X93.655 Y75.74 E0.00977
G1 X93.273 Y75.946 E0.02165
G1 X93 Y76 E0.01388
G1 X7 Y76 E4.29056
G1 X6.662 Y75.93 E0.01722
G1 X6.399 Y75.793 E0.01479
G1 X6.26 Y75.655 E0.00977
G1 X6.054 Y75.273 E0.02165
G0 F3600 X6.8 Y75
G1 F1800 X6.8 Y25 E2.49451
G1 X6.839 Y24.881 E0.00625
G1 X7 Y24.8 E0.00899
G1 X93 Y24.8 E4.29056
G1 X93.119 Y24.839 E0.00625
G1 X93.2 Y25 E0.00899
G1 X93.2 Y75 E2.49451
G1 X93.161 Y75.119 E0.00625
G1 X93 Y75.2 E0.00899
G1 X7 Y75.2 E4.29056
G1 X6.881 Y75.161 E0.00625
G1 X6.8 Y75 E0.00899
G0 F3600 X6.443 Y75.18
G1 F1800 X6.4 Y75 E0.00923
G1 X6.4 Y25 E2.49451
G1 X6.459 Y24.756 E0.01252
G1 X6.55 Y24.604 E0.00884
G1 X6.82 Y24.443 E0.01568
G1 X7 Y24.4 E0.00923
G1 X93 Y24.4 E4.29056
G1 X93.244 Y24.459 E0.01252
G1 X93.396 Y24.55 E0.00884
G1 X93.557 Y24.82 E0.01568
G1 X93.6 Y25 E0.00923
G1 X93.6 Y75 E2.49451
G1 X93.541 Y75.244 E0.01252
G1 X93.45 Y75.396 E0.00884
G1 X93.18 Y75.557 E0.01568
G1 X93 Y75.6 E0.00923
G1 X7 Y75.6 E4.29056
G1 X6.756 Y75.541 E0.01252
G1 X6.604 Y75.45 E0.00884
G1 X6.443 Y75.18 E0.01568
G1 F1500 E-6.5
;MESH:timinoo_nano_frontplate01.stl
G0 F3600 X7.414 Y74.586
G0 X21.062 Y58.4
G0 X21.062 Y58.039
;TYPE:WALL-INNER
G1 F1500 E6.5
G1 F1800 X20.85 Y57.864 E0.01371
G1 X20.731 Y57.568 E0.01592
G1 X20.731 Y42.432 E0.75514
G1 X20.785 Y42.242 E0.00985
G1 X20.93 Y42.05 E0.012
G1 X21.111 Y41.94 E0.01057
G1 X21.272 Y41.902 E0.00825
G1 X46.446 Y41.902 E1.25594
G1 X46.667 Y42.004 E0.01214
G1 X46.847 Y42.197 E0.01317
G1 X46.927 Y42.46 E0.01371
G1 X46.927 Y57.54 E0.75234
G1 X46.878 Y57.742 E0.01037
G1 X46.667 Y57.996 E0.01647
G1 X46.381 Y58.098 E0.01515
G1 X21.272 Y58.098 E1.25269
G1 X21.062 Y58.039 E0.01088
G0 F3600 X21.062 Y58.4
G0 X47.158 Y58.328
G0 X65.981 Y55.9
G0 X65.981 Y55.507
G1 F1800 X65.777 Y55.289 E0.0149
G1 X65.706 Y55.05 E0.01244
G1 X65.706 Y44.949 E0.50394
G1 X65.777 Y44.711 E0.01239
G1 X65.981 Y44.493 E0.0149
G1 X66.254 Y44.402 E0.01436
G1 X76.355 Y44.402 E0.50394
G1 X76.628 Y44.494 E0.01437
G1 X76.775 Y44.626 E0.00986
G1 X76.902 Y44.94 E0.0169
G1 X76.902 Y55.06 E0.50489
G1 X76.859 Y55.23 E0.00875
G1 X76.704 Y55.448 E0.01334
G1 X76.499 Y55.568 E0.01185
G1 X76.354 Y55.598 E0.00739
G1 X66.2 Y55.592 E0.50659
G1 X65.981 Y55.507 E0.01172
G0 F3600 X65.981 Y55.9
G0 X92.13 Y74.13
G0 X92.4 Y74.4
G1 F1800 X92.4 Y25.6 E2.43464
G1 X7.6 Y25.6 E4.23069
G1 X7.6 Y74.4 E2.43464
G1 X92.4 Y74.4 E4.23069
G0 F3600 X92.8 Y74.8
;TYPE:WALL-OUTER
G1 F1800 X92.8 Y25.2 E2.47455
G1 X7.2 Y25.2 E4.2706
G1 X7.2 Y74.8 E2.47455
G1 X92.8 Y74.8 E4.2706
G0 F3600 X92.8 Y74.6
G0 X92.13 Y74.13
G0 X66.269 Y55.9
G0 X66.269 Y55.198
