;FLAVOR:RepRap
;TIME:3794
;Filament used: 3.21034m
;Layer height: 0.15
;MINX:3.192
;MINY:19.726
;MINZ:0.3
;MAXX:96.808
;MAXY:80.353
;MAXZ:10.5
;TARGET_MACHINE.NAME:Unknown
;Generated with Cura_SteamEngine 5.7.2
T0
M104 S200
M109 S200
M82 ;absolute extrusion mode
G28 ;Home
G1 Z15.0 F6000 ;Move the platform down 15mm
G92 E0
M83 ;relative extrusion mode
G1 F1500 E-6.5
;LAYER_COUNT:69
;LAYER:0
M107
G0 F3600 X8.727 Y20 Z0.3
;TYPE:SKIRT
G1 F1500 E6.5
G1 F1800 X10.251 Y19.778 E0.07684
G1 X89.63 Y19.726 E3.96024
G1 X91.687 Y20.148 E0.10476
G1 X93.458 Y21.143 E0.10135
G1 X94.456 Y21.916 E0.06298
G1 X95.548 Y23.269 E0.08674
G1 X96.534 Y25.248 E0.11031
G1 X96.756 Y26.772 E0.07684
G1 X96.808 Y73.148 E2.31371
G1 X96.386 Y75.205 E0.10476
G1 X95.391 Y76.976 E0.10135
G1 X94.618 Y77.974 E0.06298
G1 X93.265 Y79.066 E0.08674
G1 X91.286 Y80.052 E0.11031
G1 X89.762 Y80.274 E0.07684
G1 X16.567 Y80.326 E3.65171
G1 X16.462 Y80.335 E0.00526
G1 X10.371 Y80.353 E0.30388
G1 X8.311 Y79.93 E0.10492
G1 X6.432 Y78.864 E0.10778
G1 X5.54 Y78.164 E0.05657
G1 X4.449 Y76.807 E0.08687
G1 X3.448 Y74.789 E0.11238
G1 X3.192 Y72.553 E0.11228
G1 X3.205 Y26.904 E2.27744
G1 X3.627 Y24.847 E0.10476
G1 X4.622 Y23.076 E0.10135
G1 X5.395 Y22.078 E0.06298
G1 X6.748 Y20.986 E0.08674
G1 X8.727 Y20 E0.11031
G0 F3600 X8.847 Y20.387
G1 F1800 X10.309 Y20.174 E0.07371
G1 X89.589 Y20.126 E3.9553
G1 X91.546 Y20.528 E0.09967
G1 X93.213 Y21.459 E0.09526
G1 X94.175 Y22.204 E0.0607
G1 X95.209 Y23.486 E0.08217
G1 X96.147 Y25.368 E0.10491
G1 X96.36 Y26.83 E0.07371
G1 X96.408 Y73.107 E2.30877
G1 X96.006 Y75.064 E0.09967
G1 X95.075 Y76.731 E0.09526
G1 X94.33 Y77.693 E0.0607
G1 X93.048 Y78.727 E0.08217
G1 X91.166 Y79.665 E0.10491
G1 X89.704 Y79.878 E0.07371
G1 X16.545 Y79.926 E3.64992
G1 X16.428 Y79.936 E0.00586
G1 X10.412 Y79.953 E0.30014
G1 X8.452 Y79.55 E0.09983
G1 X6.679 Y78.549 E0.10158
G1 X5.824 Y77.878 E0.05422
G1 X4.787 Y76.588 E0.08257
G1 X3.837 Y74.674 E0.10661
G1 X3.592 Y72.553 E0.10652
G1 X3.605 Y26.945 E2.27539
G1 X4.007 Y24.988 E0.09967
G1 X4.938 Y23.321 E0.09526
G1 X5.683 Y22.359 E0.0607
G1 X6.965 Y21.325 E0.08217
G1 X8.847 Y20.387 E0.10491
G0 F3600 X8.967 Y20.774
G1 F1800 X10.367 Y20.57 E0.07058
G1 X89.547 Y20.526 E3.95031
G1 X91.405 Y20.908 E0.09463
G1 X92.968 Y21.775 E0.08917
G1 X93.894 Y22.492 E0.05843
G1 X94.87 Y23.703 E0.0776
G1 X95.76 Y25.488 E0.09951
G1 X95.964 Y26.888 E0.07058
G1 X96.008 Y73.065 E2.30378
G1 X95.626 Y74.923 E0.09463
G1 X94.759 Y76.486 E0.08917
G1 X94.042 Y77.412 E0.05843
G1 X92.831 Y78.388 E0.0776
G1 X91.046 Y79.278 E0.09951
G1 X89.646 Y79.482 E0.07058
G1 X16.522 Y79.526 E3.64817
G1 X16.394 Y79.537 E0.00641
G1 X10.453 Y79.553 E0.2964
G1 X8.594 Y79.171 E0.09468
G1 X6.926 Y78.234 E0.09545
G1 X6.108 Y77.592 E0.05188
G1 X5.125 Y76.369 E0.07828
G1 X4.226 Y74.558 E0.10087
G1 X3.992 Y72.553 E0.10071
G1 X4.005 Y26.987 E2.2733
G1 X4.387 Y25.129 E0.09463
G1 X5.254 Y23.566 E0.08917
G1 X5.971 Y22.64 E0.05843
G1 X7.182 Y21.664 E0.0776
G1 X8.967 Y20.774 E0.09951
G0 F3600 X9.087 Y21.161
G1 F1800 X10.425 Y20.966 E0.06746
G1 X89.505 Y20.926 E3.94532
G1 X91.265 Y21.288 E0.08964
G1 X92.774 Y22.125 E0.08609
G1 X93.61 Y22.777 E0.05289
G1 X94.533 Y23.923 E0.07341
G1 X95.373 Y25.608 E0.09393
G1 X95.568 Y26.946 E0.06746
G1 X95.608 Y73.023 E2.29879
G1 X95.246 Y74.783 E0.08964
G1 X94.409 Y76.292 E0.08609
G1 X93.757 Y77.128 E0.05289
G1 X92.611 Y78.051 E0.07341
G1 X90.926 Y78.891 E0.09393
G1 X89.588 Y79.086 E0.06746
G1 X16.5 Y79.126 E3.64638
G1 X16.36 Y79.138 E0.00701
G1 X10.495 Y79.153 E0.29261
G1 X8.734 Y78.791 E0.08969
G1 X7.173 Y77.919 E0.08921
G1 X6.392 Y77.306 E0.04953
G1 X5.463 Y76.15 E0.07399
G1 X4.615 Y74.442 E0.09514
G1 X4.392 Y72.553 E0.0949
G1 X4.405 Y27.029 E2.2712
G1 X4.767 Y25.269 E0.08964
G1 X5.604 Y23.76 E0.08609
G1 X6.256 Y22.924 E0.05289
G1 X7.402 Y22.001 E0.07341
G1 X9.087 Y21.161 E0.09393
G0 F3600 X9.207 Y21.548
G1 F1800 X10.483 Y21.362 E0.06433
G1 X89.463 Y21.326 E3.94033
G1 X91.125 Y21.668 E0.08465
G1 X92.58 Y22.475 E0.08301
G1 X93.325 Y23.061 E0.04729
G1 X94.196 Y24.143 E0.0693
G1 X94.986 Y25.728 E0.08835
G1 X95.172 Y27.004 E0.06433
G1 X95.208 Y72.981 E2.2938
G1 X94.866 Y74.643 E0.08465
G1 X94.059 Y76.098 E0.08301
G1 X93.473 Y76.843 E0.04729
G1 X92.391 Y77.714 E0.0693
G1 X90.806 Y78.504 E0.08835
G1 X89.53 Y78.69 E0.06433
G1 X16.478 Y78.726 E3.64458
G1 X16.326 Y78.739 E0.00761
G1 X10.537 Y78.753 E0.28882
G1 X8.875 Y78.411 E0.08465
G1 X7.42 Y77.604 E0.08301
G1 X6.676 Y77.02 E0.04719
G1 X5.801 Y75.931 E0.0697
G1 X5.004 Y74.326 E0.0894
G1 X4.792 Y72.553 E0.08909
G1 X4.805 Y27.071 E2.26911
G1 X5.147 Y25.409 E0.08465
G1 X5.954 Y23.954 E0.08301
G1 X6.54 Y23.209 E0.04729
G1 X7.622 Y22.338 E0.0693
G1 X9.207 Y21.548 E0.08835
G0 F3600 X9.328 Y21.935
G1 F1800 X10.541 Y21.758 E0.06116
G1 X89.421 Y21.726 E3.93534
G1 X90.985 Y22.048 E0.07966
G1 X92.386 Y22.825 E0.07993
G1 X93.04 Y23.346 E0.04172
G1 X93.857 Y24.361 E0.06501
G1 X94.599 Y25.849 E0.08295
G1 X94.776 Y27.062 E0.06116
G1 X94.808 Y72.939 E2.28881
G1 X94.486 Y74.503 E0.07966
G1 X93.709 Y75.904 E0.07993
G1 X93.188 Y76.558 E0.04172
G1 X92.173 Y77.375 E0.06501
G1 X90.685 Y78.117 E0.08295
G1 X89.472 Y78.294 E0.06116
G1 X16.456 Y78.326 E3.64278
G1 X16.292 Y78.34 E0.00821
G1 X10.579 Y78.353 E0.28502
G1 X9.015 Y78.031 E0.07966
G1 X7.614 Y77.254 E0.07993
G1 X6.961 Y76.735 E0.04161
G1 X6.139 Y75.712 E0.06547
G1 X5.393 Y74.21 E0.08367
G1 X5.192 Y72.553 E0.08327
G1 X5.205 Y27.113 E2.26701
G1 X5.527 Y25.549 E0.07966
G1 X6.304 Y24.148 E0.07993
G1 X6.825 Y23.494 E0.04172
G1 X7.84 Y22.677 E0.06501
G1 X9.328 Y21.935 E0.08295
G0 F3600 X9.448 Y22.322
G1 F1800 X10.599 Y22.154 E0.05803
G1 X89.379 Y22.126 E3.93035
G1 X90.846 Y22.428 E0.07472
G1 X92.137 Y23.138 E0.07351
G1 X92.754 Y23.63 E0.03937
G1 X93.52 Y24.581 E0.06092
G1 X94.212 Y25.969 E0.07738
G1 X94.38 Y27.12 E0.05803
G1 X94.408 Y72.897 E2.28382
G1 X94.106 Y74.364 E0.07472
G1 X93.396 Y75.655 E0.07351
G1 X92.904 Y76.272 E0.03937
G1 X91.953 Y77.038 E0.06092
G1 X90.565 Y77.73 E0.07738
G1 X89.414 Y77.898 E0.05803
G1 X16.434 Y77.926 E3.64099
G1 X16.258 Y77.941 E0.00881
G1 X10.621 Y77.953 E0.28123
G1 X9.154 Y77.651 E0.07472
G1 X7.863 Y76.941 E0.07351
G1 X7.247 Y76.451 E0.03927
G1 X6.477 Y75.493 E0.06132
G1 X5.782 Y74.094 E0.07793
G1 X5.592 Y72.553 E0.07746
G1 X5.605 Y27.155 E2.26492
G1 X5.907 Y25.688 E0.07472
G1 X6.617 Y24.397 E0.07351
G1 X7.109 Y23.78 E0.03937
G1 X8.06 Y23.014 E0.06092
G1 X9.448 Y22.322 E0.07738
G0 F3600 X9.568 Y22.709
G1 F1800 X10.657 Y22.55 E0.05491
G1 X89.337 Y22.526 E3.92536
G1 X90.708 Y22.808 E0.06983
G1 X91.888 Y23.451 E0.06704
G1 X92.471 Y23.916 E0.0372
G1 X93.181 Y24.797 E0.05645
G1 X93.825 Y26.089 E0.07202
G1 X93.984 Y27.178 E0.05491
G1 X94.008 Y72.855 E2.27884
G1 X93.726 Y74.226 E0.06983
G1 X93.083 Y75.406 E0.06704
G1 X92.618 Y75.989 E0.0372
G1 X91.737 Y76.699 E0.05645
G1 X90.445 Y77.343 E0.07202
G1 X89.356 Y77.502 E0.05491
G1 X16.418 Y77.526 E3.63889
G1 X16.257 Y77.541 E0.00807
G1 X10.663 Y77.553 E0.27909
G1 X9.292 Y77.271 E0.06983
G1 X8.112 Y76.628 E0.06704
G1 X7.53 Y76.165 E0.0371
G1 X6.816 Y75.276 E0.05689
G1 X6.171 Y73.978 E0.07231
G1 X5.992 Y72.553 E0.07165
G1 X6.005 Y27.197 E2.26282
G1 X6.287 Y25.826 E0.06983
G1 X6.93 Y24.646 E0.06704
G1 X7.395 Y24.063 E0.0372
G1 X8.276 Y23.353 E0.05645
G1 X9.568 Y22.709 E0.07202
G0 F3600 X9.688 Y23.096
G1 F1800 X10.715 Y22.946 E0.05178
G1 X89.295 Y22.926 E3.92037
G1 X90.57 Y23.188 E0.06494
G1 X91.639 Y23.764 E0.06058
G1 X92.186 Y24.2 E0.0349
G1 X92.844 Y25.017 E0.05234
G1 X93.438 Y26.209 E0.06644
G1 X93.588 Y27.236 E0.05178
G1 X93.608 Y72.813 E2.27385
G1 X93.346 Y74.088 E0.06494
G1 X92.77 Y75.157 E0.06058
G1 X92.334 Y75.704 E0.0349
G1 X91.517 Y76.362 E0.05234
G1 X90.325 Y76.956 E0.06644
G1 X89.298 Y77.106 E0.05178
G1 X16.392 Y77.126 E3.6373
G1 X16.256 Y77.141 E0.00683
G1 X10.705 Y77.153 E0.27694
G1 X9.43 Y76.891 E0.06494
G1 X8.361 Y76.315 E0.06058
G1 X7.816 Y75.881 E0.03476
G1 X7.154 Y75.057 E0.05273
G1 X6.56 Y73.862 E0.06658
G1 X6.392 Y72.553 E0.06584
G1 X6.405 Y27.239 E2.26072
G1 X6.667 Y25.964 E0.06494
G1 X7.243 Y24.895 E0.06058
G1 X7.679 Y24.348 E0.0349
G1 X8.496 Y23.69 E0.05234
G1 X9.688 Y23.096 E0.06644
G0 F3600 X9.808 Y23.483
G1 F1800 X10.773 Y23.342 E0.04866
G1 X89.254 Y23.326 E3.91543
G1 X90.432 Y23.568 E0.06
G1 X91.449 Y24.116 E0.05764
G1 X91.899 Y24.482 E0.02894
G1 X92.507 Y25.237 E0.04836
G1 X93.051 Y26.329 E0.06087
G1 X93.192 Y27.294 E0.04866
G1 X93.208 Y72.772 E2.26891
G1 X92.966 Y73.95 E0.06
G1 X92.418 Y74.967 E0.05764
G1 X92.052 Y75.417 E0.02894
G1 X91.297 Y76.025 E0.04836
G1 X90.205 Y76.569 E0.06087
G1 X89.24 Y76.71 E0.04866
G1 X16.366 Y76.726 E3.6357
G1 X16.212 Y76.743 E0.00773
G1 X10.746 Y76.753 E0.2727
G1 X9.568 Y76.511 E0.06
G1 X8.551 Y75.963 E0.05764
G1 X8.101 Y75.597 E0.02894
G1 X7.493 Y74.84 E0.04844
G1 X6.949 Y73.746 E0.06096
G1 X6.792 Y72.553 E0.06003
G1 X6.805 Y27.28 E2.25868
G1 X7.047 Y26.102 E0.06
G1 X7.595 Y25.085 E0.05764
G1 X7.961 Y24.635 E0.02894
G1 X8.716 Y24.027 E0.04836
G1 X9.808 Y23.483 E0.06087
G0 F3600 X9.928 Y23.87
G1 F1800 X10.831 Y23.738 E0.04553
G1 X89.213 Y23.726 E3.91049
G1 X90.294 Y23.948 E0.05506
G1 X91.202 Y24.431 E0.05131
G1 X91.587 Y24.733 E0.02441
G1 X92.17 Y25.457 E0.04638
G1 X92.664 Y26.449 E0.05529
G1 X92.796 Y27.352 E0.04553
G1 X92.808 Y72.731 E2.26397
G1 X92.586 Y73.812 E0.05506
G1 X92.103 Y74.72 E0.05131
G1 X91.801 Y75.105 E0.02441
G1 X91.077 Y75.688 E0.04638
G1 X90.085 Y76.182 E0.05529
G1 X89.182 Y76.314 E0.04553
G1 X16.34 Y76.326 E3.6341
G1 X16.168 Y76.345 E0.00863
G1 X10.787 Y76.353 E0.26846
G1 X9.706 Y76.131 E0.05506
G1 X8.798 Y75.648 E0.05131
G1 X8.413 Y75.346 E0.02441
G1 X7.83 Y74.621 E0.04641
G1 X7.336 Y73.627 E0.05538
G1 X7.192 Y72.553 E0.05406
G1 X7.205 Y27.321 E2.25663
G1 X7.427 Y26.24 E0.05506
G1 X7.91 Y25.332 E0.05131
G1 X8.212 Y24.947 E0.02441
G1 X8.936 Y24.364 E0.04638
G1 X9.928 Y23.87 E0.05529
G0 F3600 X10.048 Y24.257
G1 F1800 X10.889 Y24.134 E0.0424
G1 X89.172 Y24.126 E3.90555
G1 X90.158 Y24.328 E0.05021
G1 X90.963 Y24.752 E0.04539
G1 X91.275 Y24.984 E0.0194
G1 X91.833 Y25.677 E0.04439
G1 X92.277 Y26.569 E0.04971
G1 X92.4 Y27.41 E0.0424
G1 X92.408 Y72.69 E2.25903
G1 X92.206 Y73.676 E0.05021
G1 X91.782 Y74.481 E0.04539
G1 X91.55 Y74.793 E0.0194
G1 X90.857 Y75.351 E0.04439
G1 X89.965 Y75.795 E0.04971
G1 X89.124 Y75.918 E0.0424
G1 X16.314 Y75.926 E3.63251
G1 X16.124 Y75.947 E0.00954
G1 X10.828 Y75.953 E0.26422
G1 X9.842 Y75.751 E0.05021
G1 X9.037 Y75.327 E0.04539
G1 X8.725 Y75.095 E0.0194
G1 X8.167 Y74.402 E0.04439
G1 X7.723 Y73.508 E0.0498
G1 X7.592 Y72.553 E0.04809
G1 X7.605 Y27.362 E2.25459
G1 X7.807 Y26.376 E0.05021
G1 X8.231 Y25.571 E0.04539
G1 X8.463 Y25.259 E0.0194
G1 X9.156 Y24.701 E0.04439
G1 X10.048 Y24.257 E0.04971
G0 F3600 X10.168 Y24.644
G1 F1800 X10.947 Y24.53 E0.03928
G1 X89.131 Y24.526 E3.90062
G1 X90.021 Y24.708 E0.04532
G1 X90.776 Y25.106 E0.04258
G1 X90.996 Y25.275 E0.01384
G1 X91.494 Y25.893 E0.0396
G1 X91.89 Y26.689 E0.04436
G1 X92.004 Y27.468 E0.03928
G1 X92.008 Y72.649 E2.25409
G1 X91.826 Y73.539 E0.04532
G1 X91.428 Y74.294 E0.04258
G1 X91.259 Y74.514 E0.01384
G1 X90.641 Y75.012 E0.0396
G1 X89.845 Y75.408 E0.04436
G1 X89.066 Y75.522 E0.03928
G1 X16.288 Y75.526 E3.63091
G1 X16.08 Y75.549 E0.01044
G1 X10.869 Y75.553 E0.25998
G1 X9.979 Y75.371 E0.04532
G1 X9.224 Y74.973 E0.04258
G1 X9.004 Y74.804 E0.01384
G1 X8.506 Y74.186 E0.0396
G1 X8.11 Y73.389 E0.0444
G1 X7.992 Y72.553 E0.04212
G1 X8.005 Y27.403 E2.25254
G1 X8.187 Y26.513 E0.04532
G1 X8.585 Y25.758 E0.04258
G1 X8.754 Y25.538 E0.01384
G1 X9.372 Y25.04 E0.0396
G1 X10.168 Y24.644 E0.04436
G0 F3600 X10.288 Y25.031
G1 F1800 X11.005 Y24.926 E0.03615
G1 X89.09 Y24.926 E3.89568
G1 X89.886 Y25.089 E0.04054
G1 X90.59 Y25.46 E0.0397
G1 X90.715 Y25.563 E0.00808
G1 X91.155 Y26.109 E0.03498
G1 X91.503 Y26.809 E0.039
G1 X91.608 Y27.526 E0.03615
G1 X91.608 Y72.608 E2.24915
G1 X91.445 Y73.404 E0.04054
G1 X91.074 Y74.108 E0.0397
G1 X90.971 Y74.233 E0.00808
G1 X90.425 Y74.673 E0.03498
G1 X89.725 Y75.021 E0.039
G1 X89.008 Y75.126 E0.03615
G1 X16.262 Y75.126 E3.62931
G1 X16.036 Y75.151 E0.01134
G1 X10.91 Y75.153 E0.25574
G1 X10.114 Y74.99 E0.04054
G1 X9.41 Y74.619 E0.0397
G1 X9.285 Y74.516 E0.00808
G1 X8.845 Y73.97 E0.03498
G1 X8.497 Y73.27 E0.039
G1 X8.392 Y72.553 E0.03615
G1 X8.405 Y27.444 E2.2505
G1 X8.568 Y26.648 E0.04054
G1 X8.939 Y25.944 E0.0397
G1 X9.042 Y25.819 E0.00808
G1 X9.588 Y25.379 E0.03498
G1 X10.288 Y25.031 E0.039
G0 F3600 X10.41 Y25.417
G1 F1800 X11.005 Y25.326 E0.03003
G1 X89.049 Y25.326 E3.89363
G1 X89.751 Y25.47 E0.03575
G1 X90.404 Y25.814 E0.03682
G1 X90.816 Y26.325 E0.03275
G1 X91.117 Y26.931 E0.03376
G1 X91.208 Y27.526 E0.03003
G1 X91.208 Y72.567 E2.2471
G1 X91.064 Y73.269 E0.03575
G1 X90.72 Y73.922 E0.03682
G1 X90.209 Y74.334 E0.03275
G1 X89.603 Y74.635 E0.03376
G1 X89.008 Y74.726 E0.03003
G1 X16.236 Y74.726 E3.63061
G1 X15.992 Y74.753 E0.01225
G1 X10.951 Y74.753 E0.2515
G1 X10.249 Y74.609 E0.03575
G1 X9.596 Y74.265 E0.03682
G1 X9.184 Y73.754 E0.03275
G1 X8.883 Y73.148 E0.03376
G1 X8.792 Y72.553 E0.03003
G1 X8.805 Y27.485 E2.24845
G1 X8.949 Y26.783 E0.03575
G1 X9.293 Y26.13 E0.03682
G1 X9.804 Y25.718 E0.03275
G1 X10.41 Y25.417 E0.03376
G0 F3600 X10.531 Y25.803
G1 F1800 X11.005 Y25.726 E0.02396
G1 X89.008 Y25.726 E3.89159
G1 X89.614 Y25.85 E0.03086
G1 X90.146 Y26.131 E0.03002
G1 X90.458 Y26.503 E0.02422
G1 X90.731 Y27.052 E0.03059
G1 X90.808 Y27.526 E0.02396
G1 X90.808 Y72.526 E2.24506
G1 X90.684 Y73.132 E0.03086
G1 X90.403 Y73.664 E0.03002
G1 X90.031 Y73.976 E0.02422
G1 X89.482 Y74.249 E0.03059
G1 X89.008 Y74.326 E0.02396
G1 X16.211 Y74.326 E3.63186
G1 X15.992 Y74.353 E0.01101
G1 X10.992 Y74.353 E0.24945
G1 X10.386 Y74.229 E0.03086
G1 X9.854 Y73.948 E0.03002
G1 X9.542 Y73.576 E0.02422
G1 X9.269 Y73.027 E0.03059
G1 X9.192 Y72.553 E0.02396
G1 X9.205 Y27.526 E2.24641
G1 X9.329 Y26.92 E0.03086
G1 X9.61 Y26.388 E0.03002
G1 X9.982 Y26.076 E0.02422
G1 X10.531 Y25.803 E0.03059
G0 F3600 X10.654 Y26.188
G1 F1800 X11.005 Y26.126 E0.01778
G1 X89.008 Y26.126 E3.89159
G1 X89.427 Y26.204 E0.02126
G1 X89.891 Y26.449 E0.02618
G1 X90.1 Y26.681 E0.01558
G1 X90.346 Y27.175 E0.02753
G1 X90.408 Y27.526 E0.01778
G1 X90.408 Y72.526 E2.24506
G1 X90.33 Y72.945 E0.02126
G1 X90.085 Y73.409 E0.02618
G1 X89.853 Y73.618 E0.01558
G1 X89.359 Y73.864 E0.02753
G1 X89.008 Y73.926 E0.01778
G1 X16.183 Y73.926 E3.63325
G1 X15.992 Y73.953 E0.00962
G1 X10.992 Y73.953 E0.24945
G1 X10.573 Y73.875 E0.02126
G1 X10.109 Y73.63 E0.02618
G1 X9.9 Y73.398 E0.01558
G1 X9.654 Y72.904 E0.02753
G1 X9.592 Y72.553 E0.01778
G1 X9.605 Y27.526 E2.24641
G1 X9.683 Y27.107 E0.02126
G1 X9.928 Y26.643 E0.02618
G1 X10.16 Y26.434 E0.01558
G1 X10.654 Y26.188 E0.02753
G0 F3600 X10.732 Y26.58
G1 F1800 X11.005 Y26.526 E0.01388
G1 X89.008 Y26.526 E3.89159
G1 X89.346 Y26.596 E0.01722
G1 X89.609 Y26.733 E0.01479
G1 X89.748 Y26.871 E0.00977
G1 X89.954 Y27.253 E0.02165
G1 X90.008 Y27.526 E0.01388
G1 X90.008 Y72.526 E2.24506
G1 X89.938 Y72.864 E0.01722
G1 X89.801 Y73.127 E0.01479
G1 X89.663 Y73.266 E0.00977
G1 X89.281 Y73.472 E0.02165
G1 X89.008 Y73.526 E0.01388
G1 X16.151 Y73.526 E3.63485
G1 X15.992 Y73.553 E0.00805
G1 X10.992 Y73.553 E0.24945
G1 X10.654 Y73.483 E0.01722
G1 X10.391 Y73.346 E0.01479
G1 X10.252 Y73.208 E0.00977
G1 X10.046 Y72.826 E0.02165
G1 X9.992 Y72.553 E0.01388
G1 X10.005 Y27.526 E2.24641
G1 X10.075 Y27.188 E0.01722
G1 X10.212 Y26.925 E0.01479
G1 X10.35 Y26.786 E0.00977
G1 X10.732 Y26.58 E0.02165
G0 F3600 X11.005 Y27.326
G1 F1800 X89.008 Y27.326 E3.89159
G1 X89.127 Y27.365 E0.00625
G1 X89.208 Y27.526 E0.00899
G1 X89.208 Y72.526 E2.24506
G1 X89.169 Y72.645 E0.00625
G1 X89.008 Y72.726 E0.00899
G1 X16.046 Y72.726 E3.64009
G1 X15.992 Y72.753 E0.00301
G1 X10.992 Y72.753 E0.24945
G1 X10.873 Y72.714 E0.00625
G1 X10.792 Y72.553 E0.00899
G1 X10.805 Y27.526 E2.24641
G1 X10.844 Y27.407 E0.00625
G1 X11.005 Y27.326 E0.00899
G0 F3600 X10.825 Y26.969
G1 F1800 X11.005 Y26.926 E0.00923
G1 X89.008 Y26.926 E3.89159
G1 X89.252 Y26.985 E0.01252
G1 X89.404 Y27.076 E0.00884
G1 X89.565 Y27.346 E0.01568
G1 X89.608 Y27.526 E0.00923
G1 X89.608 Y72.526 E2.24506
G1 X89.549 Y72.77 E0.01252
G1 X89.458 Y72.922 E0.00884
