;FLAVOR:RepRap
;TIME:4450
;Filament used: 3.83433m
;Layer height: 0.15
;MINX:17.2
;MINY:0
;MINZ:0.3
;MAXX:82.8
;MAXY:100
;MAXZ:3
;TARGET_MACHINE.NAME:Unknown
;Generated with Cura_SteamEngine 5.7.1
T0
M104 S200
M109 S200
M82 ;absolute extrusion mode
G28 ;Home
G1 Z15.0 F6000 ;Move the platform down 15mm
G92 E0
M83 ;relative extrusion mode
G1 F1500 E-6.5
;LAYER_COUNT:19
;LAYER:0
M107
G0 F3600 X19.042 Y0.00 Z0.3
;TYPE:SKIRT
G1 F1500 E6.5
G1 F1800 X18.617 Y0.55 E0.03468
G1 X17.622 Y2.321 E0.10135
G1 X17.2 Y4.378 E0.10476
G1 X17.252 Y95.754 E4.55877
G1 X17.474 Y97.279 E0.07688
G1 X18.455 Y99.246 E0.10966
G1 X19.063 Y100 E0.04832
G0 F3600 X19.576 Y100
G1 F1800 X18.795 Y99.031 E0.06209
G1 X17.861 Y97.158 E0.10442
G1 X17.648 Y95.696 E0.07371
G1 X17.6 Y4.419 E4.55383
G1 X18.002 Y2.462 E0.09967
G1 X18.933 Y0.795 E0.09526
G1 X19.548 Y0.00 E0.05015
G0 F3600 X20.108 Y0.00
G1 F1800 X19.964 Y0.116 E0.00923
G1 X19.249 Y1.04 E0.05829
G1 X18.382 Y2.603 E0.08917
G1 X18 Y4.461 E0.09463
G1 X18.044 Y95.638 E4.54884
G1 X18.248 Y97.038 E0.07058
G1 X19.134 Y98.815 E0.09906
G1 X20.089 Y100 E0.07593
G0 F3600 X20.72 Y100
G1 F1800 X20.402 Y99.752 E0.02012
G1 X19.473 Y98.599 E0.07387
G1 X18.635 Y96.918 E0.09371
G1 X18.44 Y95.58 E0.06746
G1 X18.4 Y4.503 E4.54385
G1 X18.762 Y2.743 E0.08964
G1 X19.599 Y1.234 E0.08609
G1 X20.251 Y0.398 E0.05289
G1 X20.745 Y0.00 E0.03165
G0 F3600 X21.384 Y0.00
G1 F1800 X20.535 Y0.683 E0.05436
G1 X19.949 Y1.428 E0.04729
G1 X19.142 Y2.883 E0.08301
G1 X18.8 Y4.545 E0.08465
G1 X18.836 Y95.522 E4.53886
G1 X19.022 Y96.798 E0.06433
G1 X19.812 Y98.383 E0.08835
G1 X20.684 Y99.465 E0.06933
G1 X21.37 Y100 E0.0434
G0 F3600 X22.153 Y100
G1 F1800 X21.678 Y99.739 E0.02704
G1 X20.969 Y99.181 E0.04501
G1 X20.151 Y98.165 E0.06508
G1 X19.409 Y96.677 E0.08295
G1 X19.232 Y95.464 E0.06116
G1 X19.2 Y4.587 E4.53387
G1 X19.522 Y3.023 E0.07966
G1 X20.299 Y1.622 E0.07993
G1 X20.82 Y0.968 E0.04172
G1 X21.835 Y0.151 E0.06501
G1 X22.138 Y0.00 E0.01689
G0 F3600 X23.034 Y0.00
G1 F1800 X22.055 Y0.488 E0.05457
G1 X21.104 Y1.254 E0.06092
G1 X20.612 Y1.871 E0.03937
G1 X19.902 Y3.162 E0.07351
G1 X19.6 Y4.629 E0.07472
G1 X19.628 Y95.406 E4.52888
G1 X19.796 Y96.557 E0.05803
G1 X20.488 Y97.945 E0.07738
G1 X21.254 Y98.896 E0.06092
G1 X21.871 Y99.388 E0.03937
G1 X22.984 Y100 E0.06337
G1 F1500 E-6.5
G0 F3600 X80.958 Y100
G1 F1500 E6.5
G1 F1800 X81.383 Y99.45 E0.03468
G1 X82.378 Y97.679 E0.10135
G1 X82.8 Y95.622 E0.10476
G1 X82.748 Y4.246 E4.55877
G1 X82.526 Y2.721 E0.07688
G1 X81.545 Y0.754 E0.10966
G1 X80.937 Y0.00 E0.04832
G0 F3600 X80.424 Y0.00
G1 F1800 X81.205 Y0.969 E0.06209
G1 X82.139 Y2.842 E0.10442
G1 X82.352 Y4.304 E0.07371
G1 X82.4 Y95.581 E4.55383
G1 X81.998 Y97.538 E0.09967
G1 X81.067 Y99.205 E0.09526
G1 X80.452 Y100 E0.05015
G0 F3600 X79.892 Y100
G1 F1800 X80.036 Y99.884 E0.00923
G1 X80.751 Y98.96 E0.05829
G1 X81.618 Y97.397 E0.08917
G1 X82 Y95.539 E0.09463
G1 X81.956 Y4.362 E4.54884
G1 X81.752 Y2.962 E0.07058
G1 X80.866 Y1.185 E0.09906
G1 X79.911 Y0.00 E0.07593
G0 F3600 X79.28 Y0.00
G1 F1800 X79.598 Y0.248 E0.02012
G1 X80.527 Y1.401 E0.07387
G1 X81.365 Y3.082 E0.09371
G1 X81.56 Y4.42 E0.06746
G1 X81.6 Y95.497 E4.54385
G1 X81.238 Y97.257 E0.08964
G1 X80.401 Y98.766 E0.08609
G1 X79.749 Y99.602 E0.05289
G1 X79.255 Y100 E0.03165
G0 F3600 X78.616 Y100
G1 F1800 X79.465 Y99.317 E0.05436
G1 X80.051 Y98.572 E0.04729
G1 X80.858 Y97.117 E0.08301
G1 X81.2 Y95.455 E0.08465
G1 X81.164 Y4.478 E4.53886
G1 X80.978 Y3.202 E0.06433
G1 X80.188 Y1.617 E0.08835
G1 X79.316 Y0.535 E0.06933
G1 X78.63 Y0.00 E0.0434
G0 F3600 X77.847 Y0.00
G1 F1800 X78.322 Y0.261 E0.02704
G1 X79.031 Y0.819 E0.04501
G1 X79.849 Y1.835 E0.06508
G1 X80.591 Y3.323 E0.08295
G1 X80.768 Y4.536 E0.06116
G1 X80.8 Y95.413 E4.53387
G1 X80.478 Y96.977 E0.07966
G1 X79.701 Y98.378 E0.07993
G1 X79.18 Y99.032 E0.04172
G1 X78.165 Y99.849 E0.06501
G1 X77.862 Y100 E0.01689
G0 F3600 X76.966 Y100
G1 F1800 X77.945 Y99.512 E0.05457
G1 X78.896 Y98.746 E0.06092
G1 X79.388 Y98.129 E0.03937
G1 X80.098 Y96.838 E0.07351
G1 X80.4 Y95.371 E0.07472
G1 X80.372 Y4.594 E4.52888
G1 X80.204 Y3.443 E0.05803
G1 X79.512 Y2.055 E0.07738
G1 X78.746 Y1.104 E0.06092
G1 X78.129 Y0.612 E0.03937
G1 X77.016 Y0.00 E0.06337
G0 F3600 X76.7 Y0.282
G1 F1800 X77.88 Y0.925 E0.06704
G1 X78.463 Y1.39 E0.0372
G1 X79.173 Y2.271 E0.05645
G1 X79.817 Y3.563 E0.07202
G1 X79.976 Y4.652 E0.05491
G1 X80 Y95.329 E4.52389
G1 X79.718 Y96.7 E0.06983
G1 X79.075 Y97.88 E0.06704
G1 X78.61 Y98.463 E0.0372
G1 X77.729 Y99.173 E0.05645
G1 X76.437 Y99.817 E0.07202
G1 X75.348 Y99.976 E0.05491
G1 X24.671 Y100 E2.52829
G1 X23.3 Y99.718 E0.06983
G1 X22.12 Y99.075 E0.06704
G1 X21.537 Y98.61 E0.0372
G1 X20.827 Y97.729 E0.05645
G1 X20.183 Y96.437 E0.07202
G1 X20.024 Y95.348 E0.05491
G1 X20 Y4.671 E4.52389
G1 X20.282 Y3.3 E0.06983
G1 X20.925 Y2.12 E0.06704
G1 X21.39 Y1.537 E0.0372
G1 X22.271 Y0.827 E0.05645
G1 X23.563 Y0.183 E0.07202
G1 X24.652 Y0.024 E0.05491
G1 X75.329 Y0.00 E2.52829
G1 X76.7 Y0.282 E0.06983
G0 F3600 X76.562 Y0.662
G1 F1800 X77.631 Y1.238 E0.06058
G1 X78.178 Y1.674 E0.0349
G1 X78.836 Y2.491 E0.05234
G1 X79.43 Y3.683 E0.06644
G1 X79.58 Y4.71 E0.05178
G1 X79.6 Y95.287 E4.5189
G1 X79.338 Y96.562 E0.06494
G1 X78.762 Y97.631 E0.06058
G1 X78.326 Y98.178 E0.0349
G1 X77.509 Y98.836 E0.05234
G1 X76.317 Y99.43 E0.06644
G1 X75.29 Y99.58 E0.05178
G1 X24.713 Y99.6 E2.5233
G1 X23.438 Y99.338 E0.06494
G1 X22.369 Y98.762 E0.06058
G1 X21.822 Y98.326 E0.0349
G1 X21.164 Y97.509 E0.05234
G1 X20.57 Y96.317 E0.06644
G1 X20.42 Y95.29 E0.05178
G1 X20.4 Y4.713 E4.5189
G1 X20.662 Y3.438 E0.06494
G1 X21.238 Y2.369 E0.06058
G1 X21.674 Y1.822 E0.0349
G1 X22.491 Y1.164 E0.05234
G1 X23.683 Y0.57 E0.06644
G1 X24.71 Y0.42 E0.05178
G1 X75.287 Y0.4 E2.5233
G1 X76.562 Y0.662 E0.06494
G0 F3600 X76.424 Y1.042
G1 F1800 X77.441 Y1.59 E0.05764
G1 X77.891 Y1.956 E0.02894
G1 X78.499 Y2.711 E0.04836
G1 X79.043 Y3.803 E0.06087
G1 X79.184 Y4.768 E0.04866
G1 X79.2 Y95.246 E4.51397
G1 X78.958 Y96.424 E0.06
G1 X78.41 Y97.441 E0.05764
G1 X78.044 Y97.891 E0.02894
G1 X77.289 Y98.499 E0.04836
G1 X76.197 Y99.043 E0.06087
G1 X75.232 Y99.184 E0.04866
G1 X24.754 Y99.2 E2.51836
G1 X23.576 Y98.958 E0.06
G1 X22.559 Y98.41 E0.05764
G1 X22.109 Y98.044 E0.02894
G1 X21.501 Y97.289 E0.04836
G1 X20.957 Y96.197 E0.06087
G1 X20.816 Y95.232 E0.04866
G1 X20.8 Y4.754 E4.51397
G1 X21.042 Y3.576 E0.06
G1 X21.59 Y2.559 E0.05764
G1 X21.956 Y2.109 E0.02894
G1 X22.711 Y1.501 E0.04836
G1 X23.803 Y0.957 E0.06087
G1 X24.768 Y0.816 E0.04866
G1 X75.246 Y0.8 E2.51836
G1 X76.424 Y1.042 E0.06
G0 F3600 X76.286 Y1.422
G1 F1800 X77.194 Y1.905 E0.05131
G1 X77.579 Y2.207 E0.02441
G1 X78.162 Y2.931 E0.04638
G1 X78.656 Y3.923 E0.05529
G1 X78.788 Y4.826 E0.04553
G1 X78.8 Y95.205 E4.50903
G1 X78.578 Y96.286 E0.05506
G1 X78.095 Y97.194 E0.05131
G1 X77.793 Y97.579 E0.02441
G1 X77.069 Y98.162 E0.04638
G1 X76.077 Y98.656 E0.05529
G1 X75.174 Y98.788 E0.04553
G1 X24.795 Y98.8 E2.51342
G1 X23.714 Y98.578 E0.05506
G1 X22.806 Y98.095 E0.05131
G1 X22.421 Y97.793 E0.02441
G1 X21.838 Y97.069 E0.04638
G1 X21.344 Y96.077 E0.05529
G1 X21.212 Y95.174 E0.04553
G1 X21.2 Y4.795 E4.50903
G1 X21.422 Y3.714 E0.05506
G1 X21.905 Y2.806 E0.05131
G1 X22.207 Y2.421 E0.02441
G1 X22.931 Y1.838 E0.04638
G1 X23.923 Y1.344 E0.05529
G1 X24.826 Y1.212 E0.04553
G1 X75.205 Y1.2 E2.51342
G1 X76.286 Y1.422 E0.05506
G0 F3600 X76.15 Y1.802
G1 F1800 X76.955 Y2.226 E0.04539
G1 X77.267 Y2.458 E0.0194
G1 X77.825 Y3.151 E0.04439
G1 X78.269 Y4.043 E0.04971
G1 X78.392 Y4.884 E0.0424
G1 X78.4 Y95.164 E4.50409
G1 X78.198 Y96.15 E0.05021
G1 X77.774 Y96.955 E0.04539
G1 X77.542 Y97.267 E0.0194
G1 X76.849 Y97.825 E0.04439
G1 X75.957 Y98.269 E0.04971
G1 X75.116 Y98.392 E0.0424
G1 X24.836 Y98.4 E2.50848
G1 X23.85 Y98.198 E0.05021
G1 X23.045 Y97.774 E0.04539
G1 X22.733 Y97.542 E0.0194
G1 X22.175 Y96.849 E0.04439
G1 X21.731 Y95.957 E0.04971
G1 X21.608 Y95.116 E0.0424
G1 X21.6 Y4.836 E4.50409
G1 X21.802 Y3.85 E0.05021
G1 X22.226 Y3.045 E0.04539
G1 X22.458 Y2.733 E0.0194
G1 X23.151 Y2.175 E0.04439
G1 X24.043 Y1.731 E0.04971
G1 X24.884 Y1.608 E0.0424
G1 X75.164 Y1.6 E2.50848
G1 X76.15 Y1.802 E0.05021
G0 F3600 X76.013 Y2.182
G1 F1800 X76.768 Y2.58 E0.04258
G1 X76.988 Y2.749 E0.01384
G1 X77.486 Y3.367 E0.0396
G1 X77.882 Y4.163 E0.04436
G1 X77.996 Y4.942 E0.03928
G1 X78 Y95.123 E4.49915
G1 X77.818 Y96.013 E0.04532
G1 X77.42 Y96.768 E0.04258
G1 X77.251 Y96.988 E0.01384
G1 X76.633 Y97.486 E0.0396
G1 X75.837 Y97.882 E0.04436
G1 X75.058 Y97.996 E0.03928
G1 X24.877 Y98 E2.50354
G1 X23.987 Y97.818 E0.04532
G1 X23.232 Y97.42 E0.04258
G1 X23.012 Y97.251 E0.01384
G1 X22.514 Y96.633 E0.0396
G1 X22.118 Y95.837 E0.04436
G1 X22.004 Y95.058 E0.03928
G1 X22 Y4.877 E4.49915
G1 X22.182 Y3.987 E0.04532
G1 X22.58 Y3.232 E0.04258
G1 X22.749 Y3.012 E0.01384
G1 X23.367 Y2.514 E0.0396
G1 X24.163 Y2.118 E0.04436
G1 X24.942 Y2.004 E0.03928
G1 X75.123 Y2 E2.50354
G1 X76.013 Y2.182 E0.04532
G0 F3600 X75.878 Y2.563
G1 F1800 X76.582 Y2.934 E0.0397
G1 X76.707 Y3.037 E0.00808
G1 X77.147 Y3.583 E0.03498
G1 X77.495 Y4.283 E0.039
G1 X77.6 Y5 E0.03615
G1 X77.6 Y95.082 E4.49421
G1 X77.437 Y95.878 E0.04054
G1 X77.066 Y96.582 E0.0397
G1 X76.963 Y96.707 E0.00808
G1 X76.417 Y97.147 E0.03498
G1 X75.717 Y97.495 E0.039
G1 X75 Y97.6 E0.03615
G1 X24.918 Y97.6 E2.4986
G1 X24.122 Y97.437 E0.04054
G1 X23.418 Y97.066 E0.0397
G1 X23.293 Y96.963 E0.00808
G1 X22.853 Y96.417 E0.03498
G1 X22.505 Y95.717 E0.039
G1 X22.4 Y95 E0.03615
G1 X22.4 Y4.918 E4.49421
G1 X22.563 Y4.122 E0.04054
G1 X22.934 Y3.418 E0.0397
G1 X23.037 Y3.293 E0.00808
G1 X23.583 Y2.853 E0.03498
G1 X24.283 Y2.505 E0.039
G1 X25 Y2.4 E0.03615
G1 X75.082 Y2.4 E2.4986
G1 X75.878 Y2.563 E0.04054
G0 F3600 X75.743 Y2.944
G1 F1800 X76.396 Y3.288 E0.03682
G1 X76.808 Y3.799 E0.03275
G1 X77.109 Y4.405 E0.03376
G1 X77.2 Y5 E0.03003
G1 X77.2 Y95.041 E4.49216
G1 X77.056 Y95.743 E0.03575
G1 X76.712 Y96.396 E0.03682
G1 X76.201 Y96.808 E0.03275
G1 X75.595 Y97.109 E0.03376
G1 X75 Y97.2 E0.03003
G1 X24.959 Y97.2 E2.49656
G1 X24.257 Y97.056 E0.03575
G1 X23.604 Y96.712 E0.03682
G1 X23.192 Y96.201 E0.03275
G1 X22.891 Y95.595 E0.03376
G1 X22.8 Y95 E0.03003
G1 X22.8 Y4.959 E4.49216
G1 X22.944 Y4.257 E0.03575
G1 X23.288 Y3.604 E0.03682
G1 X23.799 Y3.192 E0.03275
G1 X24.405 Y2.891 E0.03376
G1 X25 Y2.8 E0.03003
G1 X75.041 Y2.8 E2.49656
G1 X75.743 Y2.944 E0.03575
G0 F3600 X75.606 Y3.324
G1 F1800 X76.138 Y3.605 E0.03002
G1 X76.45 Y3.977 E0.02422
G1 X76.723 Y4.526 E0.03059
G1 X76.8 Y5 E0.02396
G1 X76.8 Y95 E4.49012
G1 X76.676 Y95.606 E0.03086
G1 X76.395 Y96.138 E0.03002
G1 X76.023 Y96.45 E0.02422
G1 X75.474 Y96.723 E0.03059
G1 X75 Y96.8 E0.02396
G1 X25 Y96.8 E2.49451
G1 X24.394 Y96.676 E0.03086
G1 X23.862 Y96.395 E0.03002
G1 X23.55 Y96.023 E0.02422
G1 X23.277 Y95.474 E0.03059
G1 X23.2 Y95 E0.02396
G1 X23.2 Y5 E4.49012
G1 X23.324 Y4.394 E0.03086
G1 X23.605 Y3.862 E0.03002
G1 X23.977 Y3.55 E0.02422
G1 X24.526 Y3.277 E0.03059
G1 X25 Y3.2 E0.02396
G1 X75 Y3.2 E2.49451
G1 X75.606 Y3.324 E0.03086
G0 F3600 X75.419 Y3.678
G1 F1800 X75.883 Y3.923 E0.02618
G1 X76.092 Y4.155 E0.01558
G1 X76.338 Y4.649 E0.02753
G1 X76.4 Y5 E0.01778
G1 X76.4 Y95 E4.49012
G1 X76.322 Y95.419 E0.02126
G1 X76.077 Y95.883 E0.02618
G1 X75.845 Y96.092 E0.01558
G1 X75.351 Y96.338 E0.02753
G1 X75 Y96.4 E0.01778
G1 X25 Y96.4 E2.49451
G1 X24.581 Y96.322 E0.02126
G1 X24.117 Y96.077 E0.02618
G1 X23.908 Y95.845 E0.01558
G1 X23.662 Y95.351 E0.02753
G1 X23.6 Y95 E0.01778
G1 X23.6 Y5 E4.49012
G1 X23.678 Y4.581 E0.02126
G1 X23.923 Y4.117 E0.02618
G1 X24.155 Y3.908 E0.01558
G1 X24.649 Y3.662 E0.02753
G1 X25 Y3.6 E0.01778
G1 X75 Y3.6 E2.49451
G1 X75.419 Y3.678 E0.02126
G0 F3600 X75.338 Y4.07
G1 F1800 X75.601 Y4.207 E0.01479
G1 X75.74 Y4.345 E0.00977
G1 X75.946 Y4.727 E0.02165
G1 X76 Y5 E0.01388
G1 X76 Y95 E4.49012
G1 X75.93 Y95.338 E0.01722
G1 X75.793 Y95.601 E0.01479
G1 X75.655 Y95.74 E0.00977
G1 X75.273 Y95.946 E0.02165
G1 X75 Y96 E0.01388
G1 X25 Y96 E2.49451
G1 X24.662 Y95.93 E0.01722
G1 X24.399 Y95.793 E0.01479
G1 X24.26 Y95.655 E0.00977
G1 X24.054 Y95.273 E0.02165
G1 X24 Y95 E0.01388
G1 X24 Y5 E4.49012
G1 X24.07 Y4.662 E0.01722
G1 X24.207 Y4.399 E0.01479
G1 X24.345 Y4.26 E0.00977
G1 X24.727 Y4.054 E0.02165
G1 X25 Y4 E0.01388
G1 X75 Y4 E2.49451
G1 X75.338 Y4.07 E0.01722
G0 F3600 X75.119 Y4.839
G1 F1800 X75.2 Y5 E0.00899
G1 X75.2 Y95 E4.49012
G1 X75.161 Y95.119 E0.00625
G1 X75 Y95.2 E0.00899
G1 X25 Y95.2 E2.49451
G1 X24.881 Y95.161 E0.00625
G1 X24.8 Y95 E0.00899
G1 X24.8 Y5 E4.49012
G1 X24.839 Y4.881 E0.00625
G1 X25 Y4.8 E0.00899
G1 X75 Y4.8 E2.49451
G1 X75.119 Y4.839 E0.00625
G0 F3600 X75.244 Y4.459
G1 F1800 X75.396 Y4.55 E0.00884
G1 X75.557 Y4.82 E0.01568
G1 X75.6 Y5 E0.00923
G1 X75.6 Y95 E4.49012
G1 X75.541 Y95.244 E0.01252
G1 X75.45 Y95.396 E0.00884
G1 X75.18 Y95.557 E0.01568
G1 X75 Y95.6 E0.00923
G1 X25 Y95.6 E2.49451
G1 X24.756 Y95.541 E0.01252
G1 X24.604 Y95.45 E0.00884
G1 X24.443 Y95.18 E0.01568
G1 X24.4 Y95 E0.00923
G1 X24.4 Y5 E4.49012
G1 X24.459 Y4.756 E0.01252
G1 X24.55 Y4.604 E0.00884
G1 X24.82 Y4.443 E0.01568
G1 X25 Y4.4 E0.00923
G1 X75 Y4.4 E2.49451
G1 X75.244 Y4.459 E0.01252
G1 F1500 E-6.5
;MESH:timinoo_nano_face01.stl
G0 F3600 X74.586 Y5.414
G0 X57.928 Y46.247
G0 X42.252 Y46.719
G0 X42.252 Y46.363
;TYPE:WALL-INNER
G1 F1500 E6.5
G1 F1800 X42.075 Y46.241 E0.01073
G1 X41.96 Y46.079 E0.00991
G1 X41.902 Y45.872 E0.01073
G1 X41.902 Y20.764 E1.25264
G1 X41.934 Y20.615 E0.0076
G1 X42.093 Y20.374 E0.0144
G1 X42.274 Y20.259 E0.0107
G1 X42.441 Y20.218 E0.00858
G1 X57.559 Y20.218 E0.75424
G1 X57.726 Y20.259 E0.00858
G1 X57.907 Y20.374 E0.0107
G1 X58.066 Y20.615 E0.0144
G1 X58.098 Y20.764 E0.0076
G1 X58.098 Y45.872 E1.25264
G1 X58.039 Y46.082 E0.01088
G1 X57.921 Y46.245 E0.01004
G1 X57.742 Y46.366 E0.01078
G1 X57.538 Y46.415 E0.01047
G1 X42.423 Y46.412 E0.75409
G1 X42.252 Y46.363 E0.00887
G0 F3600 X42.252 Y46.719
G0 X43.912 Y79.723
G0 X44.357 Y79.355
G1 F1800 X44.225 Y79.202 E0.01008
G1 X44.141 Y78.94 E0.01373
G1 X44.141 Y68.844 E0.50369
G1 X44.185 Y68.662 E0.00934
G1 X44.332 Y68.451 E0.01283
G1 X44.515 Y68.335 E0.01081
G1 X44.701 Y68.293 E0.00951
G1 X54.788 Y68.293 E0.50324
G1 X54.987 Y68.344 E0.01025
G1 X55.188 Y68.491 E0.01242
G1 X55.281 Y68.63 E0.00834
G1 X55.339 Y68.846 E0.01116
G1 X55.339 Y78.991 E0.50614
G1 X55.264 Y79.186 E0.01042
G1 X55.147 Y79.334 E0.00941
G1 X54.873 Y79.49 E0.01573
G1 X44.603 Y79.489 E0.51237
G1 X44.357 Y79.355 E0.01398
G0 F3600 X44.357 Y79.795
G0 X74.13 Y94.13
G0 X74.4 Y94.4
G1 F1800 X74.4 Y5.6 E4.43025
G1 X25.6 Y5.6 E2.43464
G1 X25.6 Y94.4 E4.43025
G1 X74.4 Y94.4 E2.43464
G0 F3600 X74.8 Y94.8
;TYPE:WALL-OUTER
G1 F1800 X74.8 Y5.2 E4.47016
G1 X25.2 Y5.2 E2.47455
G1 X25.2 Y94.8 E4.47016
G1 X74.8 Y94.8 E2.47455
G0 F3600 X74.8 Y94.6
G0 X74.13 Y94.13
G0 X54.76 Y79.795
G0 X54.76 Y79.092
G1 F1800 X44.719 Y79.091 E0.50095
G1 X44.568 Y78.996 E0.0089
G1 X44.54 Y78.908 E0.00461
G1 X44.54 Y68.844 E0.50209
G1 X44.594 Y68.754 E0.00524
G1 X44.727 Y68.692 E0.00732
G1 X54.788 Y68.697 E0.50195
G1 X54.89 Y68.758 E0.00593
G1 X54.938 Y68.857 E0.00549
G1 X54.936 Y78.937 E0.50289
G1 X54.863 Y79.051 E0.00675
G1 X54.76 Y79.092 E0.00553
G0 F3600 X54.56 Y79.092
G0 X54.56 Y79.795
G0 X55.568 Y79.723
G0 X57.564 Y46.719
G0 X57.564 Y46.016
G1 F1800 X42.449 Y46.017 E0.75409
G1 X42.358 Y45.958 E0.00541
G1 X42.3 Y45.835 E0.00678
G1 X42.303 Y20.781 E1.24995
G1 X42.377 Y20.657 E0.0072
G1 X42.48 Y20.616 E0.00553
G1 X57.52 Y20.616 E0.75035
G1 X57.648 Y20.68 E0.00714
G1 X57.7 Y20.798 E0.00643
G1 X57.7 Y45.886 E1.25165
G1 X57.564 Y46.016 E0.00939
G0 F3600 X57.364 Y46.016
G0 X57.364 Y46.719
G0 X74.02 Y94.02
;TYPE:SKIN
G1 F1800 X25.98 Y94.02 E2.39673
G1 X25.981 Y5.981 E4.39228
G1 X74.02 Y5.98 E2.39668
G1 X74.02 Y94.02 E4.39233
G0 F3600 X44.206 Y79.795
G0 X44.206 Y79.716
G1 F1800 X44.636 Y79.867 E0.02274
G1 X54.835 Y79.867 E0.50883
G1 X55.284 Y79.702 E0.02387
G1 X55.542 Y79.453 E0.01789
G1 X55.716 Y79.011 E0.0237
G1 X55.716 Y68.815 E0.50868
G1 X55.572 Y68.375 E0.0231
G1 X55.261 Y68.063 E0.02198
G1 X54.835 Y67.914 E0.02252
G1 X44.596 Y67.913 E0.51083
G1 X44.312 Y68.008 E0.01494
G1 X44.074 Y68.166 E0.01425
G1 X43.826 Y68.527 E0.02185
G1 X43.76 Y68.812 E0.01459
