;FLAVOR:RepRap
;TIME:8562
;Filament used: 7.74673m
;Layer height: 0.15
;MINX:17.189
;MINY:20.219
;MINZ:0.3
;MAXX:82.811
;MAXY:80.062
;MAXZ:80.1
;TARGET_MACHINE.NAME:Unknown
;Generated with Cura_SteamEngine 5.9.0
T0
M104 S200
M109 S200
M82 ;absolute extrusion mode
G28 ;Home
G1 Z15.0 F6000 ;Move the platform down 15mm
G92 E0
M83 ;relative extrusion mode
G1 F1500 E-6.5
;LAYER_COUNT:533
;LAYER:0
M107
G0 F3600 X17.211 Y52.471 Z0.3
;TYPE:SKIRT
G1 F1500 E6.5
G1 F1800 X17.633 Y50.414 E0.10476
G1 X18.628 Y48.643 E0.10135
G1 X19.401 Y47.645 E0.06298
G1 X20.754 Y46.553 E0.08674
G1 X22.733 Y45.567 E0.11031
G1 X24.257 Y45.345 E0.07684
G1 X54.875 Y45.299 E1.52754
G1 X48.175 Y33.7 E0.66828
G1 X47.595 Y31.76 E0.10102
G1 X47.575 Y29.708 E0.10238
G1 X47.706 Y28.682 E0.0516
G1 X48.355 Y26.989 E0.09046
G1 X49.598 Y25.107 E0.11252
G1 X51.144 Y23.932 E0.09688
G1 X56.423 Y20.861 E0.30469
G1 X58.363 Y20.277 E0.10108
G1 X59.778 Y20.219 E0.07065
G1 X61.439 Y20.366 E0.08319
G1 X63.163 Y21.027 E0.09212
G1 X65.039 Y22.264 E0.11211
G1 X66.156 Y23.726 E0.09179
G1 X79.456 Y46.713 E1.32495
G1 X80.252 Y47.206 E0.04671
G1 X81.553 Y48.836 E0.10405
G1 X82.555 Y50.86 E0.11267
G1 X82.811 Y53.11 E0.11298
G1 X82.782 Y58.594 E0.2736
G1 X82.782 Y72.884 E0.71293
G1 X82.36 Y74.941 E0.10476
G1 X81.365 Y76.712 E0.10135
G1 X80.592 Y77.71 E0.06298
G1 X79.239 Y78.8 E0.08668
G1 X77.253 Y79.789 E0.11069
G1 X75.394 Y80.035 E0.09355
G1 X69.378 Y80.062 E0.30014
G1 X67.305 Y79.638 E0.10556
G1 X65.432 Y78.581 E0.1073
G1 X64.549 Y77.89 E0.05594
G1 X63.44 Y76.513 E0.08821
G1 X62.456 Y74.536 E0.11017
G1 X62.222 Y72.848 E0.08502
G1 X62.194 Y65.893 E0.34699
G1 X37.789 Y65.893 E1.21757
G1 X37.789 Y72.884 E0.34878
G1 X37.367 Y74.941 E0.10476
G1 X36.372 Y76.712 E0.10135
G1 X35.599 Y77.71 E0.06298
G1 X34.246 Y78.8 E0.08668
G1 X32.26 Y79.789 E0.11069
G1 X30.401 Y80.035 E0.09355
G1 X24.282 Y80.062 E0.30528
G1 X22.273 Y79.623 E0.10259
G1 X20.485 Y78.623 E0.10221
G1 X19.546 Y77.888 E0.05949
G1 X18.457 Y76.531 E0.08681
G1 X17.444 Y74.485 E0.1139
G1 X17.189 Y72.262 E0.11163
G1 X17.211 Y52.471 E0.98738
G0 F3600 X17.611 Y52.512
G1 F1800 X18.013 Y50.555 E0.09967
G1 X18.944 Y48.888 E0.09526
G1 X19.689 Y47.926 E0.0607
G1 X20.971 Y46.892 E0.08217
G1 X22.853 Y45.954 E0.10491
G1 X24.315 Y45.741 E0.07371
G1 X55.567 Y45.698 E1.55917
G1 X48.545 Y33.542 E0.70038
G1 X47.994 Y31.7 E0.09592
G1 X47.972 Y29.759 E0.09684
G1 X48.097 Y28.781 E0.04919
G1 X48.714 Y27.171 E0.08602
G1 X49.893 Y25.385 E0.10677
G1 X51.386 Y24.251 E0.09354
G1 X56.584 Y21.23 E0.29995
G1 X58.428 Y20.675 E0.09607
G1 X59.794 Y20.619 E0.06821
G1 X61.345 Y20.759 E0.07769
G1 X62.981 Y21.386 E0.08741
G1 X64.764 Y22.561 E0.10653
G1 X65.81 Y23.926 E0.0858
G1 X79.161 Y47.001 E1.33003
G1 X79.981 Y47.509 E0.04812
G1 X81.217 Y49.057 E0.09883
G1 X82.166 Y50.974 E0.10672
G1 X82.411 Y53.108 E0.10717
G1 X82.382 Y58.592 E0.2736
G1 X82.382 Y72.843 E0.71099
G1 X81.98 Y74.8 E0.09967
G1 X81.049 Y76.467 E0.09526
G1 X80.304 Y77.429 E0.0607
G1 X79.023 Y78.461 E0.08207
G1 X77.136 Y79.401 E0.10518
G1 X75.342 Y79.638 E0.09028
G1 X69.418 Y79.662 E0.29555
G1 X67.447 Y79.259 E0.10037
G1 X65.679 Y78.266 E0.10117
G1 X64.832 Y77.603 E0.05366
G1 X63.777 Y76.293 E0.08392
G1 X62.843 Y74.417 E0.10455
G1 X62.622 Y72.846 E0.07915
G1 X62.592 Y65.493 E0.36685
G1 X37.389 Y65.493 E1.25738
G1 X37.389 Y72.843 E0.36669
G1 X36.987 Y74.8 E0.09967
G1 X36.056 Y76.467 E0.09526
G1 X35.311 Y77.429 E0.0607
G1 X34.03 Y78.461 E0.08207
G1 X32.143 Y79.401 E0.10518
G1 X30.349 Y79.638 E0.09028
G1 X24.326 Y79.662 E0.30049
G1 X22.416 Y79.244 E0.09755
G1 X20.732 Y78.308 E0.09612
G1 X19.828 Y77.6 E0.05729
G1 X18.797 Y76.316 E0.08215
G1 X17.833 Y74.368 E0.10844
G1 X17.589 Y72.262 E0.10577
G1 X17.611 Y52.512 E0.98533
G0 F3600 X18.011 Y52.554
G1 F1800 X18.393 Y50.696 E0.09463
G1 X19.26 Y49.133 E0.08917
G1 X19.977 Y48.207 E0.05843
G1 X21.188 Y47.231 E0.0776
G1 X22.973 Y46.341 E0.09951
G1 X24.373 Y46.137 E0.07058
G1 X56.259 Y46.097 E1.5908
G1 X48.915 Y33.384 E0.73248
G1 X48.393 Y31.64 E0.09082
G1 X48.369 Y29.81 E0.09131
G1 X48.488 Y28.88 E0.04678
G1 X49.073 Y27.353 E0.08158
G1 X50.188 Y25.663 E0.10101
G1 X51.628 Y24.57 E0.09019
G1 X56.745 Y21.599 E0.2952
G1 X58.493 Y21.073 E0.09107
G1 X59.81 Y21.019 E0.06576
G1 X61.251 Y21.152 E0.0722
G1 X62.799 Y21.745 E0.0827
G1 X64.487 Y22.857 E0.10085
G1 X65.492 Y24.169 E0.08245
G1 X78.866 Y47.289 E1.33254
G1 X79.71 Y47.812 E0.04954
G1 X80.879 Y49.276 E0.09347
G1 X81.777 Y51.089 E0.10094
G1 X82.011 Y53.106 E0.1013
G1 X81.982 Y58.59 E0.2736
G1 X81.982 Y72.801 E0.70899
G1 X81.6 Y74.659 E0.09463
G1 X80.733 Y76.222 E0.08917
G1 X80.016 Y77.148 E0.05843
G1 X78.807 Y78.122 E0.07746
G1 X77.017 Y79.014 E0.09978
G1 X75.34 Y79.238 E0.08441
G1 X69.458 Y79.262 E0.29346
G1 X67.587 Y78.879 E0.09528
G1 X65.926 Y77.951 E0.09492
G1 X65.113 Y77.314 E0.05153
G1 X64.116 Y76.077 E0.07926
G1 X63.23 Y74.298 E0.09915
G1 X63.022 Y72.844 E0.07328
G1 X62.99 Y65.093 E0.3867
G1 X36.989 Y65.093 E1.2972
G1 X36.989 Y72.801 E0.38455
G1 X36.607 Y74.659 E0.09463
G1 X35.74 Y76.222 E0.08917
G1 X35.023 Y77.148 E0.05843
G1 X33.814 Y78.122 E0.07746
G1 X32.024 Y79.014 E0.09978
G1 X30.347 Y79.238 E0.08441
G1 X24.37 Y79.262 E0.2982
G1 X22.557 Y78.865 E0.09259
G1 X20.979 Y77.993 E0.08995
G1 X20.11 Y77.312 E0.05508
G1 X19.135 Y76.098 E0.07768
G1 X18.222 Y74.254 E0.10266
G1 X17.989 Y72.262 E0.10006
G1 X18.011 Y52.554 E0.98324
G0 F3600 X18.411 Y52.596
G1 F1800 X18.773 Y50.836 E0.08964
G1 X19.61 Y49.327 E0.08609
G1 X20.262 Y48.491 E0.05289
G1 X21.408 Y47.568 E0.07341
G1 X23.093 Y46.728 E0.09393
G1 X24.431 Y46.533 E0.06746
G1 X56.951 Y46.496 E1.62243
G1 X49.285 Y33.226 E0.76458
G1 X48.792 Y31.579 E0.08577
G1 X48.766 Y29.861 E0.08572
G1 X48.879 Y28.979 E0.04436
G1 X49.432 Y27.535 E0.07714
G1 X50.483 Y25.941 E0.09526
G1 X51.87 Y24.889 E0.08685
G1 X56.906 Y21.968 E0.29045
G1 X58.558 Y21.471 E0.08607
G1 X59.826 Y21.419 E0.06331
G1 X61.157 Y21.545 E0.0667
G1 X62.617 Y22.104 E0.078
G1 X64.21 Y23.153 E0.09516
G1 X65.174 Y24.412 E0.07911
G1 X78.571 Y47.577 E1.33506
G1 X79.439 Y48.115 E0.05095
G1 X80.541 Y49.495 E0.08811
G1 X81.388 Y51.204 E0.09516
G1 X81.611 Y53.104 E0.09544
G1 X81.582 Y58.588 E0.2736
G1 X81.582 Y72.759 E0.70699
G1 X81.22 Y74.519 E0.08964
G1 X80.383 Y76.028 E0.08609
G1 X79.731 Y76.864 E0.05289
G1 X78.587 Y77.785 E0.07327
G1 X76.898 Y78.627 E0.09415
G1 X75.338 Y78.838 E0.07854
G1 X69.498 Y78.862 E0.29136
G1 X67.728 Y78.5 E0.09013
G1 X66.173 Y77.636 E0.08875
G1 X65.394 Y77.025 E0.04939
G1 X64.455 Y75.86 E0.07465
G1 X63.617 Y74.179 E0.09371
G1 X63.422 Y72.842 E0.06741
G1 X63.388 Y64.693 E0.40656
G1 X36.589 Y64.693 E1.33701
G1 X36.589 Y72.759 E0.40241
G1 X36.227 Y74.519 E0.08964
G1 X35.39 Y76.028 E0.08609
G1 X34.738 Y76.864 E0.05289
G1 X33.594 Y77.785 E0.07327
G1 X31.905 Y78.627 E0.09415
G1 X30.345 Y78.838 E0.07854
G1 X24.414 Y78.862 E0.2959
G1 X22.699 Y78.486 E0.08759
G1 X21.226 Y77.678 E0.08382
G1 X20.394 Y77.026 E0.05274
G1 X19.471 Y75.877 E0.07353
G1 X18.611 Y74.14 E0.0967
G1 X18.389 Y72.262 E0.09435
G1 X18.411 Y52.596 E0.98114
G0 F3600 X18.811 Y52.638
G1 F1800 X19.153 Y50.976 E0.08465
G1 X19.96 Y49.521 E0.08301
G1 X20.546 Y48.776 E0.04729
G1 X21.628 Y47.905 E0.0693
G1 X23.213 Y47.115 E0.08835
G1 X24.489 Y46.929 E0.06433
G1 X57.643 Y46.895 E1.65406
G1 X49.655 Y33.068 E0.79667
G1 X49.191 Y31.518 E0.08072
G1 X49.163 Y29.912 E0.08014
G1 X49.27 Y29.078 E0.04195
G1 X49.791 Y27.717 E0.07271
G1 X50.778 Y26.219 E0.0895
G1 X52.112 Y25.208 E0.08351
G1 X57.067 Y22.337 E0.2857
G1 X58.623 Y21.869 E0.08106
G1 X59.842 Y21.819 E0.06087
G1 X61.063 Y21.938 E0.0612
G1 X62.435 Y22.463 E0.07329
G1 X63.933 Y23.449 E0.08947
G1 X64.856 Y24.655 E0.07577
G1 X78.276 Y47.865 E1.33758
G1 X79.168 Y48.418 E0.05236
G1 X80.203 Y49.714 E0.08275
G1 X80.999 Y51.32 E0.08943
G1 X81.211 Y53.102 E0.08953
G1 X81.182 Y58.586 E0.2736
G1 X81.182 Y72.717 E0.705
G1 X80.84 Y74.379 E0.08465
G1 X80.033 Y75.834 E0.08301
G1 X79.447 Y76.579 E0.04729
G1 X78.367 Y77.448 E0.06916
G1 X76.778 Y78.24 E0.08858
G1 X75.336 Y78.438 E0.07262
G1 X69.538 Y78.462 E0.28927
G1 X67.867 Y78.12 E0.08509
G1 X66.42 Y77.321 E0.08247
G1 X65.677 Y76.739 E0.04709
G1 X64.792 Y75.64 E0.0704
G1 X64.004 Y74.059 E0.08813
G1 X63.818 Y72.784 E0.06428
G1 X63.787 Y64.293 E0.42362
G1 X36.189 Y64.293 E1.37687
G1 X36.189 Y72.717 E0.42028
G1 X35.847 Y74.379 E0.08465
G1 X35.04 Y75.834 E0.08301
G1 X34.454 Y76.579 E0.04729
G1 X33.374 Y77.448 E0.06916
G1 X31.785 Y78.24 E0.08858
G1 X30.343 Y78.438 E0.07262
G1 X24.458 Y78.462 E0.29361
G1 X22.838 Y78.107 E0.08274
G1 X21.473 Y77.363 E0.07756
G1 X20.678 Y76.74 E0.05039
G1 X19.807 Y75.656 E0.06938
G1 X19 Y74.026 E0.09074
G1 X18.789 Y72.262 E0.08863
G1 X18.811 Y52.638 E0.97905
G0 F3600 X19.211 Y52.68
G1 F1800 X19.533 Y51.116 E0.07966
G1 X20.31 Y49.715 E0.07993
G1 X20.831 Y49.061 E0.04172
G1 X21.846 Y48.244 E0.06501
G1 X23.334 Y47.502 E0.08295
G1 X24.547 Y47.325 E0.06116
G1 X58.335 Y47.294 E1.68569
G1 X50.025 Y32.909 E0.82881
G1 X49.59 Y31.457 E0.07562
G1 X49.56 Y29.963 E0.07455
G1 X49.661 Y29.173 E0.03973
G1 X50.148 Y27.903 E0.06786
G1 X51.075 Y26.495 E0.0841
G1 X52.313 Y25.554 E0.07758
G1 X57.228 Y22.706 E0.2834
G1 X58.688 Y22.267 E0.07606
G1 X59.858 Y22.219 E0.05842
G1 X60.969 Y22.331 E0.05571
G1 X62.253 Y22.822 E0.06858
G1 X63.656 Y23.745 E0.08378
G1 X64.538 Y24.898 E0.07242
G1 X77.981 Y48.153 E1.3401
G1 X78.897 Y48.721 E0.05377
G1 X79.865 Y49.933 E0.07739
G1 X80.61 Y51.436 E0.08369
G1 X80.811 Y53.1 E0.08362
G1 X80.789 Y58.496 E0.26921
G1 X80.782 Y58.563 E0.00336
G1 X80.782 Y72.675 E0.70405
G1 X80.46 Y74.239 E0.07966
G1 X79.683 Y75.64 E0.07993
G1 X79.162 Y76.294 E0.04172
G1 X78.147 Y77.111 E0.06501
G1 X76.658 Y77.853 E0.083
G1 X75.334 Y78.038 E0.0667
G1 X69.578 Y78.062 E0.28717
G1 X68.007 Y77.74 E0.08001
G1 X66.667 Y77.006 E0.07623
G1 X65.958 Y76.45 E0.04495
G1 X65.131 Y75.424 E0.06575
G1 X64.391 Y73.939 E0.08278
G1 X64.214 Y72.726 E0.06116
G1 X64.186 Y63.893 E0.44068
G1 X35.789 Y63.893 E1.41673
G1 X35.789 Y72.675 E0.43814
G1 X35.467 Y74.239 E0.07966
G1 X34.69 Y75.64 E0.07993
G1 X34.169 Y76.294 E0.04172
G1 X33.154 Y77.111 E0.06501
G1 X31.665 Y77.853 E0.083
G1 X30.341 Y78.038 E0.0667
G1 X24.502 Y78.062 E0.29131
G1 X22.978 Y77.728 E0.07784
G1 X21.72 Y77.048 E0.07134
G1 X20.962 Y76.454 E0.04805
G1 X20.146 Y75.439 E0.06497
G1 X19.389 Y73.909 E0.08516
G1 X19.189 Y72.262 E0.08277
G1 X19.211 Y52.68 E0.97695
G0 F3600 X19.611 Y52.722
G1 F1800 X19.913 Y51.255 E0.07472
G1 X20.623 Y49.964 E0.07351
G1 X21.115 Y49.347 E0.03937
G1 X22.066 Y48.581 E0.06092
G1 X23.454 Y47.889 E0.07738
G1 X24.605 Y47.721 E0.05803
G1 X59.027 Y47.693 E1.71732
G1 X50.395 Y32.75 E0.86096
G1 X49.989 Y31.395 E0.07057
G1 X49.957 Y30.014 E0.06892
G1 X50.052 Y29.272 E0.03732
G1 X50.507 Y28.085 E0.06342
G1 X51.371 Y26.773 E0.07837
G1 X52.514 Y25.9 E0.07175
G1 X57.389 Y23.075 E0.2811
G1 X58.753 Y22.665 E0.07106
G1 X59.874 Y22.619 E0.05597
G1 X60.875 Y22.724 E0.05021
G1 X62.071 Y23.181 E0.06388
G1 X63.379 Y24.042 E0.07813
G1 X64.192 Y25.098 E0.06649
G1 X77.686 Y48.441 E1.34517
G1 X78.626 Y49.024 E0.05518
G1 X79.527 Y50.152 E0.07203
G1 X80.221 Y51.552 E0.07796
G1 X80.411 Y53.099 E0.07776
G1 X80.391 Y58.454 E0.26716
G1 X80.382 Y58.54 E0.00431
G1 X80.382 Y72.633 E0.7031
G1 X80.08 Y74.1 E0.07472
G1 X79.37 Y75.391 E0.07351
G1 X78.878 Y76.008 E0.03937
G1 X77.927 Y76.774 E0.06092
G1 X76.538 Y77.466 E0.07742
G1 X75.332 Y77.638 E0.06078
G1 X69.618 Y77.662 E0.28508
G1 X68.145 Y77.36 E0.07502
G1 X66.914 Y76.691 E0.0699
G1 X66.239 Y76.161 E0.04282
G1 X65.47 Y75.208 E0.06109
G1 X64.778 Y73.819 E0.07742
G1 X64.61 Y72.668 E0.05803
G1 X64.585 Y63.493 E0.45774
G1 X35.389 Y63.493 E1.45659
G1 X35.389 Y72.633 E0.456
G1 X35.087 Y74.1 E0.07472
G1 X34.377 Y75.391 E0.07351
G1 X33.885 Y76.008 E0.03937
G1 X32.934 Y76.774 E0.06092
G1 X31.545 Y77.466 E0.07742
G1 X30.339 Y77.638 E0.06078
G1 X24.546 Y77.662 E0.28902
G1 X23.119 Y77.349 E0.07289
G1 X21.967 Y76.733 E0.06517
G1 X21.243 Y76.166 E0.04588
G1 X20.484 Y75.221 E0.06047
G1 X19.778 Y73.795 E0.07939
G1 X19.589 Y72.262 E0.07706
G1 X19.611 Y52.722 E0.97486
G0 F3600 X20.011 Y52.764
G1 F1800 X20.293 Y51.393 E0.06983
G1 X20.936 Y50.213 E0.06704
G1 X21.401 Y49.63 E0.0372
G1 X22.282 Y48.92 E0.05645
G1 X23.574 Y48.276 E0.07202
G1 X24.663 Y48.117 E0.05491
G1 X59.719 Y48.093 E1.74895
G1 X50.765 Y32.592 E0.8931
G1 X50.388 Y31.333 E0.06557
G1 X50.354 Y30.065 E0.06328
G1 X50.443 Y29.371 E0.03491
G1 X50.866 Y28.267 E0.05898
G1 X51.668 Y27.05 E0.07271
G1 X52.715 Y26.246 E0.06586
G1 X57.55 Y23.444 E0.2788
G1 X58.818 Y23.063 E0.06605
G1 X59.89 Y23.019 E0.05353
G1 X60.781 Y23.117 E0.04472
G1 X61.889 Y23.54 E0.05917
G1 X63.103 Y24.339 E0.07251
G1 X63.846 Y25.298 E0.06052
G1 X77.391 Y48.729 E1.35025
G1 X78.355 Y49.327 E0.0566
G1 X79.189 Y50.371 E0.06666
G1 X79.832 Y51.668 E0.07222
G1 X80.011 Y53.098 E0.0719
G1 X79.993 Y58.412 E0.26512
G1 X79.982 Y58.517 E0.00527
G1 X79.982 Y72.591 E0.70215
G1 X79.7 Y73.962 E0.06983
G1 X79.057 Y75.142 E0.06704
G1 X78.592 Y75.725 E0.0372
G1 X77.711 Y76.435 E0.05645
G1 X76.419 Y77.079 E0.07202
G1 X75.33 Y77.238 E0.05491
G1 X69.658 Y77.262 E0.28298
G1 X68.283 Y76.98 E0.07003
G1 X67.161 Y76.376 E0.06357
G1 X66.52 Y75.873 E0.04065
G1 X65.809 Y74.991 E0.05652
G1 X65.165 Y73.699 E0.07202
G1 X65.006 Y72.61 E0.05491
G1 X64.984 Y63.093 E0.47481
G1 X34.989 Y63.093 E1.49646
G1 X34.989 Y72.591 E0.47386
G1 X34.707 Y73.962 E0.06983
G1 X34.064 Y75.142 E0.06704
G1 X33.599 Y75.725 E0.0372
G1 X32.718 Y76.435 E0.05645
G1 X31.426 Y77.079 E0.07202
G1 X30.337 Y77.238 E0.05491
G1 X24.59 Y77.262 E0.28672
G1 X23.259 Y76.97 E0.06798
G1 X22.156 Y76.38 E0.06241
G1 X21.528 Y75.881 E0.04002
G1 X20.82 Y75 E0.05639
G1 X20.167 Y73.681 E0.07343
G1 X19.989 Y72.262 E0.07135
G1 X20.011 Y52.764 E0.97276
G0 F3600 X20.411 Y52.806
G1 F1800 X20.673 Y51.531 E0.06494
G1 X21.249 Y50.462 E0.06058
G1 X21.685 Y49.915 E0.0349
G1 X22.502 Y49.257 E0.05234
G1 X23.694 Y48.663 E0.06644
G1 X24.721 Y48.513 E0.05178
G1 X60.411 Y48.493 E1.78058
G1 X51.135 Y32.434 E0.92524
G1 X50.787 Y31.27 E0.06061
G1 X50.751 Y30.116 E0.0576
G1 X50.834 Y29.47 E0.03249
G1 X51.225 Y28.449 E0.05455
G1 X51.965 Y27.326 E0.0671
G1 X52.916 Y26.592 E0.05993
G1 X57.711 Y23.813 E0.2765
G1 X58.883 Y23.461 E0.06105
G1 X59.906 Y23.419 E0.05108
G1 X60.683 Y23.508 E0.03902
G1 X61.707 Y23.899 E0.05469
G1 X62.828 Y24.637 E0.06696
G1 X63.5 Y25.498 E0.05449
G1 X77.106 Y49.034 E1.3563
G1 X77.218 Y49.089 E0.00623
G1 X78.084 Y49.629 E0.05092
G1 X78.851 Y50.59 E0.06134
G1 X79.443 Y51.784 E0.06649
G1 X79.611 Y53.097 E0.06604
G1 X79.595 Y58.37 E0.26307
G1 X79.582 Y58.494 E0.00622
G1 X79.582 Y72.549 E0.70121
G1 X79.32 Y73.824 E0.06494
G1 X78.744 Y74.893 E0.06058
G1 X78.308 Y75.44 E0.0349
G1 X77.491 Y76.098 E0.05234
G1 X76.299 Y76.692 E0.06644
G1 X75.272 Y76.842 E0.05178
G1 X69.698 Y76.862 E0.27809
G1 X68.421 Y76.6 E0.06504
G1 X67.351 Y76.024 E0.06063
G1 X66.804 Y75.588 E0.0349
G1 X66.146 Y74.771 E0.05234
G1 X65.552 Y73.579 E0.06644
G1 X65.402 Y72.552 E0.05178
G1 X65.383 Y62.693 E0.49187
G1 X34.589 Y62.693 E1.53632
G1 X34.589 Y72.549 E0.49172
G1 X34.327 Y73.824 E0.06494
G1 X33.751 Y74.893 E0.06058
G1 X33.315 Y75.44 E0.0349
G1 X32.498 Y76.098 E0.05234
G1 X31.306 Y76.692 E0.06644
G1 X30.279 Y76.842 E0.05178
G1 X24.634 Y76.862 E0.28163
G1 X23.399 Y76.591 E0.06308
G1 X22.345 Y76.027 E0.05964
G1 X21.814 Y75.598 E0.03406
G1 X21.156 Y74.779 E0.05241
G1 X20.556 Y73.567 E0.06747
G1 X20.389 Y72.262 E0.06564
G1 X20.403 Y56.968 E0.76302
G1 X20.411 Y56.893 E0.00376
G1 X20.411 Y52.806 E0.2039
G0 F3600 X20.811 Y52.847
G1 F1800 X21.053 Y51.669 E0.06
G1 X21.601 Y50.652 E0.05764
G1 X21.967 Y50.202 E0.02894
G1 X22.722 Y49.594 E0.04836
G1 X23.814 Y49.05 E0.06087
G1 X24.779 Y48.909 E0.04866
G1 X61.103 Y48.893 E1.81221
G1 X51.505 Y32.276 E0.95738
G1 X51.185 Y31.207 E0.05567
G1 X51.148 Y30.167 E0.05192
G1 X51.225 Y29.569 E0.03008
G1 X51.584 Y28.631 E0.05011
G1 X52.262 Y27.602 E0.06148
G1 X53.117 Y26.938 E0.05401
G1 X57.872 Y24.182 E0.27419
G1 X58.948 Y23.859 E0.05605
G1 X59.922 Y23.819 E0.04863
G1 X60.585 Y23.899 E0.03332
G1 X61.525 Y24.258 E0.0502
G1 X62.554 Y24.936 E0.06148
G1 X63.154 Y25.698 E0.04839
G1 X76.824 Y49.344 E1.36265
G1 X77.006 Y49.428 E0.01
