;FLAVOR:RepRap
;TIME:6176
;Filament used: 5.59601m
;Layer height: 0.15
;MINX:17.2
;MINY:2.213
;MINZ:0.3
;MAXX:82.8
;MAXY:97.8
;MAXZ:15
;TARGET_MACHINE.NAME:Unknown
;Generated with Cura_SteamEngine 5.7.2
T0
M104 S200
M109 S200
M82 ;absolute extrusion mode
G28 ;Home
G1 Z15.0 F6000 ;Move the platform down 15mm
G92 E0
M83 ;relative extrusion mode
G1 F1500 E-6.5
;LAYER_COUNT:99
;LAYER:0
M107
G0 F3600 X17.622 Y7.334 Z0.3
;TYPE:SKIRT
G1 F1500 E6.5
G1 F1800 X18.617 Y5.563 E0.10135
G1 X19.39 Y4.565 E0.06298
G1 X20.743 Y3.473 E0.08674
G1 X22.722 Y2.487 E0.11031
G1 X24.246 Y2.265 E0.07684
G1 X75.622 Y2.213 E2.56316
G1 X77.679 Y2.635 E0.10476
G1 X79.45 Y3.63 E0.10135
G1 X80.448 Y4.403 E0.06298
G1 X81.54 Y5.756 E0.08674
G1 X82.526 Y7.735 E0.11031
G1 X82.748 Y9.259 E0.07684
G1 X82.8 Y90.622 E4.05922
G1 X82.378 Y92.679 E0.10476
G1 X81.383 Y94.45 E0.10135
G1 X80.61 Y95.448 E0.06298
G1 X79.257 Y96.54 E0.08674
G1 X77.278 Y97.526 E0.11031
G1 X75.754 Y97.748 E0.07684
G1 X24.378 Y97.8 E2.56316
G1 X22.321 Y97.378 E0.10476
G1 X20.55 Y96.383 E0.10135
G1 X19.552 Y95.61 E0.06298
G1 X18.46 Y94.257 E0.08674
G1 X17.474 Y92.278 E0.11031
G1 X17.252 Y90.754 E0.07684
G1 X17.2 Y9.391 E4.05922
G1 X17.622 Y7.334 E0.10476
G0 F3600 X18.002 Y7.475
G1 F1800 X18.933 Y5.808 E0.09526
G1 X19.678 Y4.846 E0.0607
G1 X20.96 Y3.812 E0.08217
G1 X22.842 Y2.874 E0.10491
G1 X24.304 Y2.661 E0.07371
G1 X75.581 Y2.613 E2.55822
G1 X77.538 Y3.015 E0.09967
G1 X79.205 Y3.946 E0.09526
G1 X80.167 Y4.691 E0.0607
G1 X81.201 Y5.973 E0.08217
G1 X82.139 Y7.855 E0.10491
G1 X82.352 Y9.317 E0.07371
G1 X82.4 Y90.581 E4.05428
G1 X81.998 Y92.538 E0.09967
G1 X81.067 Y94.205 E0.09526
G1 X80.322 Y95.167 E0.0607
G1 X79.04 Y96.201 E0.08217
G1 X77.158 Y97.139 E0.10491
G1 X75.696 Y97.352 E0.07371
G1 X24.419 Y97.4 E2.55822
G1 X22.462 Y96.998 E0.09967
G1 X20.795 Y96.067 E0.09526
G1 X19.833 Y95.322 E0.0607
G1 X18.799 Y94.04 E0.08217
G1 X17.861 Y92.158 E0.10491
G1 X17.648 Y90.696 E0.07371
G1 X17.6 Y9.432 E4.05428
G1 X18.002 Y7.475 E0.09967
G0 F3600 X18.382 Y7.616
G1 F1800 X19.249 Y6.053 E0.08917
G1 X19.966 Y5.127 E0.05843
G1 X21.177 Y4.151 E0.0776
G1 X22.962 Y3.261 E0.09951
G1 X24.362 Y3.057 E0.07058
G1 X75.539 Y3.013 E2.55323
G1 X77.397 Y3.395 E0.09463
G1 X78.96 Y4.262 E0.08917
G1 X79.886 Y4.979 E0.05843
G1 X80.862 Y6.19 E0.0776
G1 X81.752 Y7.975 E0.09951
G1 X81.956 Y9.375 E0.07058
G1 X82 Y90.539 E4.04929
G1 X81.618 Y92.397 E0.09463
G1 X80.751 Y93.96 E0.08917
G1 X80.034 Y94.886 E0.05843
G1 X78.823 Y95.862 E0.0776
G1 X77.038 Y96.752 E0.09951
G1 X75.638 Y96.956 E0.07058
G1 X24.461 Y97 E2.55323
G1 X22.603 Y96.618 E0.09463
G1 X21.04 Y95.751 E0.08917
G1 X20.114 Y95.034 E0.05843
G1 X19.138 Y93.823 E0.0776
G1 X18.248 Y92.038 E0.09951
G1 X18.044 Y90.638 E0.07058
G1 X18 Y9.474 E4.04929
G1 X18.382 Y7.616 E0.09463
G0 F3600 X18.762 Y7.756
G1 F1800 X19.599 Y6.247 E0.08609
G1 X20.251 Y5.411 E0.05289
G1 X21.397 Y4.488 E0.07341
G1 X23.082 Y3.648 E0.09393
G1 X24.42 Y3.453 E0.06746
G1 X75.497 Y3.413 E2.54824
G1 X77.257 Y3.775 E0.08964
G1 X78.766 Y4.612 E0.08609
G1 X79.602 Y5.264 E0.05289
G1 X80.525 Y6.41 E0.07341
G1 X81.365 Y8.095 E0.09393
G1 X81.56 Y9.433 E0.06746
G1 X81.6 Y90.497 E4.0443
G1 X81.238 Y92.257 E0.08964
G1 X80.401 Y93.766 E0.08609
G1 X79.749 Y94.602 E0.05289
G1 X78.603 Y95.525 E0.07341
G1 X76.918 Y96.365 E0.09393
G1 X75.58 Y96.56 E0.06746
G1 X24.503 Y96.6 E2.54824
G1 X22.743 Y96.238 E0.08964
G1 X21.234 Y95.401 E0.08609
G1 X20.398 Y94.749 E0.05289
G1 X19.475 Y93.603 E0.07341
G1 X18.635 Y91.918 E0.09393
G1 X18.44 Y90.58 E0.06746
G1 X18.4 Y9.516 E4.0443
G1 X18.762 Y7.756 E0.08964
G0 F3600 X19.142 Y7.896
G1 F1800 X19.949 Y6.441 E0.08301
G1 X20.535 Y5.696 E0.04729
G1 X21.617 Y4.825 E0.0693
G1 X23.202 Y4.035 E0.08835
G1 X24.478 Y3.849 E0.06433
G1 X75.455 Y3.813 E2.54325
G1 X77.117 Y4.155 E0.08465
G1 X78.572 Y4.962 E0.08301
G1 X79.317 Y5.548 E0.04729
G1 X80.188 Y6.63 E0.0693
G1 X80.978 Y8.215 E0.08835
G1 X81.164 Y9.491 E0.06433
G1 X81.2 Y90.455 E4.03931
G1 X80.858 Y92.117 E0.08465
G1 X80.051 Y93.572 E0.08301
G1 X79.465 Y94.317 E0.04729
G1 X78.383 Y95.188 E0.0693
G1 X76.798 Y95.978 E0.08835
G1 X75.522 Y96.164 E0.06433
G1 X24.545 Y96.2 E2.54325
G1 X22.883 Y95.858 E0.08465
G1 X21.428 Y95.051 E0.08301
G1 X20.683 Y94.465 E0.04729
G1 X19.812 Y93.383 E0.0693
G1 X19.022 Y91.798 E0.08835
G1 X18.836 Y90.522 E0.06433
G1 X18.8 Y9.558 E4.03931
G1 X19.142 Y7.896 E0.08465
G0 F3600 X19.522 Y8.036
G1 F1800 X20.299 Y6.635 E0.07993
G1 X20.82 Y5.981 E0.04172
G1 X21.835 Y5.164 E0.06501
G1 X23.323 Y4.422 E0.08295
G1 X24.536 Y4.245 E0.06116
G1 X75.413 Y4.213 E2.53826
G1 X76.977 Y4.535 E0.07966
G1 X78.378 Y5.312 E0.07993
G1 X79.032 Y5.833 E0.04172
G1 X79.849 Y6.848 E0.06501
G1 X80.591 Y8.336 E0.08295
G1 X80.768 Y9.549 E0.06116
G1 X80.8 Y90.413 E4.03432
G1 X80.478 Y91.977 E0.07966
G1 X79.701 Y93.378 E0.07993
G1 X79.18 Y94.032 E0.04172
G1 X78.165 Y94.849 E0.06501
G1 X76.677 Y95.591 E0.08295
G1 X75.464 Y95.768 E0.06116
G1 X24.587 Y95.8 E2.53826
G1 X23.023 Y95.478 E0.07966
G1 X21.622 Y94.701 E0.07993
G1 X20.968 Y94.18 E0.04172
G1 X20.151 Y93.165 E0.06501
G1 X19.409 Y91.677 E0.08295
G1 X19.232 Y90.464 E0.06116
G1 X19.2 Y9.6 E4.03432
G1 X19.522 Y8.036 E0.07966
G0 F3600 X19.902 Y8.175
G1 F1800 X20.612 Y6.884 E0.07351
G1 X21.104 Y6.267 E0.03937
G1 X22.055 Y5.501 E0.06092
G1 X23.443 Y4.809 E0.07738
G1 X24.594 Y4.641 E0.05803
G1 X75.371 Y4.613 E2.53328
G1 X76.838 Y4.915 E0.07472
G1 X78.129 Y5.625 E0.07351
G1 X78.746 Y6.117 E0.03937
G1 X79.512 Y7.068 E0.06092
G1 X80.204 Y8.456 E0.07738
G1 X80.372 Y9.607 E0.05803
G1 X80.4 Y90.371 E4.02933
G1 X80.098 Y91.838 E0.07472
G1 X79.388 Y93.129 E0.07351
G1 X78.896 Y93.746 E0.03937
G1 X77.945 Y94.512 E0.06092
G1 X76.557 Y95.204 E0.07738
G1 X75.406 Y95.372 E0.05803
G1 X24.629 Y95.4 E2.53328
G1 X23.162 Y95.098 E0.07472
G1 X21.871 Y94.388 E0.07351
G1 X21.254 Y93.896 E0.03937
G1 X20.488 Y92.945 E0.06092
G1 X19.796 Y91.557 E0.07738
G1 X19.628 Y90.406 E0.05803
G1 X19.6 Y9.642 E4.02933
G1 X19.902 Y8.175 E0.07472
G0 F3600 X20.282 Y8.313
G1 F1800 X20.925 Y7.133 E0.06704
G1 X21.39 Y6.55 E0.0372
G1 X22.271 Y5.84 E0.05645
G1 X23.563 Y5.196 E0.07202
G1 X24.652 Y5.037 E0.05491
G1 X75.329 Y5.013 E2.52829
G1 X76.7 Y5.295 E0.06983
G1 X77.88 Y5.938 E0.06704
G1 X78.463 Y6.403 E0.0372
G1 X79.173 Y7.284 E0.05645
G1 X79.817 Y8.576 E0.07202
G1 X79.976 Y9.665 E0.05491
G1 X80 Y90.329 E4.02434
G1 X79.718 Y91.7 E0.06983
G1 X79.075 Y92.88 E0.06704
G1 X78.61 Y93.463 E0.0372
G1 X77.729 Y94.173 E0.05645
G1 X76.437 Y94.817 E0.07202
G1 X75.348 Y94.976 E0.05491
G1 X24.671 Y95 E2.52829
G1 X23.3 Y94.718 E0.06983
G1 X22.12 Y94.075 E0.06704
G1 X21.537 Y93.61 E0.0372
G1 X20.827 Y92.729 E0.05645
G1 X20.183 Y91.437 E0.07202
G1 X20.024 Y90.348 E0.05491
G1 X20 Y9.684 E4.02434
G1 X20.282 Y8.313 E0.06983
G0 F3600 X20.662 Y8.451
G1 F1800 X21.238 Y7.382 E0.06058
G1 X21.674 Y6.835 E0.0349
G1 X22.491 Y6.177 E0.05234
G1 X23.683 Y5.583 E0.06644
G1 X24.71 Y5.433 E0.05178
G1 X75.287 Y5.413 E2.5233
G1 X76.562 Y5.675 E0.06494
G1 X77.631 Y6.251 E0.06058
G1 X78.178 Y6.687 E0.0349
G1 X78.836 Y7.504 E0.05234
G1 X79.43 Y8.696 E0.06644
G1 X79.58 Y9.723 E0.05178
G1 X79.6 Y90.287 E4.01935
G1 X79.338 Y91.562 E0.06494
G1 X78.762 Y92.631 E0.06058
G1 X78.326 Y93.178 E0.0349
G1 X77.509 Y93.836 E0.05234
G1 X76.317 Y94.43 E0.06644
G1 X75.29 Y94.58 E0.05178
G1 X24.713 Y94.6 E2.5233
G1 X23.438 Y94.338 E0.06494
G1 X22.369 Y93.762 E0.06058
G1 X21.822 Y93.326 E0.0349
G1 X21.164 Y92.509 E0.05234
G1 X20.57 Y91.317 E0.06644
G1 X20.42 Y90.29 E0.05178
G1 X20.4 Y9.726 E4.01935
G1 X20.662 Y8.451 E0.06494
G0 F3600 X21.042 Y8.589
G1 F1800 X21.59 Y7.572 E0.05764
G1 X21.956 Y7.122 E0.02894
G1 X22.711 Y6.514 E0.04836
G1 X23.803 Y5.97 E0.06087
G1 X24.768 Y5.829 E0.04866
G1 X75.246 Y5.813 E2.51836
G1 X76.424 Y6.055 E0.06
G1 X77.441 Y6.603 E0.05764
G1 X77.891 Y6.969 E0.02894
G1 X78.499 Y7.724 E0.04836
G1 X79.043 Y8.816 E0.06087
G1 X79.184 Y9.781 E0.04866
G1 X79.2 Y90.246 E4.01442
G1 X78.958 Y91.424 E0.06
G1 X78.41 Y92.441 E0.05764
G1 X78.044 Y92.891 E0.02894
G1 X77.289 Y93.499 E0.04836
G1 X76.197 Y94.043 E0.06087
G1 X75.232 Y94.184 E0.04866
G1 X24.754 Y94.2 E2.51836
G1 X23.576 Y93.958 E0.06
G1 X22.559 Y93.41 E0.05764
G1 X22.109 Y93.044 E0.02894
G1 X21.501 Y92.289 E0.04836
G1 X20.957 Y91.197 E0.06087
G1 X20.816 Y90.232 E0.04866
G1 X20.8 Y9.767 E4.01442
G1 X21.042 Y8.589 E0.06
G0 F3600 X21.422 Y8.727
G1 F1800 X21.905 Y7.819 E0.05131
G1 X22.207 Y7.434 E0.02441
G1 X22.931 Y6.851 E0.04638
G1 X23.923 Y6.357 E0.05529
G1 X24.826 Y6.225 E0.04553
G1 X75.205 Y6.213 E2.51342
G1 X76.286 Y6.435 E0.05506
G1 X77.194 Y6.918 E0.05131
G1 X77.579 Y7.22 E0.02441
G1 X78.162 Y7.944 E0.04638
G1 X78.656 Y8.936 E0.05529
G1 X78.788 Y9.839 E0.04553
G1 X78.8 Y90.205 E4.00948
G1 X78.578 Y91.286 E0.05506
G1 X78.095 Y92.194 E0.05131
G1 X77.793 Y92.579 E0.02441
G1 X77.069 Y93.162 E0.04638
G1 X76.077 Y93.656 E0.05529
G1 X75.174 Y93.788 E0.04553
G1 X24.795 Y93.8 E2.51342
G1 X23.714 Y93.578 E0.05506
G1 X22.806 Y93.095 E0.05131
G1 X22.421 Y92.793 E0.02441
G1 X21.838 Y92.069 E0.04638
G1 X21.344 Y91.077 E0.05529
G1 X21.212 Y90.174 E0.04553
G1 X21.2 Y9.808 E4.00948
G1 X21.422 Y8.727 E0.05506
G0 F3600 X21.802 Y8.863
G1 F1800 X22.226 Y8.058 E0.04539
G1 X22.458 Y7.746 E0.0194
G1 X23.151 Y7.188 E0.04439
G1 X24.043 Y6.744 E0.04971
G1 X24.884 Y6.621 E0.0424
G1 X75.164 Y6.613 E2.50848
G1 X76.15 Y6.815 E0.05021
G1 X76.955 Y7.239 E0.04539
G1 X77.267 Y7.471 E0.0194
G1 X77.825 Y8.164 E0.04439
G1 X78.269 Y9.056 E0.04971
G1 X78.392 Y9.897 E0.0424
G1 X78.4 Y90.164 E4.00454
G1 X78.198 Y91.15 E0.05021
G1 X77.774 Y91.955 E0.04539
G1 X77.542 Y92.267 E0.0194
G1 X76.849 Y92.825 E0.04439
G1 X75.957 Y93.269 E0.04971
G1 X75.116 Y93.392 E0.0424
G1 X24.836 Y93.4 E2.50848
G1 X23.85 Y93.198 E0.05021
G1 X23.045 Y92.774 E0.04539
G1 X22.733 Y92.542 E0.0194
G1 X22.175 Y91.849 E0.04439
G1 X21.731 Y90.957 E0.04971
G1 X21.608 Y90.116 E0.0424
G1 X21.6 Y9.849 E4.00454
G1 X21.802 Y8.863 E0.05021
G0 F3600 X22.182 Y9
G1 F1800 X22.58 Y8.245 E0.04258
G1 X22.749 Y8.025 E0.01384
G1 X23.367 Y7.527 E0.0396
G1 X24.163 Y7.131 E0.04436
G1 X24.942 Y7.017 E0.03928
G1 X75.123 Y7.013 E2.50354
G1 X76.013 Y7.195 E0.04532
G1 X76.768 Y7.593 E0.04258
G1 X76.988 Y7.762 E0.01384
G1 X77.486 Y8.38 E0.0396
G1 X77.882 Y9.176 E0.04436
G1 X77.996 Y9.955 E0.03928
G1 X78 Y90.123 E3.9996
G1 X77.818 Y91.013 E0.04532
G1 X77.42 Y91.768 E0.04258
G1 X77.251 Y91.988 E0.01384
G1 X76.633 Y92.486 E0.0396
G1 X75.837 Y92.882 E0.04436
G1 X75.058 Y92.996 E0.03928
G1 X24.877 Y93 E2.50354
G1 X23.987 Y92.818 E0.04532
G1 X23.232 Y92.42 E0.04258
G1 X23.012 Y92.251 E0.01384
G1 X22.514 Y91.633 E0.0396
G1 X22.118 Y90.837 E0.04436
G1 X22.004 Y90.058 E0.03928
G1 X22 Y9.89 E3.9996
G1 X22.182 Y9 E0.04532
G0 F3600 X22.563 Y9.135
G1 F1800 X22.934 Y8.431 E0.0397
G1 X23.037 Y8.306 E0.00808
G1 X23.583 Y7.866 E0.03498
G1 X24.283 Y7.518 E0.039
G1 X25 Y7.413 E0.03615
G1 X75.082 Y7.413 E2.4986
G1 X75.878 Y7.576 E0.04054
G1 X76.582 Y7.947 E0.0397
G1 X76.707 Y8.05 E0.00808
G1 X77.147 Y8.596 E0.03498
G1 X77.495 Y9.296 E0.039
G1 X77.6 Y10.013 E0.03615
G1 X77.6 Y90.082 E3.99466
G1 X77.437 Y90.878 E0.04054
G1 X77.066 Y91.582 E0.0397
G1 X76.963 Y91.707 E0.00808
G1 X76.417 Y92.147 E0.03498
G1 X75.717 Y92.495 E0.039
G1 X75 Y92.6 E0.03615
G1 X24.918 Y92.6 E2.4986
G1 X24.122 Y92.437 E0.04054
G1 X23.418 Y92.066 E0.0397
G1 X23.293 Y91.963 E0.00808
G1 X22.853 Y91.417 E0.03498
G1 X22.505 Y90.717 E0.039
G1 X22.4 Y90 E0.03615
G1 X22.4 Y9.931 E3.99466
G1 X22.563 Y9.135 E0.04054
G0 F3600 X22.944 Y9.27
G1 F1800 X23.288 Y8.617 E0.03682
G1 X23.799 Y8.205 E0.03275
G1 X24.405 Y7.904 E0.03376
G1 X25 Y7.813 E0.03003
G1 X75.041 Y7.813 E2.49656
G1 X75.743 Y7.957 E0.03575
G1 X76.396 Y8.301 E0.03682
G1 X76.808 Y8.812 E0.03275
G1 X77.109 Y9.418 E0.03376
G1 X77.2 Y10.013 E0.03003
G1 X77.2 Y90.041 E3.99261
G1 X77.056 Y90.743 E0.03575
G1 X76.712 Y91.396 E0.03682
G1 X76.201 Y91.808 E0.03275
G1 X75.595 Y92.109 E0.03376
G1 X75 Y92.2 E0.03003
G1 X24.959 Y92.2 E2.49656
G1 X24.257 Y92.056 E0.03575
G1 X23.604 Y91.712 E0.03682
G1 X23.192 Y91.201 E0.03275
G1 X22.891 Y90.595 E0.03376
G1 X22.8 Y90 E0.03003
G1 X22.8 Y9.972 E3.99261
G1 X22.944 Y9.27 E0.03575
G0 F3600 X23.324 Y9.407
G1 F1800 X23.605 Y8.875 E0.03002
G1 X23.977 Y8.563 E0.02422
G1 X24.526 Y8.29 E0.03059
G1 X25 Y8.213 E0.02396
G1 X75 Y8.213 E2.49451
G1 X75.606 Y8.337 E0.03086
G1 X76.138 Y8.618 E0.03002
G1 X76.45 Y8.99 E0.02422
G1 X76.723 Y9.539 E0.03059
G1 X76.8 Y10.013 E0.02396
G1 X76.8 Y90 E3.99057
G1 X76.676 Y90.606 E0.03086
G1 X76.395 Y91.138 E0.03002
G1 X76.023 Y91.45 E0.02422
G1 X75.474 Y91.723 E0.03059
G1 X75 Y91.8 E0.02396
G1 X25 Y91.8 E2.49451
G1 X24.394 Y91.676 E0.03086
G1 X23.862 Y91.395 E0.03002
G1 X23.55 Y91.023 E0.02422
G1 X23.277 Y90.474 E0.03059
G1 X23.2 Y90 E0.02396
G1 X23.2 Y10.013 E3.99057
G1 X23.324 Y9.407 E0.03086
G0 F3600 X23.678 Y9.594
G1 F1800 X23.923 Y9.13 E0.02618
G1 X24.155 Y8.921 E0.01558
G1 X24.649 Y8.675 E0.02753
G1 X25 Y8.613 E0.01778
G1 X75 Y8.613 E2.49451
G1 X75.419 Y8.691 E0.02126
G1 X75.883 Y8.936 E0.02618
G1 X76.092 Y9.168 E0.01558
G1 X76.338 Y9.662 E0.02753
G1 X76.4 Y10.013 E0.01778
G1 X76.4 Y90 E3.99057
G1 X76.322 Y90.419 E0.02126
G1 X76.077 Y90.883 E0.02618
G1 X75.845 Y91.092 E0.01558
G1 X75.351 Y91.338 E0.02753
G1 X75 Y91.4 E0.01778
G1 X25 Y91.4 E2.49451
G1 X24.581 Y91.322 E0.02126
G1 X24.117 Y91.077 E0.02618
G1 X23.908 Y90.845 E0.01558
G1 X23.662 Y90.351 E0.02753
G1 X23.6 Y90 E0.01778
G1 X23.6 Y10.013 E3.99057
G1 X23.678 Y9.594 E0.02126
G0 F3600 X24.07 Y9.675
G1 F1800 X24.207 Y9.412 E0.01479
G1 X24.345 Y9.273 E0.00977
G1 X24.727 Y9.067 E0.02165
G1 X25 Y9.013 E0.01388
G1 X75 Y9.013 E2.49451
G1 X75.338 Y9.083 E0.01722
G1 X75.601 Y9.22 E0.01479
G1 X75.74 Y9.358 E0.00977
G1 X75.946 Y9.74 E0.02165
G1 X76 Y10.013 E0.01388
G1 X76 Y90 E3.99057
G1 X75.93 Y90.338 E0.01722
G1 X75.793 Y90.601 E0.01479
G1 X75.655 Y90.74 E0.00977
G1 X75.273 Y90.946 E0.02165
G1 X75 Y91 E0.01388
G1 X25 Y91 E2.49451
G1 X24.662 Y90.93 E0.01722
G1 X24.399 Y90.793 E0.01479
G1 X24.26 Y90.655 E0.00977
G1 X24.054 Y90.273 E0.02165
G1 X24 Y90 E0.01388
G1 X24 Y10.013 E3.99057
G1 X24.07 Y9.675 E0.01722
G0 F3600 X24.839 Y9.894
G1 F1800 X25 Y9.813 E0.00899
G1 X75 Y9.813 E2.49451
G1 X75.119 Y9.852 E0.00625
G1 X75.2 Y10.013 E0.00899
G1 X75.2 Y90 E3.99057
G1 X75.161 Y90.119 E0.00625
G1 X75 Y90.2 E0.00899
G1 X25 Y90.2 E2.49451
G1 X24.881 Y90.161 E0.00625
G1 X24.8 Y90 E0.00899
G1 X24.8 Y10.013 E3.99057
G1 X24.839 Y9.894 E0.00625
G0 F3600 X24.459 Y9.769
G1 F1800 X24.55 Y9.617 E0.00884
G1 X24.82 Y9.456 E0.01568
G1 X25 Y9.413 E0.00923
G1 X75 Y9.413 E2.49451
G1 X75.244 Y9.472 E0.01252
G1 X75.396 Y9.563 E0.00884
G1 X75.557 Y9.833 E0.01568
G1 X75.6 Y10.013 E0.00923
G1 X75.6 Y90 E3.99057
G1 X75.541 Y90.244 E0.01252
G1 X75.45 Y90.396 E0.00884
G1 X75.18 Y90.557 E0.01568
G1 X75 Y90.6 E0.00923
G1 X25 Y90.6 E2.49451
G1 X24.756 Y90.541 E0.01252
G1 X24.604 Y90.45 E0.00884
G1 X24.443 Y90.18 E0.01568
G1 X24.4 Y90 E0.00923
G1 X24.4 Y10.013 E3.99057
G1 X24.459 Y9.769 E0.01252
G1 F1500 E-6.5
G0 F3600 X35.197 Y81.204
G1 F1500 E6.5
G1 F1800 X35.751 Y80.704 E0.03723
G1 X35.91 Y80.504 E0.01275
G1 X36.253 Y80.94 E0.02768
G1 X36.6 Y81.203 E0.02172
G0 F3600 X37.108 Y81.086
G1 F1800 X36.535 Y80.651 E0.03589
G1 X35.902 Y79.848 E0.05101
G1 X35.483 Y80.407 E0.03485
G1 X34.717 Y81.099 E0.0515
G0 F3600 X34.285 Y80.95
G1 F1800 X35.186 Y80.136 E0.06058
G1 X35.894 Y79.191 E0.05891
G1 X36.819 Y80.365 E0.07457
G1 X37.562 Y80.93 E0.04657
G0 F3600 X37.975 Y80.737
G1 F1800 X37.099 Y80.075 E0.05478
G1 X36.188 Y78.918 E0.07347
G1 X35.948 Y78.452 E0.02615
G1 X34.889 Y79.865 E0.0881
G1 X34.01 Y80.659 E0.0591
G1 X33.843 Y80.754 E0.00959
G0 F3600 X33.451 Y80.516
G1 F1800 X33.742 Y80.362 E0.01643
G1 X34.592 Y79.594 E0.05715
G1 X35.595 Y78.257 E0.08339
G1 X35.875 Y77.336 E0.04803
G1 X35.927 Y77.535 E0.01026
G1 X36.528 Y78.704 E0.06558
G1 X37.379 Y79.785 E0.06864
G1 X38.206 Y80.413 E0.05181
G1 X38.366 Y80.5 E0.00909
G0 F3600 X38.739 Y80.248
G1 F1800 X38.448 Y80.095 E0.0164
G1 X37.661 Y79.497 E0.04931
G1 X36.868 Y78.49 E0.06395
G1 X36.283 Y77.352 E0.06384
G1 X36.057 Y76.021 E0.06735
G1 X36.041 Y75.545 E0.02376
G1 X35.977 Y74.789 E0.03785
